resources/LUTs/LUT Colour Grades (cube)/Capture_CC_Style_01.cube
LUT_3D_SIZE 6
0.00000 0.00000 0.00000
0.19023 0.00906 0.00906
0.38045 0.01813 0.01813
0.57068 0.02719 0.02719
0.76091 0.03625 0.03625
0.95114 0.04531 0.04531
0.02015 0.19645 0.02015
0.19912 0.19912 0.01795
0.38578 0.20461 0.02345
0.57426 0.21193 0.03076
0.76353 0.22003 0.03887
0.95317 0.22851 0.04735
0.04029 0.39291 0.04029
0.21409 0.39525 0.03292
0.39824 0.39824 0.03591
0.58423 0.40307 0.04074
0.77155 0.40922 0.04689
0.95975 0.41625 0.05392
0.06044 0.58936 0.06044
0.23124 0.59170 0.05101
0.41286 0.59402 0.05053
0.59736 0.59736 0.05386
0.78309 0.60193 0.05844
0.96983 0.60750 0.06400
0.08058 0.78582 0.08058
0.25026 0.78801 0.07101
0.42818 0.79050 0.06585
0.61181 0.79297 0.06832
0.79648 0.79648 0.07182
0.98207 0.80091 0.07625
0.10073 0.98227 0.10073
0.26973 0.98437 0.09107
0.44413 0.98717 0.08211
0.62687 0.98920 0.08338
0.81083 0.99199 0.08617
0.99560 0.99560 0.08977
0.01122 0.01122 0.17926
0.19206 0.01090 0.19206
0.38133 0.01900 0.20016
0.57123 0.02773 0.20890
0.76130 0.03664 0.21780
0.95143 0.04561 0.22678
0.03204 0.19658 0.19658
0.20538 0.20161 0.17622
0.39210 0.20676 0.18136
0.57912 0.21449 0.18910
0.76737 0.22307 0.19767
0.95635 0.23194 0.20655
0.05100 0.39185 0.22143
0.23601 0.39252 0.20685
0.40450 0.40074 0.18736
0.60112 0.40255 0.18235
0.78708 0.40779 0.19463
0.97322 0.41487 0.20461
0.07085 0.58801 0.24323
0.26373 0.58679 0.23458
0.42594 0.59265 0.22631
0.60349 0.59972 0.20398
0.79801 0.60256 0.19379
0.98876 0.60588 0.20136
0.09086 0.78433 0.26423
0.28879 0.78216 0.25963
0.45146 0.78650 0.25291
0.62054 0.79296 0.23902
0.80252 0.79875 0.22155
0.99412 0.80229 0.21268
0.11094 0.98072 0.28490
0.31228 0.97797 0.28312
0.47498 0.98169 0.27567
0.64317 0.98671 0.26672
0.81792 0.99261 0.25339
1.00000 1.00000 0.20000
0.02245 0.02245 0.35852
0.19649 0.01683 0.37616
0.38412 0.02179 0.38412
0.57309 0.02959 0.39192
0.76265 0.03799 0.40032
0.95248 0.04666 0.40899
0.04421 0.20288 0.36154
0.21245 0.20869 0.33604
0.38399 0.21555 0.35483
0.56509 0.22551 0.36802
0.75466 0.23310 0.38030
0.94603 0.24043 0.39049
0.06407 0.39316 0.39316
0.24829 0.39411 0.36871
0.41065 0.40320 0.35290
0.59798 0.40728 0.35698
0.78409 0.41348 0.36318
0.97073 0.42089 0.37059
0.08255 0.58795 0.41948
0.27459 0.58674 0.40339
0.44148 0.59268 0.38373
0.60990 0.60245 0.36125
0.81147 0.60304 0.35177
0.99793 0.60684 0.36472
0.10200 0.78371 0.44285
0.29915 0.78147 0.43202
0.47191 0.78500 0.41416
0.63203 0.79272 0.40613
0.80890 0.80145 0.37518
1.00000 0.80000 0.40000
0.12177 0.97979 0.46498
0.32243 0.97696 0.45785
0.50049 0.97885 0.44274
0.66102 0.98464 0.43773
0.82587 0.99340 0.41815
1.00000 1.00000 0.40000
0.03367 0.03367 0.53777
0.20327 0.02748 0.55484
0.38837 0.02605 0.56954
0.57618 0.03269 0.57618
0.76500 0.04035 0.58384
0.95435 0.04852 0.59202
0.05216 0.21244 0.53300
0.22206 0.21830 0.50438
0.39135 0.22107 0.52871
0.56980 0.23022 0.54064
0.75381 0.23923 0.55438
0.94024 0.24859 0.56714
0.07672 0.39796 0.55859
0.25772 0.40101 0.52267
0.41680 0.40935 0.51026
0.58678 0.41631 0.52903
0.76310 0.42628 0.54067
0.95029 0.43351 0.55299
0.09611 0.58974 0.58974
0.28792 0.58917 0.56377
0.45393 0.59455 0.54425
0.61065 0.60320 0.55290
0.79841 0.60686 0.55656
0.98470 0.61215 0.56185
0.11433 0.78427 0.61679
0.31104 0.78230 0.59856
0.48310 0.78549 0.58027
0.64126 0.79208 0.58352
0.80998 0.80252 0.55999
1.00000 0.80000 0.60000
0.13346 0.97971 0.64121
0.33364 0.97699 0.62804
0.51111 0.97867 0.61170
0.67238 0.98323 0.61463
0.83202 0.99199 0.60684
1.00000 1.00000 0.60000
0.04490 0.04490 0.71703
0.21212 0.03827 0.73367
0.39299 0.03366 0.75232
0.58025 0.03676 0.76142
0.76825 0.04359 0.76825
0.95698 0.05116 0.77582
0.06044 0.22266 0.70931
0.23274 0.22898 0.67738
0.39909 0.23010 0.70037
0.57828 0.23397 0.71939
0.75862 0.24403 0.72946
0.94400 0.25235 0.74287
0.08843 0.40575 0.72308
0.26338 0.41026 0.68616
0.42480 0.41735 0.67255
0.59265 0.42188 0.69822
0.76788 0.43106 0.71013
0.94749 0.44085 0.72334
0.10915 0.59396 0.75557
0.29699 0.59517 0.72074
0.46414 0.60092 0.69485
0.61643 0.60898 0.70952
0.78591 0.61584 0.72816
0.96000 0.62548 0.73872
0.12814 0.78632 0.78632
0.32480 0.78500 0.75960
0.49648 0.78818 0.73789
0.65378 0.79404 0.74374
0.80538 0.80161 0.77622
0.99339 0.80505 0.77966
0.14621 0.98069 0.81380
0.34613 0.97832 0.79394
0.52320 0.97995 0.77492
0.68378 0.98401 0.77987
0.83580 0.99016 0.80664
1.00000 1.00000 0.80000
0.05612 0.05612 0.89629
0.22188 0.04920 0.91263
0.39897 0.04429 0.93098
0.58501 0.04152 0.94734
0.77221 0.04756 0.95338
0.96031 0.05449 0.96031
0.06992 0.23330 0.88683
0.24387 0.24011 0.85275
0.40856 0.23977 0.87449
0.58546 0.24060 0.89740
0.76689 0.24721 0.90971
0.94876 0.25711 0.91960
0.09775 0.41521 0.89140
0.26982 0.42004 0.85661
0.43401 0.42656 0.83927
0.59917 0.43026 0.86434
0.77571 0.43547 0.88436
0.95256 0.44592 0.89481
0.12090 0.60042 0.92010
0.30585 0.60332 0.87915
0.46973 0.60950 0.85363
0.62363 0.61618 0.86924
0.79090 0.62127 0.89533
0.96465 0.63013 0.90690
0.14146 0.79023 0.95242
0.33399 0.79044 0.91845
0.50647 0.79408 0.89131
0.66426 0.80003 0.89295
0.81096 0.80720 0.93251
0.98021 0.81397 0.95105
0.16018 0.98290 0.98290
0.36012 0.98114 0.95574
0.53699 0.98294 0.93264
0.69717 0.98678 0.93648
0.84835 0.99216 0.96677
1.00000 1.00000 1.00000
