resources/LUTs/LUT Colour Grades (cube)/Capture_CC_Style_01.cube
LUT_3D_SIZE 16
0.00000 0.00000 0.00000
0.06341 0.00302 0.00302
0.12682 0.00604 0.00604
0.19023 0.00906 0.00906
0.25364 0.01208 0.01208
0.31705 0.01510 0.01510
0.38045 0.01813 0.01813
0.44386 0.02115 0.02115
0.50727 0.02417 0.02417
0.57068 0.02719 0.02719
0.63409 0.03021 0.03021
0.69750 0.03323 0.03323
0.76091 0.03625 0.03625
0.82432 0.03927 0.03927
0.88773 0.04229 0.04229
0.95114 0.04531 0.04531
0.00672 0.06548 0.00672
0.06637 0.06637 0.00598
0.12859 0.06820 0.00782
0.19142 0.07064 0.01025
0.25451 0.07334 0.01296
0.31772 0.07617 0.01578
0.38100 0.07906 0.01868
0.44432 0.08199 0.02161
0.50767 0.08495 0.02456
0.57102 0.08792 0.02753
0.63439 0.09090 0.03051
0.69777 0.09389 0.03350
0.76115 0.09688 0.03649
0.82454 0.09988 0.03949
0.88793 0.10288 0.04250
0.95132 0.10589 0.04550
0.01343 0.13097 0.01343
0.07136 0.13175 0.01097
0.13275 0.13275 0.01197
0.19474 0.13436 0.01358
0.25718 0.13641 0.01563
0.31992 0.13875 0.01797
0.38284 0.14128 0.02051
0.44588 0.14394 0.02317
0.50902 0.14669 0.02591
0.57221 0.14949 0.02872
0.63545 0.15234 0.03157
0.69872 0.15522 0.03445
0.76201 0.15813 0.03735
0.82532 0.16105 0.04027
0.88865 0.16399 0.04321
0.95198 0.16694 0.04616
0.02015 0.19645 0.02015
0.07708 0.19723 0.01700
0.13762 0.19801 0.01684
0.19912 0.19912 0.01795
0.26103 0.20064 0.01948
0.32328 0.20250 0.02133
0.38578 0.20461 0.02345
0.44847 0.20692 0.02575
0.51131 0.20937 0.02820
0.57426 0.21193 0.03076
0.63729 0.21457 0.03341
0.70038 0.21728 0.03611
0.76353 0.22003 0.03887
0.82671 0.22283 0.04167
0.88993 0.22566 0.04449
0.95317 0.22851 0.04735
0.02686 0.26194 0.02686
0.08342 0.26267 0.02367
0.14273 0.26350 0.02195
0.20394 0.26432 0.02277
0.26549 0.26549 0.02394
0.32736 0.26697 0.02542
0.38949 0.26871 0.02716
0.45184 0.27067 0.02912
0.51437 0.27282 0.03126
0.57704 0.27510 0.03355
0.63983 0.27750 0.03595
0.70271 0.28000 0.03844
0.76567 0.28257 0.04102
0.82870 0.28520 0.04365
0.89177 0.28789 0.04634
0.95488 0.29062 0.04906
0.03358 0.32742 0.03358
0.08991 0.32812 0.03036
0.14804 0.32906 0.02737
0.20896 0.32973 0.02779
0.27028 0.33066 0.02872
0.33187 0.33187 0.02992
0.39370 0.33331 0.03137
0.45576 0.33498 0.03304
0.51801 0.33684 0.03490
0.58041 0.33886 0.03692
0.64296 0.34102 0.03908
0.70562 0.34329 0.04135
0.76838 0.34566 0.04372
0.83122 0.34811 0.04617
0.89413 0.35063 0.04869
0.95709 0.35321 0.05127
0.04029 0.39291 0.04029
0.09647 0.39359 0.03705
0.15416 0.39447 0.03401
0.21409 0.39525 0.03292
0.27524 0.39602 0.03369
0.33663 0.39701 0.03469
0.39824 0.39824 0.03591
0.46006 0.39967 0.03734
0.52206 0.40129 0.03896
0.58423 0.40307 0.04074
0.64655 0.40500 0.04267
0.70900 0.40705 0.04473
0.77155 0.40922 0.04689
0.83420 0.41149 0.04916
0.89694 0.41383 0.05150
0.95975 0.41625 0.05392
0.04701 0.45839 0.04701
0.10308 0.45906 0.04375
0.16045 0.45990 0.04067
0.21928 0.46083 0.03812
0.28031 0.46147 0.03876
0.34155 0.46232 0.03961
0.40298 0.46337 0.04066
0.46461 0.46461 0.04189
0.52642 0.46603 0.04331
0.58838 0.46761 0.04489
0.65050 0.46933 0.04662
0.71274 0.47119 0.04847
0.77511 0.47317 0.05045
0.83758 0.47525 0.05253
0.90014 0.47743 0.05471
0.96279 0.47968 0.05697
0.05372 0.52388 0.05372
0.10971 0.52453 0.05046
0.16684 0.52534 0.04734
0.22509 0.52629 0.04437
0.28545 0.52700 0.04390
0.34657 0.52774 0.04463
0.40787 0.52865 0.04554
0.46935 0.52973 0.04663
0.53098 0.53098 0.04788
0.59278 0.53239 0.04929
0.65472 0.53394 0.05083
0.71679 0.53562 0.05252
0.77898 0.53742 0.05432
0.84128 0.53934 0.05623
0.90368 0.54135 0.05824
0.96617 0.54345 0.06034
0.06044 0.58936 0.06044
0.11637 0.59001 0.05716
0.17331 0.59079 0.05402
0.23124 0.59170 0.05101
0.29064 0.59258 0.04908
0.35167 0.59322 0.04973
0.41286 0.59402 0.05053
0.47421 0.59498 0.05149
0.53571 0.59610 0.05260
0.59736 0.59736 0.05386
0.65914 0.59876 0.05526
0.72106 0.60028 0.05679
0.78309 0.60193 0.05844
0.84524 0.60369 0.06019
0.90749 0.60554 0.06205
0.96983 0.60750 0.06400
0.06715 0.65485 0.06715
0.12303 0.65549 0.06387
0.17982 0.65625 0.06071
0.23751 0.65713 0.05767
0.29609 0.65812 0.05474
0.35681 0.65875 0.05487
0.41792 0.65947 0.05559
0.47916 0.66033 0.05645
0.54055 0.66133 0.05745
0.60208 0.66246 0.05858
0.66373 0.66373 0.05985
0.72551 0.66512 0.06124
0.78741 0.66663 0.06275
0.84941 0.66825 0.06437
0.91152 0.66997 0.06609
0.97372 0.67178 0.06790
0.07387 0.72033 0.07387
0.12971 0.72097 0.07058
0.18637 0.72171 0.06740
0.24386 0.72257 0.06434
0.30215 0.72352 0.06137
0.36200 0.72432 0.06006
0.42303 0.72497 0.06070
0.48419 0.72574 0.06147
0.54548 0.72665 0.06238
0.60690 0.72768 0.06341
0.66844 0.72883 0.06456
0.73010 0.73010 0.06583
0.79188 0.73149 0.06722
0.85376 0.73298 0.06871
0.91574 0.73457 0.07031
0.97782 0.73626 0.07199
0.08058 0.78582 0.08058
0.13639 0.78645 0.07729
0.19295 0.78718 0.07410
0.25026 0.78801 0.07101
0.30833 0.78894 0.06802
0.36721 0.78992 0.06527
0.42818 0.79050 0.06585
0.48927 0.79121 0.06655
0.55048 0.79203 0.06737
0.61181 0.79297 0.06832
0.67325 0.79403 0.06937
0.73481 0.79520 0.07054
0.79648 0.79648 0.07182
0.85825 0.79786 0.07320
0.92011 0.79934 0.07468
0.98207 0.80091 0.07625
0.08730 0.85130 0.08730
0.14307 0.85193 0.08400
0.19955 0.85265 0.08080
0.25672 0.85346 0.07769
0.31458 0.85436 0.07468
0.37313 0.85535 0.07174
0.43336 0.85607 0.07103
0.49439 0.85672 0.07167
0.55553 0.85747 0.07242
0.61678 0.85833 0.07329
0.67814 0.85931 0.07426
0.73961 0.86039 0.07534
0.80118 0.86157 0.07652
0.86285 0.86285 0.07780
0.92461 0.86423 0.07918
0.98647 0.86570 0.08065
0.09401 0.91679 0.09401
0.14976 0.91741 0.09071
0.20616 0.91812 0.08750
0.26321 0.91891 0.08438
0.32090 0.91980 0.08134
0.37923 0.92075 0.07838
0.43856 0.92167 0.07623
0.49954 0.92226 0.07682
0.56062 0.92295 0.07752
0.62181 0.92375 0.07831
0.68309 0.92465 0.07921
0.74448 0.92565 0.08021
0.80597 0.92674 0.08131
0.86755 0.92794 0.08250
0.92922 0.92922 0.08379
0.99098 0.93060 0.08516
0.10073 0.98227 0.10073
0.15646 0.98289 0.09743
0.21279 0.98359 0.09421
0.26973 0.98437 0.09107
0.32727 0.98524 0.08801
0.38541 0.98617 0.08502
0.44413 0.98717 0.08211
0.50472 0.98782 0.08200
0.56575 0.98846 0.08264
0.62687 0.98920 0.08338
0.68810 0.99004 0.08422
0.74942 0.99097 0.08515
0.81083 0.99199 0.08617
0.87233 0.99311 0.08728
0.93392 0.99431 0.08849
0.99560 0.99560 0.08977
0.00374 0.00374 0.05975
0.06402 0.00363 0.06402
0.12711 0.00633 0.06672
0.19041 0.00924 0.06963
0.25377 0.01221 0.07260
0.31714 0.01520 0.07559
0.38053 0.01821 0.07859
0.44393 0.02121 0.08160
0.50733 0.02422 0.08461
0.57073 0.02724 0.08763
0.63413 0.03025 0.09064
0.69754 0.03327 0.09366
0.76094 0.03629 0.09667
0.82435 0.03930 0.09969
0.88776 0.04232 0.10271
0.95116 0.04534 0.10573
0.01068 0.06553 0.06553
0.06846 0.06720 0.05874
0.13070 0.06892 0.06045
0.19304 0.07150 0.06303
0.25579 0.07436 0.06589
0.31878 0.07731 0.06885
0.38191 0.08031 0.07185
0.44512 0.08333 0.07487
0.50837 0.08636 0.07789
0.57167 0.08939 0.08092
0.63498 0.09242 0.08395
0.69832 0.09545 0.08698
0.76166 0.09848 0.09001
0.82502 0.10151 0.09304
0.88839 0.10454 0.09607
0.95176 0.10757 0.09910
0.01700 0.13062 0.07381
0.07867 0.13084 0.06895
0.13483 0.13358 0.06245
0.20037 0.13418 0.06078
0.26236 0.13593 0.06488
0.32441 0.13829 0.06820
0.38673 0.14094 0.07133
0.44930 0.14373 0.07440
0.51206 0.14662 0.07746
0.57494 0.14956 0.08050
0.63793 0.15253 0.08354
0.70099 0.15552 0.08658
0.76410 0.15852 0.08963
0.82726 0.16154 0.09267
0.89046 0.16456 0.09571
0.95368 0.16758 0.09874
0.02362 0.19600 0.08108
0.08791 0.19560 0.07819
0.14198 0.19755 0.07544
0.20116 0.19991 0.06799
0.26600 0.20085 0.06460
0.32959 0.20196 0.06712
0.39172 0.20386 0.07098
0.45393 0.20612 0.07438
0.51629 0.20861 0.07757
0.57881 0.21124 0.08067
0.64146 0.21398 0.08373
0.70423 0.21678 0.08677
0.76710 0.21964 0.08980
0.83004 0.22254 0.09282
0.89304 0.22546 0.09584
0.95609 0.22840 0.09887
0.03029 0.26144 0.08808
0.09626 0.26072 0.08654
0.15049 0.26217 0.08430
0.20685 0.26432 0.07967
0.26751 0.26625 0.07385
0.33137 0.26743 0.07089
0.39590 0.26838 0.07052
0.45844 0.26995 0.07424
0.52068 0.27193 0.07784
0.58298 0.27416 0.08115
0.64539 0.27656 0.08431
0.70791 0.27909 0.08738
0.77054 0.28172 0.09042
0.83326 0.28442 0.09343
0.89607 0.28718 0.09643
0.95894 0.28999 0.09943
0.03698 0.32691 0.09497
0.10409 0.32599 0.09437
0.15833 0.32723 0.09189
0.21439 0.32890 0.08891
0.27264 0.33087 0.08446
0.33386 0.33261 0.07979
0.39718 0.33389 0.07726
0.46114 0.33501 0.07678
0.52489 0.33624 0.07793
0.58718 0.33803 0.08166
0.64949 0.34006 0.08505
0.71185 0.34227 0.08825
0.77430 0.34462 0.09135
0.83683 0.34709 0.09438
0.89945 0.34964 0.09738
0.96215 0.35227 0.10035
0.04368 0.39238 0.10180
0.11161 0.39134 0.10189
0.16591 0.39244 0.09925
0.22198 0.39381 0.09687
0.27929 0.39557 0.09328
0.33874 0.39734 0.08959
0.40022 0.39897 0.08575
0.46320 0.40030 0.08359
0.52676 0.40152 0.08309
0.59048 0.40276 0.08352
0.65355 0.40427 0.08577
0.71587 0.40615 0.08921
0.77822 0.40821 0.09245
0.84062 0.41041 0.09555
0.90310 0.41274 0.09858
0.96565 0.41516 0.10156
0.05039 0.45785 0.10860
0.11894 0.45672 0.10922
0.17331 0.45774 0.10646
0.22918 0.45898 0.10393
0.28630 0.46048 0.10114
0.34484 0.46213 0.09804
0.40496 0.46377 0.09493
0.46658 0.46533 0.09173
0.52934 0.46669 0.08988
0.59259 0.46797 0.08941
0.65605 0.46927 0.08976
0.71958 0.47064 0.09065
0.78219 0.47235 0.09359
0.84453 0.47429 0.09684
0.90691 0.47638 0.09995
0.96935 0.47858 0.10298
0.05709 0.52333 0.11537
0.12612 0.52214 0.11640
0.18057 0.52308 0.11356
0.23631 0.52423 0.11092
0.29328 0.52556 0.10841
0.35136 0.52706 0.10570
0.41070 0.52862 0.10305
0.47125 0.53018 0.10041
0.53295 0.53170 0.09771
0.59554 0.53307 0.09613
0.65857 0.53439 0.09571
0.72181 0.53573 0.09601
0.78515 0.53713 0.09682
0.84845 0.53862 0.09815
0.91080 0.54047 0.10140
0.97317 0.54245 0.10452
0.06380 0.58881 0.12214
0.13321 0.58757 0.12349
0.18774 0.58846 0.12059
0.24339 0.58954 0.11787
0.30014 0.59077 0.11530
0.35798 0.59213 0.11287
0.41686 0.59357 0.11054
0.47674 0.59507 0.10826
0.53757 0.59658 0.10599
0.59932 0.59806 0.10369
0.66178 0.59945 0.10235
0.72464 0.60080 0.10198
0.78771 0.60216 0.10226
0.85088 0.60358 0.10301
0.91413 0.60506 0.10410
0.97705 0.60670 0.10611
0.07052 0.65429 0.12889
0.14024 0.65301 0.13052
0.19482 0.65386 0.12757
0.25041 0.65488 0.12477
0.30699 0.65604 0.12212
0.36459 0.65731 0.11969
0.42319 0.65864 0.11759
0.48263 0.66005 0.11557
0.54288 0.66150 0.11360
0.60391 0.66297 0.11165
0.66569 0.66443 0.10968
0.72806 0.66582 0.10853
0.79078 0.66719 0.10822
0.85370 0.66857 0.10850
0.91674 0.67000 0.10920
0.97985 0.67149 0.11023
0.07723 0.71977 0.13564
0.14721 0.71846 0.13749
0.20185 0.71928 0.13450
0.25740 0.72025 0.13165
0.31384 0.72136 0.12893
0.37116 0.72258 0.12633
0.42957 0.72381 0.12434
0.48872 0.72512 0.12252
0.54857 0.72650 0.12076
0.60909 0.72792 0.11905
0.67026 0.72936 0.11736
0.73206 0.73080 0.11566
0.79435 0.73219 0.11468
0.85696 0.73357 0.11444
0.91976 0.73497 0.11472
0.98268 0.73641 0.11540
0.08394 0.78525 0.14238
0.15414 0.78391 0.14442
0.20883 0.78471 0.14140
0.26435 0.78565 0.13850
0.32068 0.78670 0.13573
0.37782 0.78787 0.13307
0.43592 0.78906 0.13087
0.49489 0.79028 0.12920
0.55446 0.79158 0.12761
0.61462 0.79293 0.12607
0.67535 0.79433 0.12458
0.73662 0.79575 0.12311
0.79843 0.79717 0.12165
0.86066 0.79856 0.12082
0.92318 0.79995 0.12064
0.98588 0.80136 0.12093
0.09065 0.85074 0.14912
0.16104 0.84937 0.15133
0.21578 0.85015 0.14827
0.27127 0.85105 0.14534
0.32751 0.85207 0.14252
0.38449 0.85318 0.13980
0.44223 0.85439 0.13722
0.50108 0.85552 0.13568
0.56046 0.85673 0.13421
0.62036 0.85801 0.13281
0.68075 0.85935 0.13147
0.74163 0.86072 0.13017
0.80298 0.86213 0.12890
0.86480 0.86354 0.12763
0.92698 0.86494 0.12694
0.98942 0.86633 0.12681
0.09737 0.91622 0.15586
0.16792 0.91484 0.15820
0.22269 0.91560 0.15513
0.27816 0.91647 0.15216
0.33433 0.91745 0.14930
0.39119 0.91853 0.14654
0.44872 0.91969 0.14386
0.50726 0.92082 0.14199
0.56651 0.92195 0.14063
0.62620 0.92316 0.13935
0.68635 0.92443 0.13812
0.74693 0.92576 0.13695
0.80794 0.92712 0.13581
0.86935 0.92851 0.13471
0.93117 0.92991 0.13362
0.99331 0.93131 0.13304
0.10408 0.98170 0.16259
0.17478 0.98030 0.16506
0.22958 0.98105 0.16196
0.28504 0.98190 0.15897
0.34114 0.98285 0.15607
0.39789 0.98389 0.15327
0.45527 0.98502 0.15055
0.51341 0.98617 0.14819
0.57256 0.98723 0.14692
0.63212 0.98837 0.14572
0.69208 0.98958 0.14459
0.75242 0.99084 0.14351
0.81315 0.99216 0.14249
0.87426 0.99351 0.14150
0.93572 0.99489 0.14054
0.99754 0.99628 0.13960
0.00748 0.00748 0.11951
0.06550 0.00561 0.12539
0.12804 0.00726 0.12804
0.19103 0.00986 0.13064
0.25422 0.01266 0.13344
0.31749 0.01555 0.13633
0.38082 0.01849 0.13927
0.44417 0.02145 0.14223
0.50753 0.02443 0.14520
0.57091 0.02741 0.14819
0.63429 0.03041 0.15118
0.69768 0.03341 0.15418
0.76107 0.03641 0.15719
0.82446 0.03942 0.16019
0.88786 0.04243 0.16320
0.95126 0.04544 0.16621
0.01474 0.06763 0.12051
0.07082 0.06956 0.11201
0.12800 0.07185 0.11828
0.18836 0.07517 0.12267
0.25155 0.07770 0.12677
0.31534 0.08014 0.13016
0.37903 0.08277 0.13330
0.44264 0.08550 0.13635
0.50620 0.08830 0.13936
0.56973 0.09115 0.14235
0.63324 0.09402 0.14533
0.69673 0.09693 0.14832
0.76021 0.09985 0.15130
0.82368 0.10278 0.15429
0.88714 0.10573 0.15728
0.95059 0.10869 0.16027
0.02136 0.13105 0.13105
0.08276 0.13137 0.12290
0.13692 0.13441 0.11748
0.19936 0.13577 0.11884
0.26140 0.13784 0.12091
0.32361 0.14031 0.12337
0.38608 0.14300 0.12607
0.44875 0.14582 0.12889
0.51158 0.14871 0.13178
0.57453 0.15166 0.13472
0.63757 0.15463 0.13770
0.70067 0.15762 0.14069
0.76382 0.16063 0.14370
0.82701 0.16364 0.14671
0.89023 0.16666 0.14973
0.95348 0.16969 0.15276
0.02752 0.19598 0.13983
0.09153 0.19558 0.13446
0.14719 0.19757 0.12775
0.20334 0.20083 0.12026
0.27053 0.20102 0.11710
0.33268 0.20229 0.12142
0.39441 0.20428 0.12481
0.45627 0.20665 0.12794
0.51836 0.20923 0.13097
0.58066 0.21195 0.13399
0.64313 0.21477 0.13700
0.70576 0.21765 0.14001
0.76850 0.22057 0.14303
0.83133 0.22352 0.14606
0.89424 0.22650 0.14909
0.95722 0.22949 0.15213
0.03400 0.26124 0.14762
0.09972 0.26049 0.14401
0.15734 0.26168 0.13790
0.21071 0.26425 0.13522
0.26967 0.26716 0.12491
0.33616 0.26781 0.11920
0.40075 0.26837 0.12157
0.46281 0.26989 0.12601
0.52472 0.27186 0.12975
0.58670 0.27412 0.13317
0.64881 0.27658 0.13641
0.71107 0.27918 0.13956
0.77347 0.28187 0.14267
0.83599 0.28464 0.14575
0.89861 0.28747 0.14881
0.96132 0.29034 0.15186
0.04059 0.32660 0.15499
0.10748 0.32565 0.15262
0.16686 0.32629 0.14742
0.22037 0.32823 0.14576
0.27532 0.33114 0.13923
0.33599 0.33348 0.13030
0.40116 0.33448 0.12502
0.46731 0.33491 0.12314
0.53012 0.33606 0.12757
0.59222 0.33773 0.13182
0.65425 0.33973 0.13558
0.71634 0.34194 0.13907
0.77852 0.34432 0.14238
0.84080 0.34683 0.14559
0.90319 0.34943 0.14874
0.96568 0.35210 0.15185
0.04723 0.39201 0.16216
0.11496 0.39093 0.16069
0.17582 0.39119 0.15638
0.22924 0.39286 0.15442
0.28396 0.39510 0.15087
0.34099 0.39776 0.14373
0.40232 0.39982 0.13599
0.46670 0.40098 0.13119
0.53201 0.40171 0.12919
0.59688 0.40245 0.12962
0.65918 0.40392 0.13424
0.72132 0.40570 0.13828
0.78345 0.40771 0.14197
0.84561 0.40991 0.14543
0.90785 0.41224 0.14875
0.97017 0.41468 0.15198
0.05390 0.45744 0.16919
0.12226 0.45628 0.16842
0.18434 0.45626 0.16490
0.23778 0.45774 0.16272
0.29291 0.45945 0.16077
0.34843 0.46196 0.15493
0.40702 0.46427 0.14858
0.46866 0.46616 0.14181
0.53252 0.46741 0.13746
0.59722 0.46833 0.13545
0.66213 0.46915 0.13476
0.72582 0.47026 0.13701
0.78808 0.47188 0.14126
0.85027 0.47373 0.14511
0.91246 0.47577 0.14871
0.97469 0.47795 0.15212
0.06058 0.52289 0.17615
0.12944 0.52167 0.17593
0.19252 0.52144 0.17308
0.24603 0.52278 0.17074
0.30098 0.52433 0.16861
0.35657 0.52636 0.16482
0.41369 0.52864 0.15935
0.47321 0.53072 0.15368
0.53501 0.53250 0.14770
0.59851 0.53381 0.14376
0.66275 0.53486 0.14179
0.72725 0.53581 0.14102
0.79181 0.53677 0.14103
0.85463 0.53817 0.14451
0.91689 0.53990 0.14849
0.97912 0.54181 0.15219
0.06727 0.58835 0.18306
0.13652 0.58708 0.18328
0.20045 0.58668 0.18101
0.25404 0.58792 0.17854
0.30889 0.58934 0.17626
0.36480 0.59099 0.17384
0.42112 0.59314 0.16897
0.47937 0.59522 0.16403
0.53948 0.59715 0.15894
0.60136 0.59886 0.15363
0.66460 0.60020 0.15005
0.72849 0.60133 0.14815
0.79266 0.60239 0.14734
0.85693 0.60343 0.14727
0.92105 0.60454 0.14800
0.98338 0.60616 0.15208
0.07396 0.65381 0.18993
0.14354 0.65250 0.19052
0.20819 0.65198 0.18875
0.26187 0.65313 0.18618
0.31666 0.65446 0.18378
0.37253 0.65594 0.18154
0.42878 0.65781 0.17781
0.48626 0.65980 0.17340
0.54528 0.66174 0.16893
0.60578 0.66356 0.16434
0.66772 0.66521 0.15958
0.73075 0.66658 0.15632
0.79437 0.66778 0.15451
0.85826 0.66890 0.15369
0.92229 0.67002 0.15356
0.98635 0.67116 0.15392
0.08066 0.71928 0.19677
0.15051 0.71794 0.19766
0.21577 0.71731 0.19633
0.26954 0.71840 0.19368
0.32430 0.71964 0.19118
0.38003 0.72103 0.18884
0.43646 0.72263 0.18608
0.49346 0.72451 0.18207
0.55176 0.72639 0.17805
0.61133 0.72822 0.17399
0.67212 0.72996 0.16983
0.73408 0.73157 0.16554
0.79696 0.73295 0.16256
0.86035 0.73419 0.16086
0.92402 0.73538 0.16004
0.98783 0.73655 0.15987
0.08736 0.78475 0.20359
0.15745 0.78339 0.20474
0.22323 0.78267 0.20379
0.27708 0.78370 0.20107
0.33183 0.78488 0.19850
0.38746 0.78619 0.19606
0.44396 0.78762 0.19374
0.50076 0.78935 0.19023
0.55859 0.79114 0.18656
0.61750 0.79293 0.18289
0.67747 0.79468 0.17918
0.73846 0.79636 0.17539
0.80044 0.79793 0.17151
0.86319 0.79932 0.16879
0.92640 0.80060 0.16718
0.98988 0.80182 0.16639
0.09407 0.85023 0.21040
0.16435 0.84884 0.21177
0.23059 0.84805 0.21115
0.28452 0.84904 0.20838
0.33927 0.85016 0.20574
0.39482 0.85141 0.20322
0.45117 0.85276 0.20082
0.50806 0.85430 0.19799
0.56557 0.85600 0.19460
0.62403 0.85772 0.19124
0.68340 0.85943 0.18787
0.74368 0.86112 0.18447
0.80482 0.86275 0.18102
0.86680 0.86429 0.17748
0.92945 0.86569 0.17499
0.99252 0.86699 0.17349
0.10077 0.91570 0.21719
0.17122 0.91430 0.21876
0.23787 0.91345 0.21843
0.29187 0.91440 0.21561
0.34662 0.91547 0.21291
0.40212 0.91666 0.21033
0.45835 0.91796 0.20786
0.51529 0.91935 0.20544
0.57259 0.92095 0.20228
0.63073 0.92259 0.19917
0.68968 0.92425 0.19607
0.74942 0.92591 0.19297
0.80993 0.92754 0.18985
0.87118 0.92913 0.18669
0.93317 0.93066 0.18346
0.99573 0.93206 0.18117
0.10748 0.98118 0.22397
0.17808 0.97976 0.22571
0.24508 0.97885 0.22565
0.29915 0.97977 0.22279
0.35392 0.98081 0.22004
0.40937 0.98195 0.21740
0.46550 0.98319 0.21487
0.52231 0.98452 0.21242
0.57960 0.98599 0.20967
0.63751 0.98755 0.20677
0.69614 0.98914 0.20389
0.75548 0.99075 0.20103
0.81551 0.99236 0.19818
0.87620 0.99396 0.19531
0.93755 0.99552 0.19240
0.99953 0.99702 0.18944
0.01122 0.01122 0.17926
0.06776 0.00916 0.18495
0.12946 0.00868 0.18985
0.19206 0.01090 0.19206
0.25500 0.01345 0.19461
0.31812 0.01617 0.19734
0.38133 0.01900 0.20016
0.44459 0.02188 0.20304
0.50790 0.02479 0.20596
0.57123 0.02773 0.20890
0.63457 0.03069 0.21186
0.69793 0.03366 0.21482
0.76130 0.03664 0.21780
0.82467 0.03963 0.22079
0.88805 0.04262 0.22378
0.95143 0.04561 0.22678
0.01739 0.07081 0.17767
0.07402 0.07277 0.16813
0.13045 0.07369 0.17624
0.18993 0.07674 0.18021
0.25127 0.07974 0.18479
0.31341 0.08286 0.18905
0.37654 0.08562 0.19302
0.44045 0.08797 0.19658
0.50426 0.09048 0.19988
0.56799 0.09310 0.20304
0.63166 0.09580 0.20613
0.69529 0.09855 0.20918
0.75888 0.10134 0.21220
0.82245 0.10417 0.21521
0.88599 0.10703 0.21821
0.94952 0.10990 0.22120
0.02557 0.13265 0.18620
0.08591 0.13367 0.17422
0.13897 0.13646 0.16993
0.19563 0.13878 0.17619
0.25440 0.14210 0.18007
0.31680 0.14451 0.18417
0.38028 0.14678 0.18760
0.44373 0.14926 0.19072
0.50716 0.15187 0.19374
0.57059 0.15458 0.19672
0.63401 0.15734 0.19968
0.69743 0.16015 0.20264
0.76085 0.16300 0.20560
0.82427 0.16587 0.20857
0.88769 0.16877 0.21154
0.95110 0.17168 0.21451
0.03204 0.19658 0.19658
0.09597 0.19639 0.18792
0.15135 0.19819 0.18126
0.20538 0.20161 0.17622
0.26796 0.20283 0.17744
0.33006 0.20460 0.17920
0.39210 0.20676 0.18136
0.45427 0.20918 0.18378
0.51661 0.21178 0.18638
0.57912 0.21449 0.18910
0.64176 0.21730 0.19190
0.70452 0.22016 0.19477
0.76737 0.22307 0.19767
0.83031 0.22601 0.20061
0.89330 0.22897 0.20357
0.95635 0.23194 0.20655
0.03811 0.26142 0.20560
0.10368 0.26077 0.19952
0.16107 0.26184 0.19327
0.21558 0.26457 0.18642
0.27182 0.26806 0.17858
0.33996 0.26807 0.17455
0.40247 0.26903 0.17880
0.46420 0.27075 0.18212
0.52588 0.27286 0.18515
0.58769 0.27523 0.18809
0.64968 0.27777 0.19102
0.71185 0.28043 0.19394
0.77417 0.28319 0.19689
0.83663 0.28600 0.19984
0.89920 0.28887 0.20282
0.96187 0.29178 0.20580
0.04449 0.32657 0.21374
0.11121 0.32567 0.20935
0.17041 0.32623 0.20375
0.22595 0.32829 0.19680
0.27917 0.33121 0.19420
0.33818 0.33441 0.18251
0.40575 0.33492 0.17538
0.47115 0.33512 0.17747
0.53336 0.33635 0.18213
0.59519 0.33808 0.18601
0.65698 0.34013 0.18950
0.71885 0.34241 0.19279
0.78083 0.34485 0.19597
0.84295 0.34742 0.19908
0.90519 0.35007 0.20216
0.96755 0.35280 0.20521
0.05100 0.39185 0.22143
0.11857 0.39079 0.21824
0.17926 0.39100 0.21339
0.23601 0.39252 0.20685
0.28931 0.39477 0.20554
0.34367 0.39816 0.19801
0.40450 0.40074 0.18736
0.47060 0.40162 0.18059
0.53797 0.40172 0.17760
0.60112 0.40255 0.18235
0.66324 0.40398 0.18695
0.72517 0.40576 0.19097
0.78708 0.40779 0.19463
0.84904 0.41001 0.19808
0.91108 0.41239 0.20139
0.97322 0.41487 0.20461
0.05758 0.45720 0.22885
0.12580 0.45604 0.22658
0.18772 0.45598 0.22244
0.24564 0.45707 0.21648
0.29874 0.45906 0.21488
0.35283 0.46170 0.21104
0.40928 0.46480 0.20228
0.47083 0.46706 0.19268
0.53600 0.46815 0.18637
0.60236 0.46861 0.18325
0.66817 0.46900 0.18307
0.73057 0.47020 0.18821
0.79268 0.47177 0.19265
0.85469 0.47360 0.19664
0.91669 0.47563 0.20035
0.97873 0.47782 0.20386
0.06420 0.52259 0.23610
0.13292 0.52136 0.23454
0.19587 0.52110 0.23105
0.25486 0.52185 0.22570
