resources/LUTs/LUT Colour Grades (cube)/Faded_Film_Warm.cube
#Generated by Picture Instruments - Look Creator
TITLE "Kodak Portra 100 Warm"
LUT_3D_SIZE 5
0 0 0
0.160784 0.0431373 0.0156863
0.333333 0.0745098 0.0235294
0.545098 0.133333 0.0352941
0.788235 0.223529 0.0196078
0.133333 0.192157 0.0901961
0.223529 0.211765 0.0862745
0.4 0.231373 0.0705882
0.580392 0.258824 0.0509804
0.819608 0.337255 0.0627451
0.290196 0.462745 0.207843
0.341176 0.47451 0.207843
0.47451 0.490196 0.192157
0.666667 0.521569 0.172549
0.882353 0.560784 0.196078
0.478431 0.74902 0.4
0.501961 0.741176 0.396078
0.6 0.760784 0.411765
0.733333 0.772549 0.396078
0.921569 0.803922 0.423529
0.74902 0.968627 0.713725
0.752941 0.964706 0.705882
0.796078 0.964706 0.713725
0.87451 0.972549 0.745098
0.952941 0.984314 0.764706
0.0862745 0.0666667 0.152941
0.188235 0.0666667 0.160784
0.34902 0.0784314 0.160784
0.54902 0.160784 0.192157
0.788235 0.235294 0.2
0.168627 0.211765 0.188235
0.243137 0.211765 0.2
0.396078 0.235294 0.207843
0.596078 0.278431 0.219608
0.819608 0.341176 0.227451
0.298039 0.458824 0.282353
0.356863 0.47451 0.301961
0.486275 0.505882 0.301961
0.678431 0.52549 0.286275
0.882353 0.564706 0.317647
0.482353 0.737255 0.454902
0.521569 0.745098 0.462745
0.607843 0.764706 0.482353
0.74902 0.784314 0.47451
0.92549 0.807843 0.498039
0.74902 0.964706 0.729412
0.768627 0.972549 0.737255
0.807843 0.964706 0.741176
0.882353 0.976471 0.772549
0.956863 0.984314 0.784314
0.137255 0.117647 0.341176
0.219608 0.12549 0.34902
0.376471 0.129412 0.364706
0.564706 0.14902 0.368627
0.788235 0.207843 0.392157
0.215686 0.247059 0.368627
0.270588 0.247059 0.388235
0.427451 0.266667 0.415686
0.611765 0.286275 0.419608
0.823529 0.329412 0.435294
0.329412 0.470588 0.454902
0.384314 0.490196 0.470588
0.513725 0.513725 0.505882
0.678431 0.533333 0.501961
0.862745 0.556863 0.505882
0.494118 0.733333 0.568627
0.533333 0.74902 0.584314
0.635294 0.768627 0.611765
0.752941 0.780392 0.615686
0.929412 0.807843 0.631373
0.74902 0.972549 0.772549
0.772549 0.968627 0.780392
0.827451 0.976471 0.803922
0.890196 0.980392 0.823529
0.964706 0.984314 0.831373
0.196078 0.188235 0.568627
0.262745 0.192157 0.580392
0.419608 0.211765 0.6
0.611765 0.239216 0.631373
0.811765 0.282353 0.643137
0.231373 0.278431 0.584314
0.309804 0.298039 0.615686
0.458824 0.321569 0.639216
0.639216 0.341176 0.662745
0.835294 0.376471 0.666667
0.368627 0.509804 0.635294
0.415686 0.517647 0.65098
0.513725 0.521569 0.682353
0.698039 0.552941 0.713725
0.866667 0.564706 0.705882
0.505882 0.737255 0.717647
0.552941 0.752941 0.737255
0.639216 0.764706 0.752941
0.796078 0.803922 0.8
0.917647 0.796078 0.784314
0.74902 0.968627 0.847059
0.772549 0.972549 0.858824
0.811765 0.976471 0.858824
0.898039 0.976471 0.890196
0.976471 0.984314 0.909804
0.380392 0.380392 0.858824
0.435294 0.4 0.87451
0.552941 0.415686 0.878431
0.713725 0.462745 0.894118
0.882353 0.486275 0.909804
0.415686 0.458824 0.890196
0.462745 0.470588 0.898039
0.576471 0.486275 0.901961
0.74902 0.533333 0.917647
0.898039 0.54902 0.92549
0.490196 0.615686 0.901961
0.501961 0.603922 0.905882
0.603922 0.615686 0.913725
0.760784 0.654902 0.92549
0.917647 0.67451 0.937255
0.627451 0.823529 0.929412
0.643137 0.819608 0.929412
0.690196 0.811765 0.933333
0.780392 0.788235 0.937255
0.945098 0.835294 0.956863
0.815686 0.984314 0.976471
0.819608 0.984314 0.976471
0.854902 0.988235 0.980392
0.905882 0.988235 0.980392
0.984314 0.988235 0.984314
