resources/LUTs/LUT Colour Grades (cube)/Faded_Film_Cool.cube
#Generated by Picture Instruments - Look Creator
TITLE "Kodak Portra 100 Cool"
LUT_3D_SIZE 17
0 0 0
0.0431373 0.00784314 0.00392157
0.0745098 0.0196078 0.00784314
0.105882 0.0431373 0.0156863
0.137255 0.0627451 0.0235294
0.172549 0.0784314 0.0313725
0.211765 0.0980392 0.0431373
0.25098 0.105882 0.0470588
0.294118 0.113725 0.0509804
0.345098 0.12549 0.0627451
0.396078 0.137255 0.0666667
0.447059 0.145098 0.0705882
0.509804 0.160784 0.0823529
0.564706 0.164706 0.0745098
0.639216 0.188235 0.0901961
0.698039 0.2 0.0862745
0.768627 0.227451 0.0980392
0.0313725 0.0705882 0.0352941
0.0627451 0.0745098 0.0313725
0.0862745 0.0745098 0.0313725
0.113725 0.0823529 0.0352941
0.14902 0.0941176 0.0392157
0.172549 0.0980392 0.0392157
0.211765 0.105882 0.0431373
0.258824 0.121569 0.0509804
0.309804 0.133333 0.0627451
0.356863 0.141176 0.0666667
0.415686 0.160784 0.0823529
0.466667 0.164706 0.0823529
0.513725 0.168627 0.0784314
0.576471 0.180392 0.0823529
0.654902 0.207843 0.101961
0.713725 0.223529 0.101961
0.780392 0.247059 0.113725
0.0627451 0.117647 0.0666667
0.0784314 0.117647 0.0666667
0.105882 0.121569 0.0627451
0.129412 0.12549 0.054902
0.156863 0.121569 0.0509804
0.196078 0.133333 0.0627451
0.223529 0.137255 0.0588235
0.270588 0.145098 0.0627451
0.309804 0.14902 0.0627451
0.364706 0.164706 0.0745098
0.415686 0.172549 0.0784314
0.466667 0.180392 0.0784314
0.533333 0.2 0.0980392
0.584314 0.203922 0.0941176
0.65098 0.223529 0.101961
0.717647 0.243137 0.109804
0.780392 0.262745 0.117647
0.0745098 0.152941 0.0823529
0.0901961 0.156863 0.0862745
0.113725 0.164706 0.0941176
0.133333 0.164706 0.0823529
0.168627 0.168627 0.0784314
0.207843 0.176471 0.0823529
0.243137 0.180392 0.0784314
0.290196 0.188235 0.0862745
0.333333 0.192157 0.0862745
0.372549 0.196078 0.0823529
0.419608 0.196078 0.0823529
0.486275 0.219608 0.101961
0.533333 0.223529 0.101961
0.603922 0.243137 0.109804
0.666667 0.258824 0.113725
0.729412 0.27451 0.12549
0.792157 0.294118 0.129412
0.0980392 0.2 0.109804
0.109804 0.203922 0.109804
0.129412 0.211765 0.117647
0.156863 0.219608 0.117647
0.180392 0.219608 0.109804
0.223529 0.227451 0.109804
0.254902 0.227451 0.101961
0.305882 0.235294 0.105882
0.356863 0.243137 0.105882
0.4 0.247059 0.105882
0.447059 0.25098 0.109804
0.505882 0.262745 0.121569
0.552941 0.262745 0.113725
0.607843 0.27451 0.117647
0.682353 0.298039 0.133333
0.737255 0.309804 0.133333
0.8 0.333333 0.145098
0.12549 0.254902 0.141176
0.133333 0.262745 0.141176
0.14902 0.266667 0.145098
0.172549 0.270588 0.14902
0.203922 0.278431 0.14902
0.231373 0.278431 0.137255
0.286275 0.294118 0.141176
0.313725 0.286275 0.12549
0.372549 0.298039 0.133333
0.431373 0.309804 0.137255
0.47451 0.305882 0.133333
0.521569 0.313725 0.129412
0.580392 0.32549 0.141176
0.631373 0.329412 0.137255
0.690196 0.341176 0.145098
0.74902 0.356863 0.14902
0.815686 0.380392 0.160784
0.160784 0.321569 0.180392
0.164706 0.321569 0.176471
0.180392 0.32549 0.176471
0.192157 0.32549 0.176471
0.219608 0.329412 0.172549
0.262745 0.345098 0.180392
0.290196 0.341176 0.164706
0.341176 0.34902 0.164706
0.388235 0.356863 0.156863
0.443137 0.364706 0.160784
0.490196 0.368627 0.156863
0.552941 0.376471 0.156863
0.603922 0.384314 0.160784
0.658824 0.392157 0.160784
0.713725 0.4 0.168627
0.776471 0.423529 0.180392
0.827451 0.431373 0.180392
0.192157 0.384314 0.207843
0.203922 0.396078 0.215686
0.211765 0.396078 0.211765
0.231373 0.396078 0.215686
0.247059 0.396078 0.211765
0.278431 0.396078 0.207843
0.321569 0.411765 0.207843
0.364706 0.419608 0.207843
0.411765 0.419608 0.196078
0.466667 0.431373 0.196078
0.513725 0.435294 0.196078
0.564706 0.439216 0.188235
0.619608 0.447059 0.184314
0.686275 0.462745 0.192157
0.745098 0.47451 0.2
0.796078 0.482353 0.207843
0.854902 0.498039 0.219608
0.235294 0.458824 0.25098
0.239216 0.462745 0.25098
0.243137 0.454902 0.243137
0.262745 0.462745 0.247059
0.290196 0.470588 0.254902
0.309804 0.466667 0.25098
0.341176 0.470588 0.243137
0.388235 0.482353 0.243137
0.427451 0.482353 0.239216
0.482353 0.494118 0.231373
0.533333 0.501961 0.219608
0.588235 0.509804 0.227451
0.643137 0.517647 0.223529
0.694118 0.521569 0.219608
0.756863 0.541176 0.231373
0.811765 0.54902 0.235294
0.866667 0.560784 0.247059
0.266667 0.52549 0.282353
0.278431 0.529412 0.290196
0.294118 0.533333 0.290196
0.301961 0.533333 0.290196
0.32549 0.537255 0.290196
0.34902 0.541176 0.290196
0.372549 0.537255 0.286275
0.411765 0.54902 0.282353
0.45098 0.552941 0.278431
0.501961 0.564706 0.278431
0.545098 0.560784 0.262745
0.6 0.572549 0.254902
0.654902 0.584314 0.258824
0.717647 0.6 0.270588
0.772549 0.607843 0.27451
0.823529 0.615686 0.278431
0.878431 0.627451 0.286275
0.321569 0.607843 0.329412
0.32549 0.607843 0.329412
0.321569 0.6 0.321569
0.337255 0.603922 0.321569
0.364706 0.611765 0.333333
0.392157 0.615686 0.337255
0.419608 0.623529 0.337255
0.447059 0.619608 0.329412
0.494118 0.639216 0.337255
0.533333 0.639216 0.329412
0.576471 0.647059 0.32549
0.619608 0.643137 0.309804
0.67451 0.654902 0.301961
0.733333 0.666667 0.313725
0.784314 0.67451 0.317647
0.839216 0.682353 0.329412
0.894118 0.698039 0.345098
0.364706 0.678431 0.372549
0.380392 0.690196 0.380392
0.380392 0.682353 0.376471
0.388235 0.67451 0.372549
0.407843 0.686275 0.376471
0.427451 0.686275 0.376471
0.458824 0.694118 0.384314
0.482353 0.694118 0.380392
0.521569 0.701961 0.384314
0.556863 0.705882 0.380392
0.596078 0.705882 0.372549
0.643137 0.717647 0.368627
0.690196 0.72549 0.368627
0.74902 0.733333 0.360784
0.796078 0.737255 0.364706
0.847059 0.745098 0.376471
0.901961 0.756863 0.396078
0.427451 0.760784 0.431373
0.423529 0.752941 0.423529
0.435294 0.756863 0.427451
0.447059 0.756863 0.431373
0.458824 0.752941 0.427451
0.478431 0.760784 0.435294
0.501961 0.764706 0.435294
0.52549 0.760784 0.435294
0.560784 0.772549 0.443137
0.596078 0.772549 0.439216
0.623529 0.772549 0.431373
0.666667 0.780392 0.431373
0.709804 0.784314 0.431373
0.756863 0.792157 0.427451
0.807843 0.792157 0.415686
0.862745 0.803922 0.431373
0.909804 0.815686 0.454902
0.490196 0.823529 0.494118
0.494118 0.819608 0.490196
0.498039 0.823529 0.490196
0.501961 0.819608 0.490196
0.509804 0.815686 0.486275
0.529412 0.815686 0.494118
0.552941 0.823529 0.498039
0.576471 0.827451 0.501961
0.603922 0.831373 0.505882
0.631373 0.835294 0.509804
0.658824 0.831373 0.501961
0.698039 0.839216 0.498039
0.745098 0.847059 0.505882
0.776471 0.85098 0.501961
0.823529 0.847059 0.494118
0.870588 0.854902 0.498039
0.929412 0.87451 0.52549
0.568627 0.890196 0.576471
0.556863 0.878431 0.564706
0.560784 0.878431 0.560784
0.568627 0.878431 0.560784
0.584314 0.878431 0.568627
0.588235 0.87451 0.560784
0.611765 0.882353 0.568627
0.631373 0.886275 0.576471
0.654902 0.882353 0.580392
0.682353 0.890196 0.588235
0.705882 0.890196 0.584314
0.72549 0.886275 0.580392
0.760784 0.890196 0.580392
0.803922 0.901961 0.584314
0.843137 0.901961 0.584314
0.87451 0.894118 0.572549
0.921569 0.909804 0.588235
0.643137 0.933333 0.647059
0.639216 0.929412 0.643137
0.627451 0.913725 0.627451
0.65098 0.933333 0.647059
0.65098 0.929412 0.643137
0.658824 0.92549 0.639216
0.678431 0.92549 0.647059
0.694118 0.929412 0.654902
0.709804 0.929412 0.654902
0.741176 0.941176 0.670588
0.756863 0.933333 0.670588
0.784314 0.937255 0.67451
0.811765 0.937255 0.67451
0.843137 0.94902 0.686275
0.866667 0.945098 0.67451
0.901961 0.952941 0.682353
0.929412 0.952941 0.686275
0.72549 0.972549 0.733333
0.713725 0.968627 0.721569
0.717647 0.968627 0.72549
0.72549 0.972549 0.72549
0.729412 0.968627 0.729412
0.741176 0.972549 0.733333
0.74902 0.968627 0.733333
0.768627 0.972549 0.741176
0.776471 0.968627 0.741176
0.803922 0.976471 0.756863
0.823529 0.980392 0.764706
0.835294 0.976471 0.756863
0.858824 0.976471 0.764706
0.882353 0.980392 0.768627
0.909804 0.984314 0.780392
0.933333 0.984314 0.784314
0.945098 0.984314 0.784314
0.00784314 0.0156863 0.0627451
0.0509804 0.0196078 0.0627451
0.0705882 0.027451 0.0588235
0.117647 0.0509804 0.0745098
0.145098 0.0784314 0.0823529
0.168627 0.0862745 0.0823529
0.211765 0.0980392 0.0823529
0.254902 0.109804 0.0862745
0.298039 0.117647 0.0941176
0.341176 0.12549 0.0901961
0.396078 0.137255 0.0980392
0.447059 0.14902 0.101961
0.498039 0.152941 0.101961
0.564706 0.168627 0.105882
0.635294 0.192157 0.117647
0.701961 0.207843 0.117647
0.776471 0.231373 0.129412
0.0392157 0.0784314 0.0823529
0.0588235 0.0705882 0.0784314
0.0862745 0.0823529 0.0745098
0.117647 0.0862745 0.0784314
0.14902 0.0941176 0.0823529
0.180392 0.105882 0.0823529
0.223529 0.117647 0.0901961
0.262745 0.129412 0.0941176
0.309804 0.137255 0.101961
0.356863 0.141176 0.0941176
0.415686 0.160784 0.109804
0.466667 0.168627 0.113725
0.517647 0.172549 0.109804
0.588235 0.2 0.12549
0.65098 0.211765 0.12549
0.705882 0.219608 0.121569
0.780392 0.243137 0.129412
0.0627451 0.113725 0.0862745
0.0823529 0.121569 0.0980392
0.105882 0.12549 0.0980392
0.129412 0.129412 0.0980392
0.160784 0.12549 0.0901961
0.192157 0.137255 0.0980392
0.235294 0.14902 0.101961
0.266667 0.145098 0.0980392
0.313725 0.156863 0.101961
0.376471 0.176471 0.117647
0.411765 0.172549 0.105882
0.47451 0.188235 0.117647
0.52549 0.196078 0.117647
0.592157 0.215686 0.12549
0.658824 0.231373 0.129412
0.713725 0.243137 0.129412
0.780392 0.262745 0.137255
0.0862745 0.156863 0.109804
0.0901961 0.152941 0.109804
0.117647 0.164706 0.117647
0.141176 0.172549 0.113725
0.168627 0.172549 0.109804
0.203922 0.176471 0.105882
0.247059 0.180392 0.109804
0.290196 0.192157 0.113725
0.333333 0.196078 0.117647
0.384314 0.203922 0.117647
0.431373 0.211765 0.121569
0.482353 0.219608 0.121569
0.537255 0.227451 0.12549
0.603922 0.247059 0.137255
0.67451 0.266667 0.14902
0.72549 0.27451 0.141176
0.796078 0.298039 0.152941
0.109804 0.207843 0.133333
0.117647 0.211765 0.137255
0.12549 0.207843 0.133333
0.156863 0.219608 0.137255
0.180392 0.219608 0.129412
0.219608 0.227451 0.129412
0.262745 0.235294 0.129412
0.305882 0.235294 0.129412
0.34902 0.235294 0.121569
0.403922 0.25098 0.129412
0.447059 0.25098 0.129412
0.498039 0.258824 0.137255
0.560784 0.27451 0.141176
0.611765 0.282353 0.141176
0.67451 0.298039 0.14902
0.737255 0.309804 0.152941
0.807843 0.337255 0.168627
0.133333 0.258824 0.160784
0.137255 0.262745 0.160784
0.156863 0.270588 0.164706
0.176471 0.27451 0.164706
0.203922 0.278431 0.164706
0.239216 0.282353 0.156863
0.282353 0.290196 0.156863
0.321569 0.290196 0.145098
0.376471 0.298039 0.152941
0.431373 0.309804 0.156863
0.470588 0.301961 0.145098
0.52549 0.317647 0.156863
0.568627 0.317647 0.14902
0.639216 0.337255 0.164706
0.690196 0.345098 0.160784
0.760784 0.368627 0.180392
0.815686 0.376471 0.180392
0.160784 0.317647 0.188235
0.172549 0.329412 0.192157
0.184314 0.329412 0.196078
0.2 0.333333 0.196078
0.227451 0.333333 0.192157
0.262745 0.345098 0.196078
0.298039 0.34902 0.188235
0.34902 0.352941 0.184314
0.396078 0.364706 0.180392
0.447059 0.368627 0.180392
0.498039 0.372549 0.180392
0.552941 0.380392 0.180392
0.611765 0.388235 0.180392
0.658824 0.392157 0.180392
0.717647 0.403922 0.184314
0.772549 0.419608 0.196078
0.835294 0.439216 0.207843
0.2 0.388235 0.223529
0.203922 0.392157 0.223529
0.215686 0.396078 0.227451
0.235294 0.4 0.223529
0.254902 0.4 0.227451
0.282353 0.403922 0.223529
0.321569 0.411765 0.223529
0.360784 0.407843 0.211765
0.411765 0.423529 0.211765
0.470588 0.435294 0.211765
0.509804 0.427451 0.2
0.564706 0.439216 0.2
0.627451 0.45098 0.203922
0.678431 0.454902 0.196078
0.737255 0.470588 0.211765
0.796078 0.486275 0.223529
0.854902 0.498039 0.231373
0.227451 0.447059 0.25098
0.239216 0.458824 0.258824
0.247059 0.458824 0.254902
0.270588 0.466667 0.262745
0.286275 0.466667 0.258824
0.321569 0.47451 0.266667
0.34902 0.478431 0.262745
0.388235 0.482353 0.254902
0.431373 0.486275 0.25098
0.482353 0.490196 0.243137
0.537255 0.505882 0.239216
0.584314 0.505882 0.235294
0.643137 0.517647 0.239216
0.694118 0.52549 0.235294
0.760784 0.541176 0.247059
0.815686 0.552941 0.25098
0.87451 0.568627 0.270588
0.270588 0.517647 0.286275
0.282353 0.533333 0.298039
0.290196 0.529412 0.298039
0.309804 0.537255 0.301961
0.329412 0.541176 0.301961
0.352941 0.545098 0.301961
0.380392 0.54902 0.298039
0.419608 0.556863 0.301961
0.454902 0.552941 0.290196
0.509804 0.568627 0.294118
0.552941 0.568627 0.278431
0.607843 0.580392 0.270588
0.658824 0.588235 0.27451
0.721569 0.6 0.282353
0.772549 0.607843 0.286275
0.823529 0.615686 0.290196
0.882353 0.631373 0.305882
0.317647 0.596078 0.329412
0.32549 0.603922 0.337255
0.329412 0.603922 0.333333
0.34902 0.611765 0.337255
0.368627 0.615686 0.341176
0.384314 0.607843 0.337255
0.415686 0.619608 0.341176
0.45098 0.627451 0.345098
0.494118 0.635294 0.345098
0.52549 0.631373 0.329412
0.576471 0.643137 0.329412
0.627451 0.647059 0.32549
0.682353 0.658824 0.317647
0.737255 0.67451 0.329412
0.784314 0.678431 0.329412
0.839216 0.682353 0.337255
0.898039 0.698039 0.356863
0.364706 0.670588 0.376471
0.372549 0.678431 0.380392
0.384314 0.682353 0.384314
0.396078 0.686275 0.384314
0.415686 0.694118 0.392157
0.427451 0.682353 0.380392
0.454902 0.690196 0.388235
0.494118 0.701961 0.4
0.517647 0.701961 0.388235
0.556863 0.701961 0.384314
0.6 0.709804 0.384314
0.647059 0.717647 0.380392
0.690196 0.72549 0.376471
0.752941 0.737255 0.376471
0.8 0.741176 0.372549
0.854902 0.74902 0.392157
0.901961 0.756863 0.403922
0.419608 0.741176 0.427451
0.427451 0.74902 0.431373
0.439216 0.756863 0.435294
0.447059 0.756863 0.435294
0.462745 0.756863 0.435294
0.478431 0.760784 0.439216
0.501961 0.760784 0.443137
0.529412 0.768627 0.447059
0.560784 0.772549 0.45098
0.6 0.776471 0.45098
0.631373 0.780392 0.443137
0.67451 0.784314 0.443137
0.713725 0.788235 0.439216
0.752941 0.788235 0.431373
0.807843 0.796078 0.427451
0.870588 0.811765 0.443137
0.917647 0.823529 0.470588
0.486275 0.811765 0.490196
0.486275 0.811765 0.490196
0.494118 0.823529 0.494118
0.505882 0.823529 0.498039
0.517647 0.819608 0.498039
0.537255 0.823529 0.501961
0.556863 0.827451 0.509804
0.580392 0.831373 0.509804
0.607843 0.831373 0.517647
0.631373 0.835294 0.513725
0.670588 0.839216 0.517647
0.709804 0.847059 0.513725
0.733333 0.843137 0.509804
0.776471 0.85098 0.505882
0.815686 0.85098 0.501961
0.87451 0.858824 0.505882
0.92549 0.870588 0.521569
0.54902 0.870588 0.560784
0.556863 0.87451 0.564706
0.560784 0.87451 0.564706
0.572549 0.882353 0.568627
0.576471 0.87451 0.564706
0.6 0.882353 0.576471
0.611765 0.882353 0.576471
0.635294 0.882353 0.580392
0.658824 0.886275 0.584314
0.682353 0.886275 0.592157
0.698039 0.878431 0.584314
0.737255 0.886275 0.584314
0.772549 0.901961 0.596078
0.807843 0.901961 0.592157
0.843137 0.898039 0.588235
0.870588 0.898039 0.584314
0.921569 0.909804 0.596078
0.627451 0.921569 0.635294
0.631373 0.921569 0.635294
0.639216 0.92549 0.639216
0.647059 0.929412 0.643137
0.647059 0.921569 0.639216
0.662745 0.92549 0.647059
0.682353 0.929412 0.654902
0.690196 0.92549 0.65098
0.713725 0.929412 0.662745
0.733333 0.933333 0.670588
0.760784 0.937255 0.67451
0.780392 0.933333 0.670588
0.811765 0.937255 0.67451
0.843137 0.94902 0.686275
0.87451 0.94902 0.690196
0.901961 0.952941 0.682353
0.917647 0.941176 0.678431
0.713725 0.968627 0.72549
0.713725 0.968627 0.72549
0.721569 0.972549 0.729412
0.717647 0.964706 0.721569
0.733333 0.972549 0.733333
0.745098 0.976471 0.737255
0.752941 0.972549 0.741176
0.764706 0.972549 0.741176
0.776471 0.972549 0.745098
0.8 0.976471 0.756863
0.819608 0.976471 0.760784
0.839216 0.976471 0.764706
0.862745 0.980392 0.768627
0.886275 0.980392 0.776471
0.913725 0.984314 0.784314
0.929412 0.984314 0.784314
0.945098 0.984314 0.784314
0.0235294 0.0392157 0.0980392
0.054902 0.0392157 0.0980392
0.0862745 0.0470588 0.109804
0.113725 0.054902 0.105882
0.141176 0.0627451 0.105882
0.184314 0.0862745 0.113725
0.215686 0.105882 0.121569
0.25098 0.109804 0.121569
0.301961 0.12549 0.129412
0.341176 0.12549 0.121569
0.392157 0.141176 0.129412
0.447059 0.152941 0.133333
0.505882 0.160784 0.137255
0.572549 0.176471 0.145098
0.639216 0.192157 0.14902
0.705882 0.211765 0.152941
0.780392 0.239216 0.164706
0.0509804 0.0862745 0.113725
0.0745098 0.0901961 0.117647
0.0901961 0.0862745 0.109804
0.12549 0.0941176 0.121569
0.14902 0.101961 0.117647
0.184314 0.109804 0.12549
0.215686 0.117647 0.121569
0.266667 0.133333 0.129412
0.305882 0.133333 0.129412
0.356863 0.14902 0.133333
0.407843 0.156863 0.137255
0.466667 0.172549 0.14902
0.521569 0.180392 0.145098
0.576471 0.188235 0.145098
0.643137 0.203922 0.14902
0.713725 0.231373 0.160784
0.780392 0.247059 0.164706
0.0666667 0.121569 0.121569
0.0862745 0.12549 0.129412
0.101961 0.12549 0.12549
0.12549 0.12549 0.12549
0.160784 0.141176 0.129412
0.196078 0.141176 0.137255
0.223529 0.141176 0.129412
0.266667 0.14902 0.133333
0.321569 0.164706 0.137255
0.364706 0.168627 0.141176
0.419608 0.180392 0.145098
0.470588 0.188235 0.145098
0.529412 0.203922 0.152941
0.596078 0.219608 0.156863
0.65098 0.227451 0.152941
0.709804 0.239216 0.156863
0.784314 0.266667 0.172549
0.0901961 0.160784 0.137255
0.0980392 0.160784 0.137255
0.117647 0.168627 0.141176
0.145098 0.172549 0.145098
0.172549 0.172549 0.141176
0.211765 0.176471 0.141176
0.254902 0.188235 0.14902
0.298039 0.196078 0.152941
0.333333 0.196078 0.14902
0.380392 0.2 0.141176
0.435294 0.215686 0.156863
0.478431 0.215686 0.14902
0.541176 0.235294 0.160784
0.596078 0.243137 0.160784
0.666667 0.262745 0.172549
0.72549 0.278431 0.172549
0.796078 0.298039 0.180392
0.109804 0.207843 0.156863
0.117647 0.211765 0.156863
0.133333 0.211765 0.160784
0.152941 0.215686 0.164706
0.188235 0.223529 0.160784
0.215686 0.219608 0.14902
0.270588 0.239216 0.164706
0.309804 0.239216 0.156863
0.34902 0.235294 0.152941
0.403922 0.25098 0.164706
0.45098 0.254902 0.164706
0.505882 0.266667 0.168627
0.556863 0.270588 0.168627
0.623529 0.290196 0.176471
0.682353 0.305882 0.180392
0.741176 0.317647 0.184314
0.807843 0.341176 0.196078
0.133333 0.258824 0.176471
0.14902 0.27451 0.192157
0.160784 0.270588 0.184314
0.184314 0.278431 0.192157
0.207843 0.282353 0.192157
0.239216 0.282353 0.184314
0.286275 0.286275 0.176471
0.333333 0.298039 0.180392
0.376471 0.301961 0.176471
0.427451 0.301961 0.176471
0.478431 0.309804 0.180392
0.529412 0.321569 0.188235
0.576471 0.32549 0.184314
0.627451 0.329412 0.180392
0.694118 0.345098 0.192157
0.74902 0.360784 0.196078
0.815686 0.384314 0.207843
0.164706 0.321569 0.207843
0.176471 0.333333 0.219608
0.188235 0.333333 0.215686
0.203922 0.333333 0.211765
0.235294 0.341176 0.219608
0.258824 0.341176 0.211765
0.305882 0.352941 0.211765
0.352941 0.360784 0.207843
0.396078 0.360784 0.203922
0.443137 0.360784 0.196078
0.501961 0.372549 0.203922
0.552941 0.380392 0.203922
0.607843 0.388235 0.203922
0.65098 0.388235 0.2
0.709804 0.403922 0.207843
0.768627 0.415686 0.211765
0.839216 0.443137 0.235294
0.192157 0.376471 0.231373
0.215686 0.4 0.25098
0.223529 0.4 0.25098
0.243137 0.403922 0.25098
0.258824 0.403922 0.247059
0.290196 0.407843 0.247059
0.317647 0.403922 0.235294
0.368627 0.419608 0.239216
0.411765 0.419608 0.227451
0.470588 0.431373 0.231373
0.517647 0.435294 0.231373
0.568627 0.439216 0.227451
0.627451 0.45098 0.227451
0.690196 0.462745 0.231373
0.741176 0.47451 0.239216
0.796078 0.486275 0.247059
0.854902 0.501961 0.258824
0.231373 0.45098 0.270588
0.247059 0.466667 0.278431
0.254902 0.466667 0.27451
0.266667 0.462745 0.27451
0.290196 0.466667 0.278431
0.32549 0.482353 0.286275
0.352941 0.482353 0.282353
0.396078 0.486275 0.278431
0.427451 0.482353 0.266667
0.478431 0.494118 0.262745
0.537255 0.505882 0.258824
0.596078 0.517647 0.262745
0.643137 0.521569 0.258824
0.705882 0.533333 0.266667
0.756863 0.541176 0.262745
0.815686 0.552941 0.27451
0.866667 0.560784 0.282353
0.278431 0.52549 0.309804
0.286275 0.529412 0.313725
0.294118 0.533333 0.313725
0.309804 0.537255 0.317647
0.32549 0.537255 0.313725
0.352941 0.545098 0.317647
0.388235 0.54902 0.317647
0.419608 0.556863 0.317647
0.462745 0.560784 0.309804
0.509804 0.568627 0.309804
0.556863 0.576471 0.305882
0.611765 0.580392 0.294118
0.662745 0.592157 0.294118
0.713725 0.6 0.298039
0.776471 0.611765 0.305882
0.827451 0.619608 0.313725
0.886275 0.635294 0.32549
0.317647 0.596078 0.345098
0.333333 0.607843 0.356863
0.337255 0.607843 0.352941
0.352941 0.615686 0.352941
0.368627 0.611765 0.352941
0.392157 0.615686 0.352941
0.415686 0.619608 0.352941
0.454902 0.627451 0.356863
0.490196 0.631373 0.356863
0.537255 0.643137 0.356863
0.572549 0.635294 0.341176
0.627451 0.654902 0.345098
0.682353 0.662745 0.337255
0.733333 0.670588 0.337255
0.788235 0.678431 0.34902
0.835294 0.682353 0.352941
0.894118 0.698039 0.372549
0.368627 0.670588 0.388235
0.384314 0.686275 0.4
0.392157 0.690196 0.4
0.392157 0.678431 0.392157
0.411765 0.686275 0.4
0.443137 0.698039 0.407843
0.458824 0.690196 0.4
0.498039 0.705882 0.411765
0.52549 0.705882 0.407843
0.560784 0.705882 0.403922
0.603922 0.717647 0.403922
0.643137 0.717647 0.392157
0.690196 0.721569 0.388235
0.752941 0.737255 0.384314
0.807843 0.745098 0.396078
0.847059 0.745098 0.4
0.901961 0.760784 0.419608
0.415686 0.737255 0.431373
0.435294 0.756863 0.45098
0.431373 0.74902 0.443137
0.447059 0.752941 0.447059
0.462745 0.74902 0.443137
0.486275 0.764706 0.454902
0.509804 0.764706 0.454902
0.533333 0.768627 0.462745
0.564706 0.772549 0.462745
0.596078 0.768627 0.454902
0.635294 0.784314 0.458824
0.670588 0.780392 0.45098
0.713725 0.784314 0.447059
0.752941 0.788235 0.443137
0.815686 0.8 0.443137
0.870588 0.811765 0.458824
0.909804 0.815686 0.47451
0.486275 0.811765 0.498039
0.486275 0.811765 0.498039
0.494118 0.815686 0.501961
0.509804 0.823529 0.509804
0.521569 0.823529 0.509804
0.545098 0.831373 0.517647
0.556863 0.827451 0.513725
0.584314 0.831373 0.52549
0.611765 0.835294 0.529412
0.635294 0.835294 0.52549
0.67451 0.843137 0.529412
0.705882 0.843137 0.52549
0.733333 0.843137 0.517647
0.776471 0.847059 0.517647
0.815686 0.847059 0.513725
0.878431 0.862745 0.521569
0.921569 0.870588 0.533333
0.556863 0.878431 0.576471
0.564706 0.882353 0.580392
0.568627 0.878431 0.576471
0.576471 0.878431 0.580392
0.584314 0.878431 0.576471
0.6 0.882353 0.584314
0.619608 0.886275 0.588235
0.639216 0.886275 0.592157
0.662745 0.890196 0.6
0.686275 0.890196 0.6
0.705882 0.886275 0.6
0.745098 0.894118 0.6
0.780392 0.898039 0.603922
0.803922 0.898039 0.596078
0.843137 0.898039 0.596078
0.878431 0.905882 0.6
0.921569 0.909804 0.607843
0.631373 0.921569 0.643137
0.639216 0.92549 0.647059
0.635294 0.921569 0.643137
0.647059 0.92549 0.65098
0.654902 0.929412 0.654902
0.67451 0.937255 0.666667
0.686275 0.933333 0.658824
0.690196 0.921569 0.654902
0.717647 0.937255 0.670588
0.737255 0.937255 0.67451
0.764706 0.941176 0.686275
0.784314 0.937255 0.682353
0.819608 0.945098 0.690196
0.839216 0.941176 0.686275
0.870588 0.945098 0.686275
0.901961 0.94902 0.690196
0.92549 0.94902 0.690196
0.72549 0.972549 0.737255
0.721569 0.972549 0.733333
0.721569 0.972549 0.733333
0.72549 0.968627 0.733333
0.729412 0.968627 0.733333
0.741176 0.972549 0.737255
0.752941 0.972549 0.741176
0.768627 0.972549 0.74902
0.788235 0.976471 0.756863
0.803922 0.976471 0.760784
0.823529 0.980392 0.768627
0.839216 0.976471 0.764706
0.858824 0.976471 0.768627
0.890196 0.984314 0.784314
0.917647 0.984314 0.792157
0.929412 0.984314 0.788235
0.956863 0.984314 0.796078
0.0352941 0.054902 0.133333
0.054902 0.054902 0.133333
0.0862745 0.0588235 0.137255
0.113725 0.0666667 0.141176
0.14902 0.0745098 0.14902
0.180392 0.0862745 0.145098
0.223529 0.101961 0.152941
0.254902 0.101961 0.145098
0.298039 0.12549 0.160784
0.345098 0.137255 0.168627
0.4 0.152941 0.176471
0.45098 0.160784 0.176471
0.513725 0.172549 0.184314
0.572549 0.184314 0.184314
0.631373 0.192157 0.184314
0.709804 0.219608 0.196078
0.780392 0.243137 0.203922
0.0509804 0.0901961 0.14902
0.0705882 0.0941176 0.14902
0.0980392 0.0941176 0.14902
0.121569 0.0980392 0.152941
0.152941 0.105882 0.152941
0.188235 0.109804 0.152941
0.223529 0.117647 0.152941
0.270588 0.133333 0.164706
0.309804 0.145098 0.172549
0.356863 0.152941 0.172549
0.411765 0.168627 0.180392
