resources/LUTs/LUT Colour Grades (cube)/Faded_Film_Cool.cube
#Generated by Picture Instruments - Look Creator
TITLE "Kodak Portra 100 Cool"
LUT_3D_SIZE 5
0 0 0
0.137255 0.0627451 0.0235294
0.294118 0.113725 0.0509804
0.509804 0.160784 0.0823529
0.768627 0.227451 0.0980392
0.0980392 0.2 0.109804
0.180392 0.219608 0.109804
0.356863 0.243137 0.105882
0.552941 0.262745 0.113725
0.8 0.333333 0.145098
0.235294 0.458824 0.25098
0.290196 0.470588 0.254902
0.427451 0.482353 0.239216
0.643137 0.517647 0.223529
0.866667 0.560784 0.247059
0.427451 0.760784 0.431373
0.458824 0.752941 0.427451
0.560784 0.772549 0.443137
0.709804 0.784314 0.431373
0.909804 0.815686 0.454902
0.72549 0.972549 0.733333
0.729412 0.968627 0.729412
0.776471 0.968627 0.741176
0.858824 0.976471 0.764706
0.945098 0.984314 0.784314
0.0431373 0.0705882 0.180392
0.145098 0.0862745 0.188235
0.305882 0.117647 0.196078
0.513725 0.180392 0.231373
0.764706 0.235294 0.243137
0.117647 0.219608 0.223529
0.188235 0.227451 0.235294
0.352941 0.247059 0.243137
0.560784 0.286275 0.258824
0.796078 0.337255 0.270588
0.239216 0.454902 0.321569
0.301961 0.470588 0.333333
0.45098 0.498039 0.341176
0.65098 0.521569 0.329412
0.866667 0.568627 0.356863
0.435294 0.745098 0.486275
0.47451 0.760784 0.494118
0.576471 0.776471 0.509804
0.72549 0.796078 0.501961
0.913725 0.819608 0.52549
0.72549 0.972549 0.74902
0.745098 0.976471 0.756863
0.784314 0.968627 0.760784
0.870588 0.980392 0.792157
0.952941 0.984314 0.803922
0.0235294 0.129412 0.372549
0.156863 0.141176 0.380392
0.329412 0.156863 0.4
0.529412 0.168627 0.403922
0.764706 0.207843 0.423529
0.145098 0.254902 0.4
0.207843 0.258824 0.419608
0.380392 0.278431 0.443137
0.576471 0.290196 0.45098
0.803922 0.32549 0.462745
0.270588 0.466667 0.482353
0.329412 0.482353 0.498039
0.478431 0.513725 0.533333
0.647059 0.529412 0.529412
0.847059 0.556863 0.529412
0.447059 0.745098 0.592157
0.490196 0.760784 0.607843
0.6 0.780392 0.639216
0.729412 0.792157 0.635294
0.917647 0.819608 0.658824
0.72549 0.980392 0.792157
0.74902 0.972549 0.8
0.807843 0.980392 0.823529
0.882353 0.980392 0.843137
0.960784 0.988235 0.847059
0.054902 0.203922 0.592157
0.184314 0.207843 0.603922
0.368627 0.223529 0.623529
0.576471 0.243137 0.654902
0.788235 0.27451 0.666667
0.12549 0.282353 0.607843
0.235294 0.305882 0.639216
0.411765 0.32549 0.662745
0.607843 0.337255 0.682353
0.815686 0.368627 0.690196
0.305882 0.505882 0.658824
0.356863 0.513725 0.67451
0.470588 0.517647 0.705882
0.666667 0.552941 0.733333
0.85098 0.568627 0.72549
0.462745 0.745098 0.737255
0.509804 0.764706 0.756863
0.603922 0.776471 0.772549
0.776471 0.815686 0.819608
0.905882 0.807843 0.803922
0.729412 0.972549 0.862745
0.74902 0.976471 0.870588
0.796078 0.980392 0.870588
0.890196 0.980392 0.898039
0.972549 0.988235 0.917647
0.321569 0.376471 0.866667
0.384314 0.396078 0.886275
0.517647 0.411765 0.890196
0.690196 0.458824 0.901961
0.870588 0.486275 0.921569
0.364706 0.454902 0.901961
0.415686 0.462745 0.913725
0.537255 0.482353 0.913725
0.721569 0.529412 0.929412
0.890196 0.552941 0.937255
0.447059 0.619608 0.913725
0.458824 0.603922 0.921569
0.572549 0.615686 0.92549
0.741176 0.658824 0.933333
0.905882 0.682353 0.94902
0.596078 0.835294 0.937255
0.607843 0.831373 0.937255
0.666667 0.827451 0.945098
0.764706 0.803922 0.941176
0.937255 0.843137 0.960784
0.803922 0.988235 0.980392
0.807843 0.988235 0.976471
0.843137 0.988235 0.980392
0.898039 0.988235 0.980392
0.984314 0.988235 0.984314
