resources/LUTs/LUT Colour Grades (cube)/Faded_Film_Warm.cube
#Generated by Picture Instruments - Look Creator
TITLE "Kodak Portra 100 Warm"
LUT_3D_SIZE 17
0 0 0
0.0509804 0.00392157 0
0.0862745 0.0117647 0.00392157
0.12549 0.027451 0.0117647
0.160784 0.0431373 0.0156863
0.2 0.0509804 0.0196078
0.247059 0.0627451 0.0235294
0.290196 0.0705882 0.027451
0.333333 0.0745098 0.0235294
0.384314 0.0901961 0.0352941
0.431373 0.0980392 0.0313725
0.482353 0.109804 0.0313725
0.545098 0.133333 0.0352941
0.596078 0.141176 0.0196078
0.666667 0.172549 0.0196078
0.721569 0.192157 0.0117647
0.788235 0.223529 0.0196078
0.0431373 0.0666667 0.027451
0.0745098 0.0705882 0.0235294
0.105882 0.0705882 0.0235294
0.141176 0.0745098 0.0235294
0.172549 0.0823529 0.027451
0.207843 0.0784314 0.027451
0.247059 0.0784314 0.0235294
0.298039 0.0941176 0.0313725
0.34902 0.101961 0.0352941
0.396078 0.109804 0.0352941
0.454902 0.129412 0.0431373
0.501961 0.137255 0.0392157
0.54902 0.145098 0.027451
0.603922 0.160784 0.0196078
0.678431 0.196078 0.0313725
0.737255 0.219608 0.027451
0.803922 0.247059 0.0313725
0.0823529 0.109804 0.054902
0.0980392 0.113725 0.054902
0.121569 0.113725 0.0509804
0.156863 0.113725 0.0431373
0.184314 0.113725 0.0352941
0.227451 0.117647 0.0431373
0.262745 0.117647 0.0392157
0.309804 0.121569 0.0392157
0.34902 0.12549 0.0352941
0.403922 0.137255 0.0392157
0.454902 0.145098 0.0392157
0.501961 0.152941 0.0313725
0.564706 0.180392 0.0431373
0.615686 0.188235 0.027451
0.678431 0.215686 0.027451
0.741176 0.239216 0.0313725
0.803922 0.262745 0.0313725
0.101961 0.14902 0.0666667
0.117647 0.14902 0.0666667
0.141176 0.152941 0.0705882
0.164706 0.156863 0.0627451
0.2 0.156863 0.054902
0.247059 0.164706 0.0627451
0.282353 0.164706 0.0509804
0.329412 0.168627 0.0588235
0.372549 0.172549 0.0509804
0.415686 0.172549 0.0431373
0.458824 0.180392 0.0352941
0.521569 0.203922 0.054902
0.568627 0.207843 0.0392157
0.631373 0.231373 0.0470588
0.690196 0.25098 0.0431373
0.752941 0.27451 0.0470588
0.811765 0.298039 0.0470588
0.133333 0.192157 0.0901961
0.145098 0.2 0.0901961
0.164706 0.203922 0.0980392
0.192157 0.211765 0.0941176
0.223529 0.211765 0.0862745
0.266667 0.215686 0.0823529
0.298039 0.211765 0.0666667
0.34902 0.223529 0.0705882
0.4 0.231373 0.0705882
0.439216 0.231373 0.0627451
0.486275 0.239216 0.0588235
0.541176 0.254902 0.0705882
0.580392 0.258824 0.0509804
0.639216 0.270588 0.0431373
0.705882 0.298039 0.0627451
0.756863 0.313725 0.054902
0.819608 0.337255 0.0627451
0.168627 0.25098 0.109804
0.180392 0.258824 0.113725
0.196078 0.262745 0.117647
0.215686 0.262745 0.117647
0.247059 0.27451 0.117647
0.278431 0.270588 0.105882
0.333333 0.290196 0.109804
0.360784 0.27451 0.0823529
0.415686 0.290196 0.0941176
0.470588 0.301961 0.0941176
0.513725 0.301961 0.0784314
0.556863 0.305882 0.0745098
0.611765 0.321569 0.0862745
0.662745 0.329412 0.0705882
0.717647 0.345098 0.0745098
0.768627 0.360784 0.0745098
0.831373 0.384314 0.0901961
0.211765 0.317647 0.145098
0.215686 0.321569 0.137255
0.227451 0.321569 0.141176
0.243137 0.32549 0.141176
0.266667 0.329412 0.137255
0.309804 0.345098 0.141176
0.337255 0.337255 0.12549
0.384314 0.34902 0.121569
0.431373 0.352941 0.113725
0.482353 0.360784 0.113725
0.52549 0.368627 0.105882
0.584314 0.376471 0.101961
0.631373 0.384314 0.0980392
0.682353 0.396078 0.0980392
0.737255 0.407843 0.101961
0.8 0.427451 0.121569
0.847059 0.435294 0.117647
0.247059 0.388235 0.172549
0.258824 0.396078 0.176471
0.266667 0.396078 0.172549
0.282353 0.396078 0.172549
0.301961 0.396078 0.168627
0.32549 0.396078 0.164706
0.368627 0.415686 0.168627
0.411765 0.419608 0.160784
0.45098 0.423529 0.152941
0.505882 0.435294 0.14902
0.54902 0.439216 0.141176
0.596078 0.443137 0.133333
0.65098 0.45098 0.129412
0.709804 0.466667 0.133333
0.764706 0.478431 0.145098
0.815686 0.486275 0.14902
0.870588 0.501961 0.160784
0.290196 0.462745 0.207843
0.298039 0.466667 0.207843
0.298039 0.458824 0.2
0.313725 0.466667 0.203922
0.341176 0.47451 0.207843
0.356863 0.470588 0.207843
0.392157 0.47451 0.2
0.431373 0.482353 0.2
0.47451 0.490196 0.192157
0.517647 0.498039 0.184314
0.568627 0.501961 0.172549
0.619608 0.513725 0.176471
0.666667 0.521569 0.172549
0.717647 0.52549 0.168627
0.776471 0.537255 0.176471
0.831373 0.54902 0.180392
0.882353 0.560784 0.196078
0.32549 0.529412 0.239216
0.333333 0.533333 0.247059
0.345098 0.537255 0.247059
0.356863 0.537255 0.247059
0.376471 0.541176 0.25098
0.4 0.545098 0.25098
0.419608 0.541176 0.243137
0.454902 0.552941 0.239216
0.494118 0.552941 0.235294
0.545098 0.564706 0.231373
0.580392 0.564706 0.215686
0.631373 0.572549 0.207843
0.686275 0.584314 0.215686
0.741176 0.6 0.223529
0.796078 0.603922 0.227451
0.843137 0.611765 0.231373
0.894118 0.619608 0.243137
0.376471 0.607843 0.290196
0.380392 0.607843 0.290196
0.376471 0.6 0.282353
0.392157 0.603922 0.282353
0.415686 0.611765 0.290196
0.443137 0.619608 0.298039
0.466667 0.623529 0.298039
0.486275 0.619608 0.290196
0.537255 0.635294 0.298039
0.572549 0.635294 0.290196
0.611765 0.639216 0.278431
0.65098 0.639216 0.270588
0.701961 0.65098 0.262745
0.756863 0.662745 0.270588
0.803922 0.666667 0.27451
0.854902 0.670588 0.286275
0.905882 0.686275 0.305882
0.419608 0.67451 0.337255
0.431373 0.682353 0.345098
0.431373 0.67451 0.341176
0.439216 0.67451 0.337255
0.458824 0.678431 0.341176
0.47451 0.682353 0.345098
0.501961 0.690196 0.34902
0.521569 0.686275 0.345098
0.560784 0.694118 0.34902
0.596078 0.698039 0.341176
0.635294 0.701961 0.337255
0.670588 0.709804 0.333333
0.721569 0.709804 0.329412
0.772549 0.721569 0.321569
0.819608 0.729412 0.329412
0.866667 0.733333 0.341176
0.917647 0.74902 0.364706
0.478431 0.74902 0.4
0.47451 0.741176 0.396078
0.486275 0.745098 0.4
0.494118 0.745098 0.403922
0.501961 0.741176 0.396078
0.521569 0.74902 0.403922
0.541176 0.752941 0.403922
0.564706 0.752941 0.403922
0.6 0.760784 0.411765
0.627451 0.764706 0.411765
0.658824 0.760784 0.4
0.701961 0.768627 0.4
0.733333 0.772549 0.396078
0.784314 0.780392 0.396078
0.827451 0.780392 0.384314
0.882353 0.796078 0.403922
0.921569 0.803922 0.423529
0.533333 0.811765 0.466667
0.533333 0.807843 0.462745
0.537255 0.807843 0.462745
0.54902 0.807843 0.462745
0.54902 0.8 0.458824
0.568627 0.803922 0.462745
0.592157 0.811765 0.470588
0.607843 0.815686 0.47451
0.639216 0.815686 0.482353
0.666667 0.823529 0.482353
0.686275 0.819608 0.478431
0.721569 0.823529 0.47451
0.764706 0.835294 0.478431
0.8 0.835294 0.470588
0.835294 0.835294 0.466667
0.886275 0.847059 0.470588
0.941176 0.866667 0.494118
0.607843 0.878431 0.552941
0.596078 0.866667 0.541176
0.6 0.862745 0.537255
0.607843 0.862745 0.537255
0.619608 0.870588 0.541176
0.623529 0.862745 0.537255
0.643137 0.870588 0.545098
0.662745 0.870588 0.54902
0.682353 0.870588 0.556863
0.709804 0.878431 0.564706
0.733333 0.878431 0.564706
0.752941 0.87451 0.556863
0.788235 0.878431 0.552941
0.823529 0.890196 0.560784
0.858824 0.890196 0.556863
0.886275 0.882353 0.54902
0.933333 0.901961 0.564706
0.670588 0.92549 0.623529
0.670588 0.921569 0.623529
0.658824 0.905882 0.603922
0.678431 0.921569 0.619608
0.682353 0.917647 0.619608
0.686275 0.913725 0.615686
0.705882 0.917647 0.623529
0.717647 0.921569 0.631373
0.733333 0.921569 0.631373
0.768627 0.933333 0.65098
0.780392 0.92549 0.65098
0.803922 0.92549 0.65098
0.823529 0.929412 0.65098
0.854902 0.941176 0.658824
0.886275 0.937255 0.654902
0.913725 0.945098 0.658824
0.941176 0.945098 0.658824
0.74902 0.968627 0.713725
0.737255 0.964706 0.698039
0.741176 0.964706 0.701961
0.74902 0.964706 0.701961
0.752941 0.964706 0.705882
0.764706 0.968627 0.709804
0.768627 0.964706 0.709804
0.788235 0.968627 0.717647
0.796078 0.964706 0.713725
0.823529 0.972549 0.733333
0.839216 0.972549 0.741176
0.85098 0.968627 0.733333
0.87451 0.972549 0.745098
0.894118 0.976471 0.74902
0.921569 0.980392 0.760784
0.941176 0.984314 0.764706
0.952941 0.984314 0.764706
0.0196078 0.0156863 0.054902
0.0627451 0.0156863 0.0509804
0.0901961 0.0196078 0.0470588
0.137255 0.0352941 0.0588235
0.172549 0.0588235 0.0705882
0.203922 0.054902 0.0627451
0.247059 0.0666667 0.0666667
0.290196 0.0705882 0.0666667
0.337255 0.0784314 0.0666667
0.380392 0.0862745 0.0627451
0.431373 0.0980392 0.0627451
0.482353 0.113725 0.0666667
0.533333 0.121569 0.054902
0.596078 0.145098 0.0509804
0.662745 0.176471 0.054902
0.72549 0.2 0.0509804
0.796078 0.231373 0.054902
0.054902 0.0705882 0.0666667
0.0745098 0.0705882 0.0627451
0.109804 0.0705882 0.0666667
0.141176 0.0784314 0.0666667
0.176471 0.0823529 0.0705882
0.215686 0.0862745 0.0705882
0.258824 0.0941176 0.0745098
0.301961 0.0980392 0.0745098
0.34902 0.105882 0.0745098
0.396078 0.109804 0.0705882
0.454902 0.129412 0.0784314
0.501961 0.137255 0.0745098
0.552941 0.14902 0.0627451
0.619608 0.180392 0.0784314
0.678431 0.2 0.0705882
0.729412 0.211765 0.0509804
0.8 0.243137 0.054902
0.0862745 0.105882 0.0784314
0.105882 0.109804 0.0823529
0.129412 0.117647 0.0823529
0.156863 0.117647 0.0784314
0.188235 0.113725 0.0745098
0.231373 0.121569 0.0784314
0.27451 0.12549 0.0823529
0.309804 0.121569 0.0705882
0.356863 0.129412 0.0745098
0.415686 0.152941 0.0862745
0.45098 0.145098 0.0705882
0.509804 0.164706 0.0784314
0.560784 0.176471 0.0705882
0.623529 0.2 0.0745098
0.686275 0.219608 0.0745098
0.737255 0.239216 0.0627451
0.803922 0.262745 0.0627451
0.113725 0.14902 0.0901961
0.121569 0.145098 0.0862745
0.14902 0.156863 0.101961
0.172549 0.160784 0.0941176
0.207843 0.160784 0.0901961
0.247059 0.160784 0.0862745
0.286275 0.164706 0.0862745
0.333333 0.172549 0.0862745
0.376471 0.176471 0.0862745
0.423529 0.184314 0.0862745
0.470588 0.192157 0.0862745
0.521569 0.203922 0.0823529
0.572549 0.215686 0.0784314
0.635294 0.239216 0.0862745
0.701961 0.262745 0.0901961
0.74902 0.27451 0.0745098
0.815686 0.301961 0.0862745
0.14902 0.2 0.109804
0.152941 0.2 0.109804
0.168627 0.2 0.109804
0.196078 0.211765 0.113725
0.223529 0.207843 0.101961
0.262745 0.215686 0.101961
0.305882 0.219608 0.101961
0.34902 0.223529 0.0980392
0.392157 0.223529 0.0862745
0.443137 0.235294 0.0941176
0.486275 0.239216 0.0901961
0.537255 0.25098 0.0901961
0.592157 0.266667 0.0941176
0.643137 0.27451 0.0901961
0.701961 0.294118 0.0862745
0.756863 0.313725 0.0901961
0.827451 0.345098 0.105882
0.176471 0.254902 0.129412
0.184314 0.258824 0.129412
0.203922 0.262745 0.133333
0.223529 0.266667 0.133333
0.25098 0.27451 0.133333
0.286275 0.278431 0.12549
0.329412 0.282353 0.117647
0.364706 0.282353 0.109804
0.419608 0.290196 0.113725
0.470588 0.301961 0.113725
0.505882 0.298039 0.101961
0.560784 0.309804 0.105882
0.603922 0.313725 0.0980392
0.666667 0.337255 0.113725
0.713725 0.345098 0.101961
0.784314 0.376471 0.121569
0.835294 0.384314 0.117647
0.211765 0.317647 0.152941
0.219608 0.32549 0.156863
0.235294 0.329412 0.156863
0.254902 0.329412 0.156863
0.270588 0.333333 0.156863
0.313725 0.345098 0.156863
0.34902 0.345098 0.14902
0.392157 0.356863 0.145098
0.439216 0.360784 0.137255
0.486275 0.364706 0.137255
0.537255 0.372549 0.133333
0.588235 0.380392 0.129412
0.639216 0.392157 0.129412
0.682353 0.396078 0.121569
0.737255 0.411765 0.129412
0.792157 0.423529 0.137255
0.85098 0.447059 0.152941
0.25098 0.388235 0.188235
0.258824 0.396078 0.184314
0.270588 0.4 0.188235
0.286275 0.4 0.188235
0.309804 0.403922 0.184314
0.333333 0.407843 0.184314
0.368627 0.411765 0.176471
0.403922 0.411765 0.168627
0.454902 0.423529 0.168627
0.509804 0.435294 0.164706
0.541176 0.431373 0.14902
0.596078 0.443137 0.14902
0.654902 0.454902 0.152941
0.701961 0.454902 0.141176
0.760784 0.47451 0.156863
0.815686 0.490196 0.168627
0.870588 0.501961 0.176471
0.286275 0.45098 0.207843
0.294118 0.462745 0.215686
0.301961 0.462745 0.211765
0.321569 0.470588 0.219608
0.337255 0.47451 0.219608
0.368627 0.482353 0.223529
0.403922 0.486275 0.223529
0.435294 0.486275 0.211765
0.478431 0.494118 0.203922
0.517647 0.494118 0.196078
0.572549 0.505882 0.192157
0.615686 0.509804 0.184314
0.670588 0.521569 0.188235
0.721569 0.52549 0.184314
0.780392 0.541176 0.196078
0.835294 0.552941 0.203922
0.890196 0.568627 0.219608
0.32549 0.52549 0.247059
0.337255 0.537255 0.254902
0.345098 0.533333 0.25098
0.364706 0.541176 0.258824
0.380392 0.545098 0.262745
0.403922 0.54902 0.262745
0.427451 0.54902 0.258824
0.462745 0.556863 0.258824
0.498039 0.556863 0.247059
0.545098 0.572549 0.25098
0.584314 0.568627 0.231373
0.639216 0.580392 0.227451
0.686275 0.588235 0.227451
0.741176 0.6 0.235294
0.796078 0.603922 0.239216
0.843137 0.611765 0.243137
0.898039 0.623529 0.258824
0.372549 0.596078 0.294118
0.380392 0.607843 0.298039
0.380392 0.603922 0.294118
0.4 0.611765 0.301961
0.415686 0.615686 0.301961
0.431373 0.607843 0.294118
0.462745 0.619608 0.305882
0.494118 0.623529 0.305882
0.533333 0.631373 0.301961
0.556863 0.627451 0.290196
0.607843 0.643137 0.290196
0.658824 0.643137 0.282353
0.709804 0.654902 0.278431
0.760784 0.666667 0.286275
0.807843 0.666667 0.286275
0.85098 0.67451 0.298039
0.909804 0.690196 0.317647
0.419608 0.670588 0.341176
0.423529 0.67451 0.345098
0.435294 0.678431 0.34902
0.447059 0.682353 0.352941
0.466667 0.686275 0.356863
0.470588 0.678431 0.34902
0.498039 0.686275 0.352941
0.533333 0.698039 0.364706
0.560784 0.694118 0.352941
0.592157 0.694118 0.34902
0.631373 0.705882 0.34902
0.67451 0.709804 0.345098
0.721569 0.713725 0.341176
0.776471 0.729412 0.337255
0.819608 0.729412 0.337255
0.87451 0.741176 0.356863
0.917647 0.745098 0.372549
0.470588 0.733333 0.396078
0.47451 0.741176 0.4
0.490196 0.74902 0.407843
0.494118 0.745098 0.407843
0.505882 0.745098 0.407843
0.521569 0.74902 0.411765
0.541176 0.74902 0.411765
0.572549 0.756863 0.419608
0.596078 0.760784 0.419608
0.631373 0.764706 0.423529
0.662745 0.764706 0.411765
0.701961 0.772549 0.411765
0.741176 0.776471 0.407843
0.776471 0.776471 0.4
0.831373 0.784314 0.396078
0.886275 0.8 0.415686
0.929412 0.807843 0.439216
0.529412 0.803922 0.462745
0.529412 0.803922 0.462745
0.537255 0.807843 0.466667
0.552941 0.811765 0.470588
0.556863 0.807843 0.470588
0.576471 0.811765 0.478431
0.596078 0.815686 0.482353
0.611765 0.815686 0.486275
0.643137 0.819608 0.490196
0.666667 0.823529 0.490196
0.698039 0.831373 0.490196
0.737255 0.831373 0.490196
0.756863 0.831373 0.482353
0.8 0.835294 0.482353
0.839216 0.835294 0.47451
0.886275 0.847059 0.482353
0.933333 0.858824 0.498039
0.588235 0.858824 0.537255
0.596078 0.862745 0.537255
0.596078 0.862745 0.537255
0.611765 0.866667 0.545098
0.611765 0.862745 0.541176
0.631373 0.870588 0.54902
0.643137 0.866667 0.54902
0.662745 0.870588 0.552941
0.686275 0.87451 0.560784
0.705882 0.87451 0.564706
0.72549 0.870588 0.560784
0.752941 0.87451 0.560784
0.796078 0.886275 0.568627
0.831373 0.890196 0.568627
0.858824 0.890196 0.564706
0.890196 0.886275 0.560784
0.933333 0.901961 0.572549
0.658824 0.909804 0.611765
0.662745 0.913725 0.615686
0.670588 0.917647 0.619608
0.67451 0.917647 0.623529
0.67451 0.909804 0.619608
0.690196 0.917647 0.619608
0.709804 0.921569 0.627451
0.713725 0.917647 0.627451
0.737255 0.921569 0.639216
0.756863 0.921569 0.643137
0.784314 0.929412 0.654902
0.803922 0.92549 0.65098
0.827451 0.933333 0.654902
0.854902 0.941176 0.658824
0.890196 0.941176 0.666667
0.913725 0.945098 0.662745
0.929412 0.933333 0.654902
0.741176 0.960784 0.705882
0.737255 0.964706 0.701961
0.745098 0.968627 0.705882
0.741176 0.960784 0.698039
0.756863 0.968627 0.709804
0.768627 0.968627 0.713725
0.776471 0.964706 0.713725
0.784314 0.968627 0.717647
0.796078 0.964706 0.721569
0.819608 0.972549 0.733333
0.839216 0.972549 0.741176
0.854902 0.972549 0.745098
0.87451 0.976471 0.74902
0.898039 0.976471 0.756863
0.921569 0.980392 0.764706
0.937255 0.980392 0.764706
0.952941 0.980392 0.764706
0.0470588 0.0352941 0.0862745
0.0745098 0.0313725 0.0862745
0.105882 0.0352941 0.0901961
0.137255 0.0352941 0.0901961
0.168627 0.0352941 0.0862745
0.215686 0.0588235 0.0980392
0.25098 0.0745098 0.101961
0.290196 0.0784314 0.0980392
0.341176 0.0901961 0.101961
0.380392 0.0862745 0.0980392
0.431373 0.101961 0.101961
0.486275 0.121569 0.101961
0.541176 0.137255 0.101961
0.603922 0.156863 0.101961
0.666667 0.180392 0.101961
0.729412 0.203922 0.101961
0.8 0.239216 0.105882
0.0784314 0.0823529 0.0980392
0.0941176 0.0823529 0.101961
0.117647 0.0784314 0.0980392
0.152941 0.0862745 0.0980392
0.180392 0.0823529 0.0980392
0.215686 0.0941176 0.101961
0.254902 0.0941176 0.101961
0.305882 0.105882 0.105882
0.345098 0.105882 0.101961
0.396078 0.113725 0.105882
0.447059 0.12549 0.105882
0.505882 0.145098 0.113725
0.556863 0.156863 0.105882
0.607843 0.168627 0.0980392
0.670588 0.192157 0.101961
0.737255 0.223529 0.109804
0.8 0.247059 0.109804
0.0941176 0.113725 0.105882
0.113725 0.113725 0.105882
0.129412 0.113725 0.101961
0.156863 0.113725 0.105882
0.2 0.12549 0.109804
0.235294 0.12549 0.109804
0.266667 0.121569 0.105882
0.309804 0.129412 0.105882
0.364706 0.141176 0.113725
0.407843 0.145098 0.105882
0.462745 0.156863 0.113725
0.509804 0.168627 0.113725
0.564706 0.184314 0.113725
0.623529 0.203922 0.117647
0.678431 0.215686 0.105882
0.737255 0.235294 0.105882
0.803922 0.266667 0.117647
0.12549 0.156863 0.113725
0.129412 0.152941 0.113725
0.152941 0.160784 0.117647
0.176471 0.160784 0.117647
0.207843 0.160784 0.113725
0.25098 0.164706 0.113725
0.294118 0.172549 0.121569
0.341176 0.180392 0.12549
0.376471 0.180392 0.121569
0.419608 0.184314 0.113725
0.47451 0.196078 0.117647
0.513725 0.2 0.113725
0.576471 0.219608 0.117647
0.627451 0.231373 0.113725
0.694118 0.258824 0.121569
0.74902 0.27451 0.121569
0.815686 0.301961 0.12549
0.14902 0.2 0.129412
0.156863 0.203922 0.133333
0.176471 0.203922 0.133333
0.196078 0.207843 0.133333
0.231373 0.215686 0.133333
0.262745 0.211765 0.121569
0.313725 0.227451 0.133333
0.356863 0.227451 0.12549
0.392157 0.223529 0.121569
0.447059 0.239216 0.12549
0.486275 0.243137 0.121569
0.541176 0.254902 0.129412
0.592157 0.266667 0.12549
0.65098 0.286275 0.133333
0.705882 0.301961 0.133333
0.764706 0.321569 0.133333
0.827451 0.345098 0.141176
0.180392 0.25098 0.145098
0.2 0.266667 0.160784
0.207843 0.266667 0.156863
0.231373 0.270588 0.160784
0.254902 0.27451 0.156863
0.290196 0.278431 0.14902
0.333333 0.282353 0.145098
0.376471 0.290196 0.141176
0.423529 0.294118 0.141176
0.466667 0.298039 0.137255
0.513725 0.305882 0.137255
0.564706 0.317647 0.145098
0.611765 0.321569 0.137255
0.654902 0.329412 0.129412
0.721569 0.34902 0.141176
0.772549 0.364706 0.141176
0.839216 0.388235 0.152941
0.219608 0.317647 0.172549
0.231373 0.329412 0.180392
0.243137 0.329412 0.180392
0.258824 0.329412 0.180392
0.282353 0.341176 0.180392
0.309804 0.337255 0.172549
0.352941 0.34902 0.172549
0.4 0.360784 0.168627
0.439216 0.360784 0.160784
0.482353 0.360784 0.152941
0.537255 0.372549 0.160784
0.588235 0.380392 0.156863
0.635294 0.388235 0.156863
0.678431 0.392157 0.14902
0.733333 0.407843 0.152941
0.788235 0.419608 0.160784
0.854902 0.45098 0.184314
0.247059 0.380392 0.192157
0.270588 0.403922 0.207843
0.278431 0.403922 0.211765
0.298039 0.407843 0.211765
0.313725 0.403922 0.207843
0.341176 0.411765 0.207843
0.368627 0.407843 0.196078
0.415686 0.419608 0.196078
0.458824 0.423529 0.188235
0.509804 0.435294 0.184314
0.552941 0.439216 0.184314
0.6 0.447059 0.176471
0.654902 0.454902 0.176471
0.713725 0.470588 0.184314
0.764706 0.478431 0.188235
0.815686 0.490196 0.2
0.87451 0.505882 0.207843
0.290196 0.454902 0.231373
0.305882 0.470588 0.239216
0.309804 0.466667 0.235294
0.317647 0.466667 0.231373
0.345098 0.470588 0.235294
0.372549 0.482353 0.243137
0.403922 0.486275 0.239216
0.443137 0.490196 0.235294
0.466667 0.486275 0.223529
0.521569 0.494118 0.215686
0.572549 0.509804 0.211765
0.627451 0.521569 0.219608
0.67451 0.521569 0.211765
0.729412 0.533333 0.215686
0.776471 0.537255 0.215686
0.835294 0.552941 0.227451
0.882353 0.560784 0.235294
0.333333 0.529412 0.270588
0.341176 0.537255 0.27451
0.34902 0.537255 0.27451
0.364706 0.541176 0.27451
0.376471 0.541176 0.270588
0.403922 0.545098 0.27451
0.431373 0.54902 0.278431
0.466667 0.556863 0.27451
0.498039 0.560784 0.270588
0.545098 0.572549 0.266667
0.596078 0.576471 0.258824
0.643137 0.580392 0.247059
0.694118 0.592157 0.254902
0.741176 0.596078 0.25098
0.796078 0.607843 0.262745
0.847059 0.615686 0.270588
0.901961 0.631373 0.286275
0.372549 0.596078 0.305882
0.384314 0.607843 0.313725
0.392157 0.607843 0.313725
0.403922 0.611765 0.317647
0.419608 0.611765 0.317647
0.443137 0.615686 0.317647
0.462745 0.615686 0.317647
0.498039 0.623529 0.321569
0.533333 0.631373 0.317647
0.572549 0.643137 0.321569
0.603922 0.635294 0.301961
0.658824 0.647059 0.305882
0.709804 0.658824 0.294118
0.760784 0.662745 0.298039
0.807843 0.670588 0.309804
0.854902 0.67451 0.313725
0.909804 0.690196 0.333333
0.419608 0.666667 0.356863
0.435294 0.682353 0.368627
0.443137 0.682353 0.368627
0.443137 0.67451 0.356863
0.462745 0.682353 0.364706
0.486275 0.690196 0.372549
0.498039 0.682353 0.364706
0.537255 0.701961 0.380392
0.564706 0.698039 0.372549
0.6 0.698039 0.368627
0.635294 0.709804 0.368627
0.670588 0.705882 0.356863
0.717647 0.713725 0.352941
0.776471 0.72549 0.352941
0.827451 0.737255 0.360784
0.866667 0.733333 0.364706
0.917647 0.74902 0.388235
0.462745 0.729412 0.403922
0.482353 0.74902 0.419608
0.482353 0.737255 0.407843
0.494118 0.741176 0.415686
0.501961 0.741176 0.411765
0.529412 0.752941 0.427451
0.54902 0.752941 0.427451
0.572549 0.756863 0.431373
0.6 0.760784 0.431373
0.627451 0.760784 0.423529
0.666667 0.768627 0.427451
0.698039 0.772549 0.423529
0.737255 0.772549 0.415686
0.780392 0.776471 0.411765
0.835294 0.788235 0.411765
0.886275 0.8 0.431373
0.921569 0.8 0.443137
0.529412 0.8 0.47451
0.529412 0.8 0.47451
0.537255 0.803922 0.478431
0.552941 0.807843 0.482353
0.564706 0.811765 0.486275
0.584314 0.815686 0.490196
0.596078 0.815686 0.490196
0.615686 0.819608 0.498039
0.647059 0.823529 0.505882
0.666667 0.819608 0.501961
0.698039 0.831373 0.501961
0.733333 0.831373 0.501961
0.756863 0.831373 0.490196
0.8 0.831373 0.490196
0.835294 0.835294 0.486275
0.890196 0.847059 0.494118
0.937255 0.858824 0.509804
0.596078 0.862745 0.54902
0.603922 0.870588 0.556863
0.603922 0.862745 0.552941
0.615686 0.870588 0.556863
0.619608 0.866667 0.556863
0.635294 0.866667 0.560784
0.65098 0.87451 0.564706
0.670588 0.87451 0.568627
0.694118 0.878431 0.572549
0.713725 0.878431 0.580392
0.729412 0.87451 0.572549
0.764706 0.886275 0.580392
0.8 0.890196 0.576471
0.819608 0.886275 0.572549
0.854902 0.890196 0.572549
0.898039 0.894118 0.572549
0.933333 0.901961 0.584314
0.662745 0.913725 0.623529
0.666667 0.917647 0.627451
0.666667 0.913725 0.623529
0.67451 0.917647 0.631373
0.682353 0.917647 0.627451
0.701961 0.929412 0.639216
0.709804 0.917647 0.635294
0.717647 0.913725 0.635294
0.741176 0.92549 0.65098
0.764706 0.92549 0.65098
0.784314 0.929412 0.658824
0.803922 0.92549 0.658824
0.831373 0.937255 0.666667
0.85098 0.933333 0.662745
0.886275 0.937255 0.666667
0.917647 0.945098 0.670588
0.937255 0.945098 0.670588
0.74902 0.968627 0.717647
0.745098 0.964706 0.709804
0.745098 0.964706 0.709804
0.74902 0.964706 0.709804
0.752941 0.964706 0.709804
0.764706 0.964706 0.717647
0.772549 0.964706 0.717647
0.788235 0.968627 0.72549
0.807843 0.972549 0.733333
0.823529 0.972549 0.741176
0.843137 0.976471 0.74902
0.854902 0.968627 0.745098
0.870588 0.972549 0.74902
0.901961 0.980392 0.764706
0.92549 0.984314 0.772549
0.937255 0.980392 0.768627
0.960784 0.980392 0.776471
0.0666667 0.0509804 0.117647
0.0862745 0.0470588 0.113725
0.109804 0.0509804 0.117647
0.141176 0.0470588 0.121569
0.180392 0.054902 0.12549
0.215686 0.054902 0.121569
0.262745 0.0666667 0.129412
0.294118 0.0588235 0.121569
0.341176 0.0901961 0.133333
0.388235 0.105882 0.141176
0.439216 0.121569 0.145098
0.490196 0.133333 0.145098
0.54902 0.14902 0.14902
0.603922 0.164706 0.145098
0.658824 0.176471 0.141176
0.733333 0.211765 0.152941
0.803922 0.243137 0.156863
0.0862745 0.0862745 0.12549
0.0980392 0.0862745 0.12549
0.12549 0.0862745 0.12549
0.152941 0.0823529 0.12549
0.192157 0.0901961 0.133333
0.223529 0.0901961 0.129412
0.262745 0.0901961 0.129412
0.313725 0.105882 0.137255
0.356863 0.121569 0.145098
