resources/LUTs/LUT Colour Grades (cube)/Faded_Film_Cool.cube
#Generated by Picture Instruments - Look Creator
TITLE "Kodak Portra 100 Cool"
LUT_3D_SIZE 9
0 0 0
0.0745098 0.0196078 0.00784314
0.137255 0.0627451 0.0235294
0.211765 0.0980392 0.0431373
0.294118 0.113725 0.0509804
0.396078 0.137255 0.0666667
0.509804 0.160784 0.0823529
0.639216 0.188235 0.0901961
0.768627 0.227451 0.0980392
0.0627451 0.117647 0.0666667
0.105882 0.121569 0.0627451
0.156863 0.121569 0.0509804
0.223529 0.137255 0.0588235
0.309804 0.14902 0.0627451
0.415686 0.172549 0.0784314
0.533333 0.2 0.0980392
0.65098 0.223529 0.101961
0.780392 0.262745 0.117647
0.0980392 0.2 0.109804
0.129412 0.211765 0.117647
0.180392 0.219608 0.109804
0.254902 0.227451 0.101961
0.356863 0.243137 0.105882
0.447059 0.25098 0.109804
0.552941 0.262745 0.113725
0.682353 0.298039 0.133333
0.8 0.333333 0.145098
0.160784 0.321569 0.180392
0.180392 0.32549 0.176471
0.219608 0.329412 0.172549
0.290196 0.341176 0.164706
0.388235 0.356863 0.156863
0.490196 0.368627 0.156863
0.603922 0.384314 0.160784
0.713725 0.4 0.168627
0.827451 0.431373 0.180392
0.235294 0.458824 0.25098
0.243137 0.454902 0.243137
0.290196 0.470588 0.254902
0.341176 0.470588 0.243137
0.427451 0.482353 0.239216
0.533333 0.501961 0.219608
0.643137 0.517647 0.223529
0.756863 0.541176 0.231373
0.866667 0.560784 0.247059
0.321569 0.607843 0.329412
0.321569 0.6 0.321569
0.364706 0.611765 0.333333
0.419608 0.623529 0.337255
0.494118 0.639216 0.337255
0.576471 0.647059 0.32549
0.67451 0.654902 0.301961
0.784314 0.67451 0.317647
0.894118 0.698039 0.345098
0.427451 0.760784 0.431373
0.435294 0.756863 0.427451
0.458824 0.752941 0.427451
0.501961 0.764706 0.435294
0.560784 0.772549 0.443137
0.623529 0.772549 0.431373
0.709804 0.784314 0.431373
0.807843 0.792157 0.415686
0.909804 0.815686 0.454902
0.568627 0.890196 0.576471
0.560784 0.878431 0.560784
0.584314 0.878431 0.568627
0.611765 0.882353 0.568627
0.654902 0.882353 0.580392
0.705882 0.890196 0.584314
0.760784 0.890196 0.580392
0.843137 0.901961 0.584314
0.921569 0.909804 0.588235
0.72549 0.972549 0.733333
0.717647 0.968627 0.72549
0.729412 0.968627 0.729412
0.74902 0.968627 0.733333
0.776471 0.968627 0.741176
0.823529 0.980392 0.764706
0.858824 0.976471 0.764706
0.909804 0.984314 0.780392
0.945098 0.984314 0.784314
0.0235294 0.0392157 0.0980392
0.0862745 0.0470588 0.109804
0.141176 0.0627451 0.105882
0.215686 0.105882 0.121569
0.301961 0.12549 0.129412
0.392157 0.141176 0.129412
0.505882 0.160784 0.137255
0.639216 0.192157 0.14902
0.780392 0.239216 0.164706
0.0666667 0.121569 0.121569
0.101961 0.12549 0.12549
0.160784 0.141176 0.129412
0.223529 0.141176 0.129412
0.321569 0.164706 0.137255
0.419608 0.180392 0.145098
0.529412 0.203922 0.152941
0.65098 0.227451 0.152941
0.784314 0.266667 0.172549
0.109804 0.207843 0.156863
0.133333 0.211765 0.160784
0.188235 0.223529 0.160784
0.270588 0.239216 0.164706
0.34902 0.235294 0.152941
0.45098 0.254902 0.164706
0.556863 0.270588 0.168627
0.682353 0.305882 0.180392
0.807843 0.341176 0.196078
0.164706 0.321569 0.207843
0.188235 0.333333 0.215686
0.235294 0.341176 0.219608
0.305882 0.352941 0.211765
0.396078 0.360784 0.203922
0.501961 0.372549 0.203922
0.607843 0.388235 0.203922
0.709804 0.403922 0.207843
0.839216 0.443137 0.235294
0.231373 0.45098 0.270588
0.254902 0.466667 0.27451
0.290196 0.466667 0.278431
0.352941 0.482353 0.282353
0.427451 0.482353 0.266667
0.537255 0.505882 0.258824
0.643137 0.521569 0.258824
0.756863 0.541176 0.262745
0.866667 0.560784 0.282353
0.317647 0.596078 0.345098
0.337255 0.607843 0.352941
0.368627 0.611765 0.352941
0.415686 0.619608 0.352941
0.490196 0.631373 0.356863
0.572549 0.635294 0.341176
0.682353 0.662745 0.337255
0.788235 0.678431 0.34902
0.894118 0.698039 0.372549
0.415686 0.737255 0.431373
0.431373 0.74902 0.443137
0.462745 0.74902 0.443137
0.509804 0.764706 0.454902
0.564706 0.772549 0.462745
0.635294 0.784314 0.458824
0.713725 0.784314 0.447059
0.815686 0.8 0.443137
0.909804 0.815686 0.47451
0.556863 0.878431 0.576471
0.568627 0.878431 0.576471
0.584314 0.878431 0.576471
0.619608 0.886275 0.588235
0.662745 0.890196 0.6
0.705882 0.886275 0.6
0.780392 0.898039 0.603922
0.843137 0.898039 0.596078
0.921569 0.909804 0.607843
0.72549 0.972549 0.737255
0.721569 0.972549 0.733333
0.729412 0.968627 0.733333
0.752941 0.972549 0.741176
0.788235 0.976471 0.756863
0.823529 0.980392 0.768627
0.858824 0.976471 0.768627
0.917647 0.984314 0.792157
0.956863 0.984314 0.796078
0.0431373 0.0705882 0.180392
0.0901961 0.0784314 0.184314
0.145098 0.0862745 0.188235
0.219608 0.0980392 0.188235
0.305882 0.117647 0.196078
0.4 0.145098 0.207843
0.513725 0.180392 0.231373
0.647059 0.211765 0.239216
0.764706 0.235294 0.243137
0.0862745 0.145098 0.2
0.109804 0.137255 0.2
0.160784 0.145098 0.203922
0.239216 0.14902 0.211765
0.317647 0.156863 0.2
0.419608 0.196078 0.231373
0.52549 0.207843 0.235294
0.65098 0.235294 0.243137
0.776471 0.266667 0.25098
0.117647 0.219608 0.223529
0.152941 0.231373 0.235294
0.188235 0.227451 0.235294
0.27451 0.239216 0.243137
0.352941 0.247059 0.243137
0.447059 0.258824 0.243137
0.560784 0.286275 0.258824
0.682353 0.313725 0.266667
0.796078 0.337255 0.270588
0.168627 0.321569 0.262745
0.2 0.341176 0.27451
0.247059 0.34902 0.290196
0.313725 0.356863 0.290196
0.407843 0.364706 0.278431
0.501961 0.372549 0.278431
0.596078 0.380392 0.278431
0.709804 0.403922 0.286275
0.831373 0.443137 0.305882
0.239216 0.454902 0.321569
0.270588 0.47451 0.341176
0.301961 0.470588 0.333333
0.356863 0.478431 0.337255
0.45098 0.498039 0.341176
0.545098 0.513725 0.333333
0.65098 0.521569 0.329412
0.760784 0.545098 0.337255
0.866667 0.568627 0.356863
0.333333 0.6 0.396078
0.34902 0.611765 0.403922
0.380392 0.611765 0.403922
0.427451 0.623529 0.407843
0.501961 0.639216 0.415686
0.580392 0.643137 0.4
0.682353 0.666667 0.392157
0.788235 0.678431 0.403922
0.898039 0.701961 0.431373
0.435294 0.745098 0.486275
0.454902 0.760784 0.494118
0.47451 0.760784 0.494118
0.517647 0.760784 0.494118
0.576471 0.776471 0.509804
0.635294 0.780392 0.501961
0.72549 0.796078 0.501961
0.815686 0.803922 0.494118
0.913725 0.819608 0.52549
0.560784 0.866667 0.596078
0.572549 0.870588 0.6
0.6 0.886275 0.615686
0.627451 0.886275 0.619608
0.670588 0.890196 0.627451
0.717647 0.894118 0.631373
0.776471 0.898039 0.631373
0.843137 0.901961 0.631373
0.941176 0.92549 0.647059
0.72549 0.972549 0.74902
0.729412 0.972549 0.74902
0.745098 0.976471 0.756863
0.764706 0.972549 0.760784
0.784314 0.968627 0.760784
0.827451 0.976471 0.776471
0.870588 0.980392 0.792157
0.909804 0.984314 0.796078
0.952941 0.984314 0.803922
0.0235294 0.0980392 0.27451
0.0941176 0.109804 0.282353
0.160784 0.117647 0.286275
0.231373 0.117647 0.290196
0.321569 0.129412 0.294118
0.415686 0.137255 0.290196
0.509804 0.14902 0.294118
0.623529 0.172549 0.305882
0.752941 0.243137 0.341176
0.0705882 0.156863 0.286275
0.101961 0.152941 0.286275
0.172549 0.168627 0.301961
0.247059 0.168627 0.305882
0.341176 0.176471 0.309804
0.435294 0.188235 0.309804
0.545098 0.203922 0.321569
0.65098 0.231373 0.333333
0.784314 0.282353 0.360784
0.137255 0.243137 0.309804
0.160784 0.25098 0.321569
0.2 0.243137 0.32549
0.278431 0.247059 0.337255
0.364706 0.254902 0.341176
0.458824 0.266667 0.341176
0.556863 0.298039 0.356863
0.67451 0.317647 0.360784
0.8 0.345098 0.376471
0.180392 0.337255 0.345098
0.207843 0.345098 0.360784
0.254902 0.352941 0.368627
0.32549 0.360784 0.380392
0.407843 0.368627 0.384314
0.498039 0.380392 0.380392
0.596078 0.392157 0.380392
0.717647 0.419608 0.396078
0.823529 0.439216 0.396078
0.262745 0.462745 0.403922
0.278431 0.466667 0.403922
0.321569 0.482353 0.419608
0.384314 0.494118 0.435294
0.462745 0.505882 0.435294
0.556863 0.513725 0.427451
0.654902 0.529412 0.423529
0.752941 0.537255 0.427451
0.866667 0.568627 0.447059
0.337255 0.6 0.454902
0.356863 0.611765 0.462745
0.396078 0.627451 0.478431
0.447059 0.627451 0.482353
0.509804 0.639216 0.490196
0.592157 0.65098 0.482353
0.694118 0.670588 0.482353
0.792157 0.682353 0.486275
0.901961 0.709804 0.513725
0.443137 0.752941 0.533333
0.45098 0.752941 0.533333
0.490196 0.760784 0.54902
0.529412 0.760784 0.560784
0.580392 0.768627 0.564706
0.643137 0.780392 0.564706
0.72549 0.796078 0.568627
0.815686 0.8 0.552941
0.913725 0.819608 0.584314
0.580392 0.87451 0.643137
0.592157 0.882353 0.65098
0.607843 0.882353 0.654902
0.631373 0.878431 0.654902
0.670588 0.878431 0.658824
0.717647 0.886275 0.666667
0.784314 0.898039 0.670588
0.847059 0.901961 0.670588
0.933333 0.917647 0.678431
0.733333 0.972549 0.772549
0.741176 0.976471 0.780392
0.74902 0.976471 0.780392
0.764706 0.972549 0.776471
0.792157 0.972549 0.784314
0.831373 0.980392 0.803922
0.870588 0.980392 0.807843
0.913725 0.984314 0.815686
0.956863 0.984314 0.823529
0.0235294 0.129412 0.372549
0.0784314 0.137255 0.376471
0.156863 0.141176 0.380392
0.25098 0.156863 0.396078
0.329412 0.156863 0.4
0.427451 0.160784 0.4
0.529412 0.168627 0.403922
0.643137 0.184314 0.411765
0.764706 0.207843 0.423529
0.0588235 0.172549 0.380392
0.109804 0.180392 0.388235
0.176471 0.188235 0.396078
0.258824 0.192157 0.407843
0.352941 0.2 0.419608
0.443137 0.2 0.415686
0.552941 0.207843 0.419608
0.666667 0.223529 0.427451
0.792157 0.25098 0.447059
0.145098 0.254902 0.4
0.160784 0.258824 0.415686
0.207843 0.258824 0.419608
0.290196 0.270588 0.431373
0.380392 0.278431 0.443137
0.470588 0.282353 0.447059
0.576471 0.290196 0.45098
0.686275 0.305882 0.458824
0.803922 0.32549 0.462745
0.203922 0.352941 0.431373
0.219608 0.356863 0.435294
0.258824 0.360784 0.447059
0.329412 0.368627 0.466667
0.419608 0.380392 0.478431
0.505882 0.384314 0.478431
0.607843 0.396078 0.486275
0.701961 0.407843 0.486275
0.811765 0.439216 0.501961
0.270588 0.466667 0.482353
0.286275 0.478431 0.494118
0.329412 0.482353 0.498039
0.388235 0.494118 0.513725
0.478431 0.513725 0.533333
0.564706 0.521569 0.537255
0.647059 0.529412 0.529412
0.745098 0.541176 0.533333
0.847059 0.556863 0.529412
0.360784 0.607843 0.537255
0.368627 0.607843 0.537255
0.411765 0.623529 0.552941
0.458824 0.631373 0.556863
0.529412 0.647059 0.576471
0.607843 0.658824 0.580392
0.698039 0.670588 0.576471
0.8 0.686275 0.584314
0.898039 0.705882 0.6
0.447059 0.745098 0.592157
0.462745 0.752941 0.6
0.490196 0.760784 0.607843
0.533333 0.764706 0.615686
0.6 0.780392 0.639216
0.666667 0.792157 0.647059
0.729412 0.792157 0.635294
0.823529 0.807843 0.635294
0.917647 0.819608 0.658824
0.556863 0.87451 0.666667
0.572549 0.878431 0.67451
0.596078 0.878431 0.682353
0.647059 0.882353 0.709804
0.690196 0.894118 0.713725
0.741176 0.894118 0.721569
0.792157 0.898039 0.729412
0.854902 0.901961 0.721569
0.929412 0.913725 0.72549
0.72549 0.980392 0.792157
0.721569 0.968627 0.784314
0.74902 0.972549 0.8
0.776471 0.972549 0.811765
0.807843 0.980392 0.823529
0.839216 0.976471 0.823529
0.882353 0.980392 0.843137
0.921569 0.984314 0.839216
0.960784 0.988235 0.847059
0.0235294 0.164706 0.470588
0.0745098 0.168627 0.478431
0.168627 0.176471 0.490196
0.254902 0.184314 0.494118
0.34902 0.188235 0.501961
0.443137 0.196078 0.517647
0.541176 0.2 0.521569
0.654902 0.203922 0.52549
0.776471 0.235294 0.545098
0.0666667 0.2 0.478431
0.113725 0.203922 0.494118
0.180392 0.207843 0.494118
0.270588 0.223529 0.513725
0.372549 0.235294 0.533333
0.462745 0.235294 0.537255
0.568627 0.239216 0.545098
0.682353 0.247059 0.54902
0.803922 0.27451 0.568627
0.129412 0.266667 0.501961
0.160784 0.27451 0.513725
0.215686 0.278431 0.517647
0.290196 0.282353 0.52549
0.392157 0.301961 0.552941
0.490196 0.309804 0.564706
0.580392 0.305882 0.556863
0.698039 0.321569 0.568627
0.815686 0.345098 0.580392
0.223529 0.372549 0.521569
0.247059 0.380392 0.537255
0.270588 0.372549 0.541176
0.329412 0.376471 0.552941
0.427451 0.396078 0.580392
0.52549 0.411765 0.6
0.615686 0.411765 0.592157
0.713725 0.415686 0.584314
0.823529 0.443137 0.603922
0.286275 0.486275 0.568627
0.298039 0.482353 0.568627
0.341176 0.498039 0.580392
0.392157 0.501961 0.588235
0.470588 0.513725 0.619608
0.564706 0.52549 0.623529
0.65098 0.529412 0.623529
0.745098 0.537255 0.623529
0.835294 0.545098 0.623529
0.376471 0.627451 0.631373
0.388235 0.627451 0.631373
0.407843 0.623529 0.631373
0.470588 0.643137 0.647059
0.533333 0.65098 0.658824
0.631373 0.67451 0.682353
0.709804 0.67451 0.678431
0.792157 0.682353 0.678431
0.882353 0.690196 0.67451
0.478431 0.760784 0.682353
0.486275 0.756863 0.682353
0.505882 0.756863 0.678431
0.545098 0.760784 0.682353
0.603922 0.776471 0.698039
0.678431 0.792157 0.721569
0.74902 0.8 0.721569
0.835294 0.811765 0.72549
0.92549 0.823529 0.737255
0.592157 0.890196 0.745098
0.588235 0.878431 0.733333
0.611765 0.886275 0.745098
0.639216 0.886275 0.74902
0.690196 0.890196 0.760784
0.756863 0.901961 0.780392
0.811765 0.909804 0.796078
0.862745 0.905882 0.780392
0.945098 0.921569 0.796078
0.713725 0.976471 0.819608
0.72549 0.984314 0.827451
0.733333 0.976471 0.823529
0.756863 0.976471 0.823529
0.811765 0.980392 0.854902
0.847059 0.980392 0.862745
0.886275 0.980392 0.870588
0.929412 0.984314 0.882353
0.968627 0.988235 0.882353
0.054902 0.203922 0.592157
0.105882 0.207843 0.603922
0.184314 0.207843 0.603922
0.278431 0.219608 0.615686
0.368627 0.223529 0.623529
0.47451 0.235294 0.635294
0.576471 0.243137 0.654902
0.662745 0.247059 0.643137
0.788235 0.27451 0.666667
0.0745098 0.227451 0.6
0.137255 0.243137 0.623529
0.196078 0.235294 0.619608
0.290196 0.25098 0.635294
0.388235 0.258824 0.647059
0.498039 0.27451 0.666667
0.592157 0.27451 0.67451
0.690196 0.290196 0.670588
0.811765 0.313725 0.686275
0.12549 0.282353 0.607843
0.180392 0.301961 0.635294
0.235294 0.305882 0.639216
0.301961 0.301961 0.639216
0.411765 0.32549 0.662745
0.517647 0.341176 0.678431
0.607843 0.337255 0.682353
0.705882 0.356863 0.686275
0.815686 0.368627 0.690196
0.227451 0.388235 0.635294
0.243137 0.392157 0.654902
0.270588 0.388235 0.658824
0.34902 0.4 0.670588
0.439216 0.411765 0.682353
0.545098 0.431373 0.694118
0.627451 0.427451 0.698039
0.72549 0.443137 0.701961
0.831373 0.462745 0.705882
0.305882 0.505882 0.658824
0.317647 0.505882 0.662745
0.356863 0.513725 0.67451
0.407843 0.517647 0.694118
0.470588 0.517647 0.705882
0.568627 0.537255 0.721569
0.666667 0.552941 0.733333
0.74902 0.552941 0.721569
0.85098 0.568627 0.72549
0.376471 0.623529 0.694118
0.388235 0.627451 0.701961
0.411765 0.627451 0.705882
0.470588 0.643137 0.717647
0.517647 0.639216 0.717647
0.611765 0.658824 0.752941
0.709804 0.678431 0.768627
0.796078 0.690196 0.764706
0.87451 0.690196 0.760784
0.462745 0.745098 0.737255
0.482353 0.756863 0.74902
0.509804 0.764706 0.756863
0.552941 0.772549 0.768627
0.603922 0.776471 0.772549
0.678431 0.788235 0.792157
0.776471 0.815686 0.819608
0.827451 0.803922 0.803922
0.905882 0.807843 0.803922
0.596078 0.87451 0.796078
0.611765 0.882353 0.807843
0.623529 0.878431 0.8
0.654902 0.886275 0.807843
0.690196 0.882353 0.807843
0.760784 0.905882 0.839216
0.823529 0.909804 0.847059
0.878431 0.909804 0.85098
0.952941 0.92549 0.854902
0.729412 0.972549 0.862745
0.737255 0.972549 0.866667
0.74902 0.976471 0.870588
0.764706 0.976471 0.866667
0.796078 0.980392 0.870588
0.835294 0.980392 0.882353
0.890196 0.980392 0.898039
0.933333 0.984314 0.909804
0.972549 0.988235 0.917647
0.145098 0.254902 0.717647
0.192157 0.266667 0.741176
0.254902 0.27451 0.745098
0.333333 0.278431 0.74902
0.411765 0.282353 0.74902
0.52549 0.309804 0.772549
0.623529 0.317647 0.780392
0.72549 0.32549 0.796078
0.803922 0.337255 0.784314
0.172549 0.290196 0.745098
0.211765 0.298039 0.768627
0.262745 0.301961 0.768627
0.345098 0.305882 0.776471
0.439216 0.321569 0.788235
0.545098 0.345098 0.803922
0.65098 0.360784 0.811765
0.745098 0.356863 0.815686
0.823529 0.372549 0.803922
0.203922 0.341176 0.756863
0.235294 0.34902 0.772549
0.286275 0.352941 0.776471
0.356863 0.360784 0.784314
0.443137 0.368627 0.788235
0.552941 0.392157 0.803922
0.654902 0.411765 0.815686
0.74902 0.407843 0.815686
0.831373 0.431373 0.815686
0.231373 0.407843 0.760784
0.258824 0.419608 0.776471
0.321569 0.435294 0.792157
0.384314 0.439216 0.796078
0.470588 0.45098 0.8
0.572549 0.470588 0.811765
0.678431 0.501961 0.827451
0.756863 0.490196 0.823529
0.839216 0.505882 0.819608
0.364706 0.556863 0.788235
0.380392 0.560784 0.796078
0.384314 0.545098 0.796078
0.407843 0.52549 0.803922
0.490196 0.541176 0.811765
0.588235 0.560784 0.823529
0.694118 0.592157 0.839216
0.784314 0.596078 0.839216
0.858824 0.603922 0.835294
0.4 0.65098 0.788235
0.411765 0.658824 0.8
0.435294 0.654902 0.8
0.486275 0.662745 0.811765
0.545098 0.658824 0.819608
0.607843 0.658824 0.831373
0.713725 0.686275 0.847059
0.807843 0.705882 0.858824
0.890196 0.717647 0.854902
0.490196 0.772549 0.827451
0.501961 0.772549 0.831373
0.517647 0.772549 0.827451
0.552941 0.776471 0.831373
0.6 0.780392 0.843137
0.658824 0.780392 0.843137
0.752941 0.796078 0.866667
0.843137 0.815686 0.878431
0.909804 0.815686 0.878431
0.596078 0.878431 0.862745
0.607843 0.886275 0.870588
0.627451 0.886275 0.878431
0.654902 0.890196 0.882353
0.698039 0.894118 0.882353
0.74902 0.890196 0.882353
0.819608 0.905882 0.898039
0.886275 0.909804 0.909804
0.945098 0.913725 0.909804
0.745098 0.972549 0.913725
0.74902 0.972549 0.913725
0.764706 0.976471 0.917647
0.780392 0.976471 0.921569
0.807843 0.976471 0.917647
0.843137 0.980392 0.921569
0.890196 0.984314 0.937255
0.941176 0.984314 0.945098
0.980392 0.988235 0.94902
0.321569 0.376471 0.866667
0.34902 0.388235 0.882353
0.384314 0.396078 0.886275
0.439216 0.4 0.886275
0.517647 0.411765 0.890196
0.6 0.427451 0.898039
0.690196 0.458824 0.901961
0.784314 0.482353 0.913725
0.870588 0.486275 0.921569
0.333333 0.407843 0.890196
0.360784 0.415686 0.905882
0.4 0.423529 0.909804
0.462745 0.431373 0.909804
0.537255 0.439216 0.917647
0.611765 0.454902 0.909804
0.713725 0.490196 0.929412
0.796078 0.505882 0.929412
0.882353 0.505882 0.933333
0.364706 0.454902 0.901961
0.384314 0.466667 0.913725
0.415686 0.462745 0.913725
0.462745 0.470588 0.909804
0.537255 0.482353 0.913725
0.623529 0.498039 0.917647
0.721569 0.529412 0.929412
0.8 0.537255 0.921569
0.890196 0.552941 0.937255
0.384314 0.521569 0.909804
0.396078 0.521569 0.909804
0.431373 0.52549 0.913725
0.490196 0.537255 0.921569
0.564706 0.545098 0.921569
0.643137 0.564706 0.921569
0.72549 0.584314 0.92549
0.815686 0.607843 0.933333
0.898039 0.611765 0.941176
0.447059 0.619608 0.913725
0.447059 0.615686 0.917647
0.458824 0.603922 0.921569
0.505882 0.611765 0.92549
0.572549 0.615686 0.92549
0.654902 0.639216 0.933333
0.741176 0.658824 0.933333
0.823529 0.67451 0.937255
0.905882 0.682353 0.94902
0.537255 0.745098 0.929412
0.545098 0.74902 0.929412
0.564706 0.745098 0.929412
0.580392 0.733333 0.92549
0.588235 0.701961 0.933333
0.670588 0.713725 0.937255
0.764706 0.737255 0.945098
0.843137 0.756863 0.941176
0.917647 0.760784 0.94902
0.596078 0.835294 0.937255
0.6 0.839216 0.941176
0.607843 0.831373 0.937255
0.627451 0.827451 0.937255
0.666667 0.827451 0.945098
0.717647 0.819608 0.941176
0.764706 0.803922 0.941176
0.866667 0.831373 0.956863
0.937255 0.843137 0.960784
0.698039 0.92549 0.956863
0.698039 0.921569 0.956863
0.709804 0.92549 0.960784
0.729412 0.929412 0.964706
0.741176 0.913725 0.952941
0.768627 0.909804 0.952941
0.815686 0.905882 0.956863
0.878431 0.901961 0.960784
0.956863 0.917647 0.968627
0.803922 0.988235 0.980392
0.803922 0.988235 0.980392
0.807843 0.988235 0.976471
0.823529 0.988235 0.980392
0.843137 0.988235 0.980392
0.866667 0.988235 0.980392
0.898039 0.988235 0.980392
0.933333 0.988235 0.984314
0.984314 0.988235 0.984314
