resources/LUTs/LUT Colour Grades (cube)/Faded_Film_Warm.cube
#Generated by Picture Instruments - Look Creator
TITLE "Kodak Portra 100 Warm"
LUT_3D_SIZE 9
0 0 0
0.0862745 0.0117647 0.00392157
0.160784 0.0431373 0.0156863
0.247059 0.0627451 0.0235294
0.333333 0.0745098 0.0235294
0.431373 0.0980392 0.0313725
0.545098 0.133333 0.0352941
0.666667 0.172549 0.0196078
0.788235 0.223529 0.0196078
0.0823529 0.109804 0.054902
0.121569 0.113725 0.0509804
0.184314 0.113725 0.0352941
0.262745 0.117647 0.0392157
0.34902 0.12549 0.0352941
0.454902 0.145098 0.0392157
0.564706 0.180392 0.0431373
0.678431 0.215686 0.027451
0.803922 0.262745 0.0313725
0.133333 0.192157 0.0901961
0.164706 0.203922 0.0980392
0.223529 0.211765 0.0862745
0.298039 0.211765 0.0666667
0.4 0.231373 0.0705882
0.486275 0.239216 0.0588235
0.580392 0.258824 0.0509804
0.705882 0.298039 0.0627451
0.819608 0.337255 0.0627451
0.211765 0.317647 0.145098
0.227451 0.321569 0.141176
0.266667 0.329412 0.137255
0.337255 0.337255 0.12549
0.431373 0.352941 0.113725
0.52549 0.368627 0.105882
0.631373 0.384314 0.0980392
0.737255 0.407843 0.101961
0.847059 0.435294 0.117647
0.290196 0.462745 0.207843
0.298039 0.458824 0.2
0.341176 0.47451 0.207843
0.392157 0.47451 0.2
0.47451 0.490196 0.192157
0.568627 0.501961 0.172549
0.666667 0.521569 0.172549
0.776471 0.537255 0.176471
0.882353 0.560784 0.196078
0.376471 0.607843 0.290196
0.376471 0.6 0.282353
0.415686 0.611765 0.290196
0.466667 0.623529 0.298039
0.537255 0.635294 0.298039
0.611765 0.639216 0.278431
0.701961 0.65098 0.262745
0.803922 0.666667 0.27451
0.905882 0.686275 0.305882
0.478431 0.74902 0.4
0.486275 0.745098 0.4
0.501961 0.741176 0.396078
0.541176 0.752941 0.403922
0.6 0.760784 0.411765
0.658824 0.760784 0.4
0.733333 0.772549 0.396078
0.827451 0.780392 0.384314
0.921569 0.803922 0.423529
0.607843 0.878431 0.552941
0.6 0.862745 0.537255
0.619608 0.870588 0.541176
0.643137 0.870588 0.545098
0.682353 0.870588 0.556863
0.733333 0.878431 0.564706
0.788235 0.878431 0.552941
0.858824 0.890196 0.556863
0.933333 0.901961 0.564706
0.74902 0.968627 0.713725
0.741176 0.964706 0.701961
0.752941 0.964706 0.705882
0.768627 0.964706 0.709804
0.796078 0.964706 0.713725
0.839216 0.972549 0.741176
0.87451 0.972549 0.745098
0.921569 0.980392 0.760784
0.952941 0.984314 0.764706
0.0470588 0.0352941 0.0862745
0.105882 0.0352941 0.0901961
0.168627 0.0352941 0.0862745
0.25098 0.0745098 0.101961
0.341176 0.0901961 0.101961
0.431373 0.101961 0.101961
0.541176 0.137255 0.101961
0.666667 0.180392 0.101961
0.8 0.239216 0.105882
0.0941176 0.113725 0.105882
0.129412 0.113725 0.101961
0.2 0.12549 0.109804
0.266667 0.121569 0.105882
0.364706 0.141176 0.113725
0.462745 0.156863 0.113725
0.564706 0.184314 0.113725
0.678431 0.215686 0.105882
0.803922 0.266667 0.117647
0.14902 0.2 0.129412
0.176471 0.203922 0.133333
0.231373 0.215686 0.133333
0.313725 0.227451 0.133333
0.392157 0.223529 0.121569
0.486275 0.243137 0.121569
0.592157 0.266667 0.12549
0.705882 0.301961 0.133333
0.827451 0.345098 0.141176
0.219608 0.317647 0.172549
0.243137 0.329412 0.180392
0.282353 0.341176 0.180392
0.352941 0.34902 0.172549
0.439216 0.360784 0.160784
0.537255 0.372549 0.160784
0.635294 0.388235 0.156863
0.733333 0.407843 0.152941
0.854902 0.45098 0.184314
0.290196 0.454902 0.231373
0.309804 0.466667 0.235294
0.345098 0.470588 0.235294
0.403922 0.486275 0.239216
0.466667 0.486275 0.223529
0.572549 0.509804 0.211765
0.67451 0.521569 0.211765
0.776471 0.537255 0.215686
0.882353 0.560784 0.235294
0.372549 0.596078 0.305882
0.392157 0.607843 0.313725
0.419608 0.611765 0.317647
0.462745 0.615686 0.317647
0.533333 0.631373 0.317647
0.603922 0.635294 0.301961
0.709804 0.658824 0.294118
0.807843 0.670588 0.309804
0.909804 0.690196 0.333333
0.462745 0.729412 0.403922
0.482353 0.737255 0.407843
0.501961 0.741176 0.411765
0.54902 0.752941 0.427451
0.6 0.760784 0.431373
0.666667 0.768627 0.427451
0.737255 0.772549 0.415686
0.835294 0.788235 0.411765
0.921569 0.8 0.443137
0.596078 0.862745 0.54902
0.603922 0.862745 0.552941
0.619608 0.866667 0.556863
0.65098 0.87451 0.564706
0.694118 0.878431 0.572549
0.729412 0.87451 0.572549
0.8 0.890196 0.576471
0.854902 0.890196 0.572549
0.933333 0.901961 0.584314
0.74902 0.968627 0.717647
0.745098 0.964706 0.709804
0.752941 0.964706 0.709804
0.772549 0.964706 0.717647
0.807843 0.972549 0.733333
0.843137 0.976471 0.74902
0.870588 0.972549 0.74902
0.92549 0.984314 0.772549
0.960784 0.980392 0.776471
0.0862745 0.0666667 0.152941
0.12549 0.0666667 0.156863
0.188235 0.0666667 0.160784
0.258824 0.0588235 0.156863
0.34902 0.0784314 0.160784
0.439216 0.109804 0.172549
0.54902 0.160784 0.192157
0.678431 0.2 0.203922
0.788235 0.235294 0.2
0.133333 0.133333 0.172549
0.152941 0.129412 0.176471
0.207843 0.129412 0.176471
0.282353 0.133333 0.176471
0.360784 0.129412 0.168627
0.462745 0.172549 0.192157
0.560784 0.196078 0.196078
0.682353 0.227451 0.2
0.8 0.270588 0.207843
0.168627 0.211765 0.188235
0.203922 0.223529 0.207843
0.243137 0.211765 0.2
0.321569 0.227451 0.211765
0.396078 0.235294 0.207843
0.486275 0.25098 0.207843
0.596078 0.278431 0.219608
0.709804 0.313725 0.223529
0.819608 0.341176 0.227451
0.227451 0.317647 0.227451
0.258824 0.337255 0.243137
0.298039 0.345098 0.25098
0.364706 0.360784 0.25098
0.447059 0.364706 0.239216
0.541176 0.372549 0.239216
0.627451 0.384314 0.239216
0.733333 0.411765 0.247059
0.85098 0.447059 0.262745
0.298039 0.458824 0.282353
0.329412 0.478431 0.301961
0.356863 0.47451 0.301961
0.407843 0.482353 0.301961
0.486275 0.505882 0.301961
0.580392 0.513725 0.290196
0.678431 0.52549 0.286275
0.784314 0.545098 0.298039
0.882353 0.564706 0.317647
0.388235 0.6 0.364706
0.403922 0.611765 0.368627
0.427451 0.611765 0.368627
0.47451 0.619608 0.376471
0.541176 0.639216 0.380392
0.611765 0.639216 0.368627
0.709804 0.658824 0.356863
0.811765 0.670588 0.368627
0.913725 0.694118 0.396078
0.482353 0.737255 0.454902
0.501961 0.752941 0.466667
0.521569 0.745098 0.462745
0.552941 0.752941 0.466667
0.607843 0.764706 0.482353
0.662745 0.764706 0.47451
0.74902 0.784314 0.47451
0.839216 0.792157 0.466667
0.92549 0.807843 0.498039
0.596078 0.854902 0.572549
0.611765 0.858824 0.576471
0.635294 0.87451 0.588235
0.666667 0.87451 0.596078
0.698039 0.878431 0.603922
0.741176 0.882353 0.607843
0.8 0.886275 0.603922
0.862745 0.894118 0.607843
0.94902 0.917647 0.623529
0.74902 0.964706 0.729412
0.752941 0.968627 0.729412
0.768627 0.972549 0.737255
0.784314 0.968627 0.741176
0.807843 0.964706 0.741176
0.843137 0.972549 0.756863
0.882353 0.976471 0.772549
0.917647 0.980392 0.776471
0.956863 0.984314 0.784314
0.113725 0.0901961 0.239216
0.152941 0.0941176 0.247059
0.211765 0.101961 0.254902
0.278431 0.0901961 0.254902
0.368627 0.0941176 0.258824
0.454902 0.101961 0.258824
0.545098 0.121569 0.258824
0.654902 0.156863 0.270588
0.776471 0.243137 0.305882
0.145098 0.145098 0.254902
0.164706 0.141176 0.25098
0.231373 0.14902 0.262745
0.301961 0.14902 0.270588
0.388235 0.152941 0.278431
0.478431 0.160784 0.278431
0.580392 0.188235 0.290196
0.678431 0.223529 0.298039
0.803922 0.282353 0.321569
0.203922 0.235294 0.27451
0.223529 0.239216 0.286275
0.258824 0.235294 0.290196
0.329412 0.239216 0.301961
0.411765 0.243137 0.301961
0.501961 0.258824 0.305882
0.592157 0.290196 0.317647
0.701961 0.317647 0.32549
0.823529 0.352941 0.337255
0.247059 0.333333 0.313725
0.266667 0.341176 0.32549
0.309804 0.352941 0.337255
0.376471 0.360784 0.34902
0.45098 0.368627 0.34902
0.537255 0.384314 0.352941
0.627451 0.392157 0.34902
0.741176 0.427451 0.360784
0.843137 0.443137 0.360784
0.321569 0.466667 0.368627
0.337255 0.47451 0.376471
0.376471 0.486275 0.388235
0.435294 0.498039 0.4
0.498039 0.509804 0.4
0.592157 0.517647 0.392157
0.682353 0.529412 0.392157
0.772549 0.537255 0.396078
0.882353 0.568627 0.415686
0.392157 0.6 0.423529
0.411765 0.615686 0.435294
0.443137 0.623529 0.443137
0.490196 0.627451 0.454902
0.54902 0.635294 0.458824
0.623529 0.65098 0.45098
0.721569 0.658824 0.45098
0.815686 0.67451 0.458824
0.917647 0.698039 0.482353
0.490196 0.745098 0.505882
0.498039 0.745098 0.509804
0.533333 0.74902 0.52549
0.564706 0.752941 0.533333
0.611765 0.760784 0.537255
0.67451 0.768627 0.541176
0.74902 0.784314 0.541176
0.831373 0.788235 0.529412
0.92549 0.807843 0.556863
0.615686 0.858824 0.623529
0.627451 0.866667 0.631373
0.639216 0.866667 0.627451
0.666667 0.866667 0.631373
0.698039 0.870588 0.635294
0.745098 0.878431 0.643137
0.803922 0.890196 0.647059
0.862745 0.894118 0.647059
0.945098 0.909804 0.654902
0.756863 0.968627 0.752941
0.764706 0.972549 0.756863
0.772549 0.968627 0.760784
0.788235 0.968627 0.756863
0.811765 0.968627 0.764706
0.847059 0.976471 0.784314
0.882353 0.976471 0.788235
0.92549 0.980392 0.8
0.960784 0.984314 0.807843
0.137255 0.117647 0.341176
0.164706 0.121569 0.345098
0.219608 0.12549 0.34902
0.305882 0.133333 0.364706
0.376471 0.129412 0.364706
0.466667 0.133333 0.372549
0.564706 0.14902 0.368627
0.670588 0.172549 0.380392
0.788235 0.207843 0.392157
0.160784 0.160784 0.34902
0.192157 0.168627 0.356863
0.243137 0.172549 0.364706
0.317647 0.172549 0.376471
0.4 0.180392 0.388235
0.486275 0.180392 0.384314
0.588235 0.192157 0.388235
0.694118 0.215686 0.396078
0.807843 0.25098 0.415686
0.215686 0.247059 0.368627
0.235294 0.25098 0.388235
0.270588 0.247059 0.388235
0.345098 0.258824 0.407843
0.427451 0.266667 0.415686
0.513725 0.27451 0.415686
0.611765 0.286275 0.419608
0.713725 0.305882 0.427451
0.823529 0.329412 0.435294
0.270588 0.352941 0.4
0.286275 0.356863 0.407843
0.321569 0.360784 0.411765
0.380392 0.368627 0.435294
0.466667 0.384314 0.454902
0.54902 0.388235 0.45098
0.639216 0.4 0.458824
0.729412 0.411765 0.458824
0.835294 0.447059 0.47451
0.329412 0.470588 0.454902
0.34902 0.478431 0.458824
0.384314 0.490196 0.470588
0.439216 0.498039 0.486275
0.513725 0.513725 0.505882
0.6 0.529412 0.513725
0.678431 0.533333 0.501961
0.768627 0.541176 0.501961
0.862745 0.556863 0.505882
0.415686 0.607843 0.509804
0.423529 0.607843 0.513725
0.458824 0.623529 0.529412
0.501961 0.627451 0.533333
0.568627 0.643137 0.556863
0.635294 0.65098 0.552941
0.72549 0.666667 0.552941
0.819608 0.678431 0.560784
0.913725 0.698039 0.572549
0.494118 0.733333 0.568627
0.509804 0.741176 0.576471
0.533333 0.74902 0.584314
0.572549 0.756863 0.592157
0.635294 0.768627 0.611765
0.694118 0.776471 0.623529
0.752941 0.780392 0.615686
0.843137 0.792157 0.615686
0.929412 0.807843 0.631373
0.596078 0.862745 0.643137
0.611765 0.870588 0.658824
0.631373 0.866667 0.662745
0.678431 0.870588 0.686275
0.713725 0.878431 0.690196
0.760784 0.886275 0.701961
0.811765 0.886275 0.705882
0.870588 0.898039 0.698039
0.945098 0.905882 0.701961
0.74902 0.972549 0.772549
0.745098 0.968627 0.764706
0.772549 0.968627 0.780392
0.792157 0.968627 0.792157
0.827451 0.976471 0.803922
0.85098 0.972549 0.811765
0.890196 0.980392 0.823529
0.929412 0.980392 0.827451
0.964706 0.984314 0.831373
0.164706 0.14902 0.443137
0.188235 0.152941 0.45098
0.243137 0.156863 0.462745
0.313725 0.164706 0.466667
0.396078 0.168627 0.478431
0.486275 0.176471 0.494118
0.576471 0.184314 0.498039
0.682353 0.196078 0.501961
0.796078 0.239216 0.517647
0.188235 0.188235 0.45098
0.211765 0.188235 0.462745
0.254902 0.192157 0.470588
0.333333 0.207843 0.486275
0.423529 0.219608 0.509804
0.505882 0.219608 0.513725
0.603922 0.231373 0.521569
0.709804 0.239216 0.521569
0.819608 0.282353 0.541176
0.219608 0.258824 0.47451
0.243137 0.262745 0.486275
0.286275 0.266667 0.494118
0.34902 0.27451 0.498039
0.443137 0.294118 0.52549
0.533333 0.305882 0.537255
0.615686 0.301961 0.533333
0.72549 0.32549 0.541176
0.835294 0.352941 0.556863
0.294118 0.372549 0.498039
0.313725 0.380392 0.509804
0.333333 0.372549 0.513725
0.384314 0.376471 0.529412
0.47451 0.4 0.552941
0.564706 0.415686 0.576471
0.647059 0.415686 0.568627
0.737255 0.419608 0.556863
0.843137 0.447059 0.576471
0.34902 0.490196 0.541176
0.356863 0.490196 0.537255
0.4 0.501961 0.552941
0.443137 0.505882 0.564706
0.513725 0.517647 0.596078
0.596078 0.529412 0.603922
0.678431 0.529412 0.6
0.764706 0.537255 0.596078
0.854902 0.545098 0.596078
0.431373 0.627451 0.607843
0.443137 0.627451 0.611765
0.458824 0.623529 0.607843
0.513725 0.635294 0.627451
0.572549 0.647059 0.639216
0.662745 0.670588 0.666667
0.729412 0.670588 0.658824
0.807843 0.670588 0.654902
0.894118 0.682353 0.65098
0.52549 0.74902 0.654902
0.533333 0.745098 0.654902
0.54902 0.745098 0.658824
0.580392 0.74902 0.662745
0.639216 0.764706 0.682353
0.705882 0.780392 0.701961
0.772549 0.784314 0.701961
0.854902 0.8 0.698039
0.937255 0.811765 0.717647
0.623529 0.878431 0.721569
0.623529 0.866667 0.713725
0.647059 0.87451 0.72549
0.670588 0.87451 0.72549
0.717647 0.882353 0.741176
0.772549 0.886275 0.764706
0.831373 0.898039 0.772549
0.878431 0.901961 0.768627
0.952941 0.913725 0.776471
0.737255 0.972549 0.803922
0.74902 0.980392 0.807843
0.752941 0.972549 0.803922
0.780392 0.972549 0.811765
0.827451 0.976471 0.839216
0.862745 0.976471 0.847059
0.898039 0.976471 0.858824
0.937255 0.984314 0.870588
0.968627 0.984314 0.870588
0.196078 0.188235 0.568627
0.219608 0.192157 0.580392
0.262745 0.192157 0.580392
0.337255 0.203922 0.592157
0.419608 0.211765 0.6
0.513725 0.227451 0.615686
0.611765 0.239216 0.631373
0.690196 0.247059 0.623529
0.811765 0.282353 0.643137
0.207843 0.215686 0.576471
0.243137 0.227451 0.6
0.278431 0.223529 0.596078
0.356863 0.239216 0.611765
0.439216 0.25098 0.623529
0.541176 0.266667 0.643137
0.627451 0.270588 0.647059
0.717647 0.290196 0.65098
0.831373 0.321569 0.662745
0.231373 0.278431 0.584314
0.270588 0.298039 0.611765
0.309804 0.298039 0.615686
0.364706 0.298039 0.615686
0.458824 0.321569 0.639216
0.552941 0.337255 0.654902
0.639216 0.341176 0.662745
0.729412 0.360784 0.666667
0.835294 0.376471 0.666667
0.305882 0.392157 0.615686
0.317647 0.396078 0.627451
0.337255 0.388235 0.631373
0.4 0.4 0.643137
0.486275 0.415686 0.662745
0.576471 0.431373 0.67451
0.658824 0.431373 0.67451
0.74902 0.45098 0.67451
0.85098 0.466667 0.682353
0.368627 0.509804 0.635294
0.376471 0.513725 0.639216
0.415686 0.517647 0.65098
0.458824 0.517647 0.670588
0.513725 0.521569 0.682353
0.607843 0.545098 0.698039
0.698039 0.552941 0.713725
0.772549 0.552941 0.705882
0.866667 0.564706 0.705882
0.431373 0.619608 0.67451
0.443137 0.627451 0.682353
0.462745 0.627451 0.682353
0.517647 0.643137 0.701961
0.560784 0.635294 0.694118
0.639216 0.65098 0.72549
0.729412 0.670588 0.741176
0.815686 0.682353 0.74902
0.890196 0.678431 0.741176
0.505882 0.737255 0.717647
0.52549 0.74902 0.729412
0.552941 0.752941 0.737255
0.592157 0.760784 0.752941
0.639216 0.764706 0.752941
0.705882 0.780392 0.772549
0.796078 0.803922 0.8
0.843137 0.788235 0.784314
0.917647 0.796078 0.784314
0.627451 0.858824 0.772549
0.643137 0.870588 0.784314
0.654902 0.862745 0.784314
0.686275 0.870588 0.792157
0.717647 0.870588 0.796078
0.780392 0.894118 0.823529
0.843137 0.898039 0.839216
0.894118 0.905882 0.835294
0.960784 0.917647 0.847059
0.74902 0.968627 0.847059
0.756863 0.968627 0.85098
0.772549 0.972549 0.858824
0.784314 0.972549 0.854902
0.811765 0.976471 0.858824
0.85098 0.976471 0.870588
0.898039 0.976471 0.890196
0.941176 0.984314 0.901961
0.976471 0.984314 0.909804
0.247059 0.243137 0.698039
0.278431 0.258824 0.721569
0.32549 0.266667 0.72549
0.388235 0.27451 0.733333
0.458824 0.278431 0.733333
0.564706 0.305882 0.756863
0.65098 0.321569 0.764706
0.74902 0.329412 0.776471
0.819608 0.345098 0.764706
0.270588 0.282353 0.729412
0.294118 0.294118 0.74902
0.333333 0.294118 0.745098
0.4 0.305882 0.752941
0.486275 0.321569 0.768627
0.584314 0.345098 0.784314
0.678431 0.364706 0.792157
0.764706 0.364706 0.796078
0.839216 0.380392 0.784314
0.290196 0.337255 0.737255
0.313725 0.34902 0.752941
0.352941 0.352941 0.752941
0.419608 0.360784 0.760784
0.494118 0.368627 0.768627
0.592157 0.392157 0.784314
0.686275 0.415686 0.796078
0.768627 0.415686 0.796078
0.85098 0.435294 0.796078
0.309804 0.407843 0.741176
0.333333 0.419608 0.756863
0.380392 0.439216 0.772549
0.439216 0.443137 0.772549
0.513725 0.454902 0.780392
0.607843 0.47451 0.796078
0.705882 0.501961 0.807843
0.780392 0.494118 0.803922
0.854902 0.509804 0.8
0.423529 0.556863 0.764706
0.435294 0.560784 0.776471
0.435294 0.54902 0.776471
0.458824 0.529412 0.784314
0.537255 0.541176 0.792157
0.623529 0.560784 0.803922
0.721569 0.592157 0.823529
0.8 0.588235 0.823529
0.87451 0.6 0.815686
0.45098 0.647059 0.772549
0.466667 0.654902 0.780392
0.482353 0.65098 0.780392
0.529412 0.658824 0.792157
0.580392 0.65098 0.8
0.639216 0.65098 0.811765
0.741176 0.678431 0.827451
0.831373 0.698039 0.843137
0.901961 0.701961 0.843137
0.533333 0.756863 0.807843
0.541176 0.760784 0.811765
0.556863 0.760784 0.815686
0.588235 0.764706 0.815686
0.635294 0.764706 0.823529
0.690196 0.764706 0.823529
0.772549 0.784314 0.858824
0.858824 0.803922 0.870588
0.921569 0.8 0.862745
0.627451 0.866667 0.847059
0.639216 0.87451 0.858824
0.654902 0.87451 0.862745
0.682353 0.878431 0.862745
0.72549 0.886275 0.870588
0.764706 0.882353 0.87451
0.835294 0.890196 0.890196
0.901961 0.901961 0.901961
0.952941 0.909804 0.905882
0.760784 0.964706 0.905882
0.768627 0.964706 0.905882
0.780392 0.972549 0.909804
0.8 0.972549 0.909804
0.823529 0.972549 0.909804
0.854902 0.976471 0.913725
0.898039 0.980392 0.929412
0.945098 0.984314 0.941176
0.980392 0.984314 0.945098
0.380392 0.380392 0.858824
0.4 0.392157 0.870588
0.435294 0.4 0.87451
0.486275 0.403922 0.87451
0.552941 0.415686 0.878431
0.627451 0.431373 0.882353
0.713725 0.462745 0.894118
0.803922 0.482353 0.905882
0.882353 0.486275 0.909804
0.392157 0.407843 0.882353
0.415686 0.415686 0.894118
0.447059 0.427451 0.898039
0.501961 0.431373 0.898039
0.568627 0.443137 0.901961
0.647059 0.458824 0.898039
0.737255 0.490196 0.913725
0.811765 0.505882 0.917647
0.894118 0.509804 0.921569
0.415686 0.458824 0.890196
0.439216 0.470588 0.905882
0.462745 0.470588 0.898039
0.509804 0.470588 0.898039
0.576471 0.486275 0.901961
0.65098 0.501961 0.905882
0.74902 0.533333 0.917647
0.815686 0.537255 0.917647
0.898039 0.54902 0.92549
0.435294 0.52549 0.894118
0.447059 0.52549 0.898039
0.47451 0.529412 0.901961
0.529412 0.541176 0.905882
0.592157 0.545098 0.905882
0.666667 0.564706 0.909804
0.74902 0.584314 0.913725
0.831373 0.603922 0.921569
0.905882 0.603922 0.929412
0.490196 0.615686 0.901961
0.490196 0.615686 0.905882
0.501961 0.603922 0.905882
0.545098 0.611765 0.913725
0.603922 0.615686 0.913725
0.682353 0.635294 0.921569
0.760784 0.654902 0.92549
0.843137 0.666667 0.929412
0.917647 0.67451 0.937255
0.572549 0.737255 0.913725
0.584314 0.737255 0.917647
0.6 0.737255 0.917647
0.615686 0.721569 0.917647
0.619608 0.694118 0.921569
0.698039 0.705882 0.929412
0.780392 0.729412 0.937255
0.854902 0.745098 0.937255
0.929412 0.745098 0.945098
0.627451 0.823529 0.929412
0.631373 0.827451 0.933333
0.643137 0.819608 0.929412
0.654902 0.815686 0.92549
0.690196 0.811765 0.933333
0.741176 0.803922 0.937255
0.780392 0.788235 0.937255
0.87451 0.819608 0.94902
0.945098 0.835294 0.956863
0.721569 0.917647 0.952941
0.717647 0.909804 0.94902
0.729412 0.913725 0.956863
0.752941 0.917647 0.960784
0.756863 0.901961 0.94902
0.788235 0.901961 0.94902
0.831373 0.898039 0.952941
0.886275 0.894118 0.956863
0.960784 0.909804 0.968627
0.815686 0.984314 0.976471
0.815686 0.988235 0.976471
0.819608 0.984314 0.976471
0.831373 0.988235 0.980392
0.854902 0.988235 0.980392
0.87451 0.984314 0.980392
0.905882 0.988235 0.980392
0.937255 0.984314 0.984314
0.984314 0.988235 0.984314
