resources/LUTs/LUT Colour Grades (cube)/Film_Cool.cube
#Generated by Picture Instruments - Look Creator
TITLE "Fuji 160SCool"
LUT_3D_SIZE 5
0 0 0
0.137255 0.0431373 0
0.321569 0.0509804 0
0.564706 0.0431373 0
0.827451 0.109804 0
0.0627451 0.215686 0.0980392
0.172549 0.235294 0.0901961
0.384314 0.235294 0.027451
0.619608 0.247059 0
0.862745 0.278431 0
0.176471 0.533333 0.223529
0.258824 0.54902 0.231373
0.462745 0.568627 0.188235
0.713725 0.580392 0.054902
0.913725 0.560784 0
0.419608 0.839216 0.443137
0.458824 0.835294 0.439216
0.556863 0.831373 0.443137
0.737255 0.843137 0.388235
0.952941 0.866667 0.313725
0.717647 0.980392 0.721569
0.729412 0.980392 0.721569
0.772549 0.984314 0.737255
0.843137 0.988235 0.745098
0.921569 0.992157 0.72549
0.027451 0.0588235 0.2
0.152941 0.0627451 0.203922
0.360784 0 0.192157
0.576471 0.00392157 0.164706
0.835294 0.0117647 0.0627451
0.109804 0.227451 0.239216
0.203922 0.235294 0.247059
0.392157 0.231373 0.223529
0.623529 0.235294 0.184314
0.862745 0.25098 0.0941176
0.266667 0.533333 0.356863
0.309804 0.54902 0.34902
0.486275 0.572549 0.329412
0.721569 0.572549 0.27451
0.909804 0.552941 0.211765
0.45098 0.823529 0.501961
0.494118 0.827451 0.509804
0.596078 0.835294 0.529412
0.752941 0.843137 0.490196
0.960784 0.870588 0.439216
0.737255 0.980392 0.74902
0.745098 0.980392 0.74902
0.792157 0.984314 0.764706
0.854902 0.984314 0.776471
0.92549 0.992157 0.756863
0.00784314 0.0980392 0.45098
0.184314 0.105882 0.45098
0.388235 0.0862745 0.454902
0.654902 0 0.47451
0.85098 0 0.396078
0.0980392 0.243137 0.470588
0.239216 0.258824 0.482353
0.443137 0.27451 0.494118
0.682353 0.239216 0.494118
0.870588 0.113725 0.403922
0.298039 0.533333 0.533333
0.368627 0.541176 0.545098
0.533333 0.556863 0.556863
0.713725 0.541176 0.521569
0.901961 0.529412 0.462745
0.529412 0.807843 0.65098
0.576471 0.819608 0.666667
0.65098 0.827451 0.666667
0.776471 0.839216 0.662745
0.945098 0.843137 0.623529
0.784314 0.976471 0.823529
0.796078 0.980392 0.827451
0.819608 0.980392 0.823529
0.878431 0.984314 0.839216
0.945098 0.992157 0.827451
0.141176 0.160784 0.694118
0.262745 0.172549 0.709804
0.462745 0.2 0.717647
0.682353 0.203922 0.741176
0.890196 0.192157 0.74902
0.211765 0.290196 0.721569
0.313725 0.305882 0.741176
0.501961 0.333333 0.74902
0.705882 0.34902 0.760784
0.909804 0.356863 0.764706
0.380392 0.568627 0.756863
0.435294 0.568627 0.756863
0.552941 0.556863 0.768627
0.745098 0.596078 0.780392
0.917647 0.596078 0.784314
0.552941 0.8 0.796078
0.588235 0.8 0.8
0.67451 0.807843 0.803922
0.815686 0.823529 0.819608
0.933333 0.803922 0.788235
0.792157 0.980392 0.886275
0.803922 0.976471 0.886275
0.843137 0.980392 0.890196
0.901961 0.984314 0.905882
0.960784 0.988235 0.905882
0.431373 0.376471 0.929412
0.490196 0.396078 0.941176
0.611765 0.427451 0.941176
0.768627 0.494118 0.941176
0.901961 0.494118 0.94902
0.478431 0.470588 0.952941
0.521569 0.478431 0.956863
0.643137 0.509804 0.952941
0.788235 0.564706 0.952941
0.909804 0.564706 0.952941
0.533333 0.627451 0.956863
0.564706 0.635294 0.956863
0.670588 0.654902 0.956863
0.807843 0.694118 0.956863
0.929412 0.705882 0.960784
0.67451 0.85098 0.964706
0.690196 0.847059 0.960784
0.74902 0.839216 0.960784
0.827451 0.827451 0.964706
0.94902 0.85098 0.964706
0.831373 0.984314 0.984314
0.847059 0.984314 0.984314
0.870588 0.984314 0.984314
0.909804 0.984314 0.984314
0.984314 0.988235 0.988235
