resources/LUTs/LUT Colour Grades (cube)/Film_Warm.cube
#Generated by Picture Instruments - Look Creator
TITLE "Fuji 160SWarm"
LUT_3D_SIZE 9
0 0 0
0.0745098 0.00784314 0
0.145098 0.0392157 0
0.231373 0.0352941 0
0.345098 0.0156863 0
0.462745 0.00392157 0
0.596078 0.00392157 0
0.733333 0.00784314 0
0.854902 0.027451 0
0.0470588 0.109804 0.0431373
0.0941176 0.113725 0.0352941
0.160784 0.113725 0.0156863
0.254902 0.109804 0
0.368627 0.105882 0
0.490196 0.0862745 0
0.615686 0.0745098 0
0.752941 0.0980392 0
0.866667 0.113725 0
0.0784314 0.211765 0.0745098
0.117647 0.223529 0.0784314
0.192157 0.227451 0.0588235
0.305882 0.235294 0.0196078
0.415686 0.223529 0.00392157
0.529412 0.219608 0
0.65098 0.223529 0
0.772549 0.235294 0
0.886275 0.25098 0
0.141176 0.360784 0.117647
0.176471 0.372549 0.121569
0.239216 0.380392 0.121569
0.333333 0.384314 0.0745098
0.47451 0.4 0.00392157
0.584314 0.388235 0
0.701961 0.380392 0
0.811765 0.380392 0
0.913725 0.396078 0
0.227451 0.52549 0.172549
0.25098 0.537255 0.180392
0.305882 0.545098 0.180392
0.388235 0.552941 0.168627
0.498039 0.560784 0.12549
0.639216 0.576471 0.0235294
0.74902 0.572549 0
0.843137 0.552941 0
0.937255 0.54902 0
0.333333 0.694118 0.258824
0.352941 0.701961 0.262745
0.388235 0.698039 0.262745
0.454902 0.705882 0.270588
0.541176 0.713725 0.25098
0.647059 0.721569 0.211765
0.764706 0.721569 0.137255
0.878431 0.733333 0.0313725
0.952941 0.721569 0.00392157
0.47451 0.839216 0.392157
0.478431 0.835294 0.388235
0.501961 0.831373 0.388235
0.54902 0.831373 0.392157
0.6 0.827451 0.388235
0.682353 0.839216 0.364706
0.772549 0.839216 0.333333
0.870588 0.843137 0.286275
0.968627 0.866667 0.243137
0.623529 0.92549 0.545098
0.615686 0.917647 0.533333
0.631373 0.917647 0.533333
0.662745 0.921569 0.541176
0.701961 0.917647 0.54902
0.74902 0.921569 0.545098
0.803922 0.92549 0.521569
0.870588 0.921569 0.490196
0.941176 0.933333 0.466667
0.752941 0.976471 0.694118
0.752941 0.976471 0.686275
0.764706 0.976471 0.690196
0.780392 0.980392 0.698039
0.807843 0.980392 0.709804
0.835294 0.980392 0.721569
0.866667 0.984314 0.717647
0.905882 0.988235 0.717647
0.937255 0.992157 0.698039
0.0392157 0.0313725 0.0941176
0.0862745 0.0352941 0.0901961
0.156863 0.0313725 0.0862745
0.247059 0.0313725 0.0784314
0.356863 0.0117647 0.0627451
0.470588 0.00392157 0.0196078
0.603922 0 0
0.737255 0.00392157 0
0.862745 0.00392157 0
0.0745098 0.117647 0.101961
0.109804 0.117647 0.105882
0.180392 0.121569 0.101961
0.266667 0.109804 0.0862745
0.380392 0.101961 0.0705882
0.501961 0.0784314 0.0313725
0.623529 0.0509804 0
0.756863 0.0627451 0
0.870588 0.0901961 0
0.121569 0.215686 0.129412
0.145098 0.223529 0.12549
0.207843 0.231373 0.121569
0.313725 0.235294 0.101961
0.423529 0.223529 0.0823529
0.533333 0.215686 0.0313725
0.654902 0.223529 0
0.776471 0.223529 0
0.886275 0.235294 0
0.176471 0.360784 0.164706
0.196078 0.364706 0.160784
0.254902 0.376471 0.168627
0.345098 0.384314 0.141176
0.486275 0.403922 0.101961
0.592157 0.388235 0.0588235
0.701961 0.376471 0.0117647
0.807843 0.376471 0
0.909804 0.384314 0
0.247059 0.52549 0.211765
0.27451 0.537255 0.219608
0.32549 0.545098 0.223529
0.396078 0.552941 0.215686
0.505882 0.560784 0.184314
0.65098 0.584314 0.12549
0.752941 0.572549 0.054902
0.85098 0.556863 0.0117647
0.937255 0.54902 0
0.34902 0.686275 0.290196
0.368627 0.698039 0.298039
0.407843 0.701961 0.301961
0.47451 0.713725 0.309804
0.54902 0.713725 0.290196
0.65098 0.721569 0.258824
0.772549 0.72549 0.203922
0.878431 0.733333 0.141176
0.960784 0.72549 0.0980392
0.47451 0.823529 0.403922
0.482353 0.823529 0.403922
0.513725 0.827451 0.407843
0.556863 0.827451 0.411765
0.615686 0.831373 0.423529
0.686275 0.835294 0.396078
0.776471 0.839216 0.360784
0.870588 0.843137 0.321569
0.968627 0.862745 0.286275
0.619608 0.921569 0.552941
0.623529 0.917647 0.552941
0.639216 0.917647 0.54902
0.670588 0.917647 0.556863
0.709804 0.92549 0.568627
0.752941 0.921569 0.568627
0.803922 0.921569 0.541176
0.87451 0.933333 0.521569
0.941176 0.933333 0.490196
0.756863 0.980392 0.701961
0.760784 0.980392 0.701961
0.768627 0.976471 0.701961
0.788235 0.976471 0.709804
0.807843 0.976471 0.713725
0.843137 0.980392 0.733333
0.87451 0.984314 0.733333
0.905882 0.988235 0.721569
0.941176 0.988235 0.713725
0.0627451 0.0588235 0.172549
0.105882 0.0588235 0.168627
0.172549 0.054902 0.172549
0.278431 0.00784314 0.176471
0.388235 0 0.160784
0.486275 0 0.12549
0.611765 0 0.12549
0.741176 0 0.0784314
0.862745 0 0.00392157
0.0901961 0.12549 0.184314
0.129412 0.12549 0.188235
0.2 0.129412 0.192157
0.301961 0.109804 0.192157
0.4 0.0509804 0.160784
0.509804 0.0588235 0.152941
0.627451 0.0352941 0.129412
0.752941 0.0117647 0.0784314
0.862745 0.0156863 0
0.141176 0.223529 0.203922
0.176471 0.223529 0.207843
0.239216 0.227451 0.207843
0.329412 0.227451 0.2
0.427451 0.219608 0.180392
0.537255 0.211765 0.168627
0.654902 0.207843 0.141176
0.776471 0.207843 0.0941176
0.886275 0.219608 0.0156863
0.219608 0.360784 0.247059
0.25098 0.372549 0.25098
0.294118 0.376471 0.247059
0.364706 0.380392 0.235294
0.498039 0.396078 0.223529
0.596078 0.376471 0.2
0.705882 0.372549 0.172549
0.815686 0.376471 0.133333
0.905882 0.376471 0.0431373
0.317647 0.52549 0.309804
0.329412 0.529412 0.305882
0.360784 0.541176 0.298039
0.423529 0.54902 0.301961
0.521569 0.560784 0.282353
0.662745 0.584314 0.247059
0.756863 0.560784 0.219608
0.85098 0.545098 0.188235
0.933333 0.545098 0.137255
0.392157 0.682353 0.364706
0.403922 0.690196 0.364706
0.443137 0.698039 0.368627
0.494118 0.705882 0.376471
0.572549 0.713725 0.368627
0.662745 0.717647 0.337255
0.784314 0.729412 0.305882
0.886275 0.729412 0.27451
0.952941 0.717647 0.239216
0.501961 0.819608 0.458824
0.513725 0.823529 0.462745
0.537255 0.823529 0.470588
0.580392 0.827451 0.470588
0.639216 0.831373 0.482353
0.705882 0.839216 0.470588
0.792157 0.839216 0.439216
0.87451 0.847059 0.4
0.976471 0.870588 0.384314
0.631373 0.909804 0.580392
0.647059 0.917647 0.592157
0.662745 0.917647 0.592157
0.694118 0.921569 0.6
0.721569 0.913725 0.603922
0.772549 0.92549 0.615686
0.815686 0.92549 0.592157
0.87451 0.92549 0.572549
0.94902 0.933333 0.54902
0.768627 0.980392 0.72549
0.768627 0.976471 0.717647
0.780392 0.976471 0.721569
0.803922 0.980392 0.733333
0.823529 0.980392 0.737255
0.847059 0.980392 0.74902
0.878431 0.984314 0.752941
0.913725 0.988235 0.74902
0.941176 0.988235 0.737255
0.0745098 0.0745098 0.286275
0.129412 0.0784314 0.286275
0.207843 0.0784314 0.286275
0.298039 0.0470588 0.286275
0.415686 0 0.290196
0.529412 0 0.27451
0.639216 0 0.247059
0.745098 0 0.2
0.854902 0 0.188235
0.113725 0.137255 0.294118
0.156863 0.137255 0.298039
0.227451 0.141176 0.294118
0.317647 0.133333 0.298039
0.439216 0.0784314 0.305882
0.552941 0.00784314 0.286275
0.658824 0 0.254902
0.760784 0 0.223529
0.87451 0 0.192157
0.168627 0.239216 0.305882
0.207843 0.247059 0.321569
0.258824 0.239216 0.317647
0.356863 0.243137 0.321569
0.470588 0.227451 0.32549
0.564706 0.2 0.294118
0.670588 0.196078 0.27451
0.772549 0.184314 0.243137
0.886275 0.176471 0.207843
0.239216 0.364706 0.341176
0.270588 0.376471 0.34902
0.329412 0.380392 0.352941
0.411765 0.384314 0.360784
0.501961 0.380392 0.341176
0.6 0.372549 0.32549
0.698039 0.360784 0.298039
0.815686 0.368627 0.282353
0.913725 0.368627 0.243137
0.345098 0.52549 0.396078
0.360784 0.529412 0.4
0.411765 0.533333 0.407843
0.466667 0.545098 0.403922
0.552941 0.556863 0.4
0.666667 0.560784 0.376471
0.756863 0.545098 0.360784
0.843137 0.533333 0.32549
0.933333 0.533333 0.290196
0.447059 0.682353 0.466667
0.466667 0.686275 0.470588
0.505882 0.690196 0.478431
0.537255 0.698039 0.466667
0.596078 0.705882 0.47451
0.682353 0.713725 0.45098
0.803922 0.737255 0.423529
0.882353 0.717647 0.4
0.952941 0.705882 0.372549
0.568627 0.807843 0.556863
0.572549 0.807843 0.556863
0.584314 0.815686 0.54902
0.623529 0.823529 0.552941
0.662745 0.823529 0.556863
0.721569 0.827451 0.54902
0.803922 0.835294 0.533333
0.886275 0.847059 0.498039
0.964706 0.854902 0.478431
0.67451 0.909804 0.647059
0.682353 0.913725 0.647059
0.686275 0.909804 0.639216
0.713725 0.917647 0.65098
0.74902 0.913725 0.654902
0.788235 0.92549 0.670588
0.835294 0.92549 0.654902
0.882353 0.92549 0.627451
0.94902 0.933333 0.615686
0.784314 0.976471 0.756863
0.792157 0.980392 0.756863
0.796078 0.976471 0.756863
0.811765 0.980392 0.764706
0.835294 0.980392 0.772549
0.858824 0.980392 0.780392
0.890196 0.984314 0.784314
0.909804 0.988235 0.772549
0.952941 0.992157 0.772549
0.109804 0.0901961 0.407843
0.160784 0.0901961 0.411765
0.235294 0.0901961 0.403922
0.337255 0.101961 0.411765
0.431373 0.0352941 0.411765
0.552941 0 0.427451
0.690196 0 0.431373
0.788235 0 0.396078
0.878431 0 0.352941
0.14902 0.152941 0.419608
0.180392 0.152941 0.419608
0.254902 0.14902 0.419608
0.352941 0.156863 0.423529
0.458824 0.141176 0.439216
0.576471 0.0588235 0.443137
0.709804 0.00784314 0.447059
0.803922 0 0.403922
0.894118 0 0.356863
0.180392 0.235294 0.431373
0.223529 0.247059 0.443137
0.286275 0.25098 0.443137
0.384314 0.258824 0.447059
0.486275 0.258824 0.454902
0.596078 0.231373 0.454902
0.717647 0.215686 0.447059
0.807843 0.152941 0.403922
0.901961 0.0392157 0.356863
0.262745 0.380392 0.45098
0.286275 0.388235 0.458824
0.34902 0.392157 0.466667
0.423529 0.388235 0.478431
0.529412 0.4 0.482353
0.635294 0.392157 0.490196
0.72549 0.364706 0.454902
0.807843 0.317647 0.4
0.901961 0.32549 0.372549
0.356863 0.52549 0.498039
0.376471 0.533333 0.501961
0.419608 0.533333 0.501961
0.494118 0.537255 0.513725
0.580392 0.545098 0.517647
0.670588 0.541176 0.505882
0.74902 0.529412 0.478431
0.839216 0.517647 0.447059
0.929412 0.517647 0.419608
0.458824 0.670588 0.545098
0.482353 0.678431 0.54902
0.521569 0.686275 0.560784
0.572549 0.686275 0.568627
0.635294 0.701961 0.576471
0.705882 0.705882 0.564706
0.803922 0.717647 0.54902
0.87451 0.701961 0.521569
0.94902 0.694118 0.498039
0.576471 0.803922 0.615686
0.596078 0.815686 0.631373
0.623529 0.815686 0.631373
0.662745 0.815686 0.639216
0.694118 0.819608 0.635294
0.752941 0.827451 0.647059
0.815686 0.831373 0.631373
0.905882 0.85098 0.603922
0.960784 0.843137 0.588235
0.694118 0.905882 0.701961
0.698039 0.905882 0.701961
0.72549 0.905882 0.713725
0.741176 0.905882 0.709804
0.768627 0.917647 0.717647
0.803922 0.917647 0.72549
0.85098 0.921569 0.721569
0.898039 0.929412 0.705882
0.960784 0.941176 0.694118
0.811765 0.972549 0.803922
0.819608 0.976471 0.807843
0.827451 0.980392 0.807843
0.819608 0.976471 0.792157
0.843137 0.980392 0.803922
0.870588 0.980392 0.815686
0.894118 0.984314 0.823529
0.921569 0.988235 0.815686
0.956863 0.988235 0.807843
0.160784 0.109804 0.529412
0.203922 0.117647 0.541176
0.270588 0.117647 0.541176
0.368627 0.121569 0.545098
0.470588 0.129412 0.545098
0.572549 0.0627451 0.560784
0.698039 0.00784314 0.576471
0.819608 0 0.584314
0.909804 0 0.564706
0.188235 0.164706 0.541176
0.223529 0.168627 0.552941
0.294118 0.176471 0.560784
0.384314 0.180392 0.564706
0.494118 0.192157 0.568627
0.596078 0.160784 0.580392
0.705882 0.0901961 0.584314
0.835294 0.0745098 0.596078
0.917647 0.0156863 0.568627
0.227451 0.254902 0.560784
0.266667 0.262745 0.572549
0.317647 0.262745 0.572549
0.411765 0.278431 0.576471
0.513725 0.286275 0.584314
0.611765 0.282353 0.592157
0.72549 0.262745 0.6
0.843137 0.258824 0.603922
0.92549 0.227451 0.572549
0.309804 0.392157 0.580392
0.333333 0.4 0.596078
0.364706 0.384314 0.6
0.447059 0.392157 0.6
0.54902 0.415686 0.611765
0.647059 0.419608 0.615686
0.74902 0.407843 0.615686
0.85098 0.407843 0.611765
0.92549 0.368627 0.576471
0.380392 0.537255 0.611765
0.392157 0.537255 0.607843
0.431373 0.537255 0.611765
0.501961 0.545098 0.615686
0.588235 0.541176 0.627451
0.686275 0.560784 0.643137
0.776471 0.560784 0.643137
0.85098 0.52549 0.603922
0.921569 0.478431 0.54902
0.478431 0.67451 0.65098
0.494118 0.678431 0.647059
0.521569 0.678431 0.647059
0.576471 0.682353 0.654902
0.643137 0.686275 0.662745
0.72549 0.698039 0.67451
0.792157 0.686275 0.65098
0.862745 0.67451 0.627451
0.933333 0.666667 0.6
0.6 0.807843 0.698039
0.607843 0.803922 0.698039
0.631373 0.803922 0.698039
0.666667 0.807843 0.705882
0.717647 0.811765 0.717647
0.772549 0.823529 0.721569
0.831373 0.831373 0.721569
0.901961 0.839216 0.709804
0.960784 0.831373 0.686275
0.721569 0.917647 0.772549
0.717647 0.901961 0.760784
0.737255 0.909804 0.772549
0.764706 0.909804 0.776471
0.796078 0.913725 0.780392
0.827451 0.921569 0.788235
0.858824 0.917647 0.788235
0.909804 0.92549 0.780392
0.968627 0.933333 0.768627
0.811765 0.980392 0.835294
0.815686 0.980392 0.835294
0.823529 0.980392 0.835294
0.839216 0.976471 0.843137
0.862745 0.976471 0.847059
0.886275 0.984314 0.854902
0.909804 0.984314 0.866667
0.933333 0.988235 0.862745
0.960784 0.992157 0.858824
0.231373 0.145098 0.666667
0.266667 0.152941 0.678431
0.32549 0.156863 0.682353
0.407843 0.160784 0.682353
0.509804 0.172549 0.690196
0.619608 0.2 0.701961
0.717647 0.164706 0.713725
0.811765 0.117647 0.709804
0.913725 0.152941 0.721569
0.25098 0.192157 0.682353
0.286275 0.203922 0.701961
0.345098 0.203922 0.701961
0.423529 0.207843 0.701961
0.533333 0.227451 0.713725
0.635294 0.247059 0.713725
0.729412 0.219608 0.721569
0.831373 0.211765 0.729412
0.929412 0.231373 0.733333
0.286275 0.278431 0.694118
0.313725 0.286275 0.705882
0.368627 0.294118 0.713725
0.45098 0.298039 0.713725
0.54902 0.321569 0.721569
0.65098 0.337255 0.717647
0.741176 0.32549 0.729412
0.835294 0.321569 0.737255
0.933333 0.337255 0.741176
0.32549 0.388235 0.709804
0.356863 0.4 0.721569
0.407843 0.403922 0.72549
0.478431 0.411765 0.72549
0.572549 0.427451 0.729412
0.666667 0.447059 0.72549
0.760784 0.454902 0.74902
0.85098 0.45098 0.74902
0.933333 0.458824 0.745098
0.435294 0.556863 0.729412
0.45098 0.556863 0.729412
0.486275 0.552941 0.729412
0.509804 0.533333 0.737255
0.6 0.545098 0.737255
0.698039 0.576471 0.74902
0.784314 0.580392 0.760784
0.862745 0.580392 0.760784
0.937255 0.588235 0.756863
0.494118 0.678431 0.741176
0.509804 0.678431 0.745098
0.541176 0.686275 0.756863
0.576471 0.678431 0.745098
0.65098 0.686275 0.752941
0.721569 0.686275 0.760784
0.807843 0.713725 0.776471
0.878431 0.709804 0.776471
0.937255 0.686275 0.74902
0.596078 0.796078 0.776471
0.615686 0.8 0.776471
0.631373 0.8 0.772549
0.662745 0.8 0.776471
0.717647 0.807843 0.784314
0.768627 0.803922 0.784314
0.839216 0.819608 0.803922
0.890196 0.811765 0.784314
0.94902 0.803922 0.768627
0.709804 0.894118 0.815686
0.72549 0.901961 0.819608
0.737255 0.901961 0.823529
0.764706 0.901961 0.823529
0.8 0.905882 0.831373
0.835294 0.909804 0.835294
0.882353 0.917647 0.85098
0.913725 0.921569 0.839216
0.968627 0.933333 0.839216
0.819608 0.976471 0.87451
0.827451 0.980392 0.878431
0.827451 0.976471 0.87451
0.85098 0.980392 0.882353
0.862745 0.976471 0.882353
0.890196 0.980392 0.890196
0.913725 0.984314 0.894118
0.941176 0.984314 0.901961
0.968627 0.988235 0.898039
0.333333 0.215686 0.8
0.360784 0.227451 0.815686
0.407843 0.231373 0.815686
0.478431 0.243137 0.819608
0.564706 0.258824 0.823529
0.666667 0.294118 0.831373
0.74902 0.313725 0.831373
0.839216 0.305882 0.843137
0.913725 0.294118 0.847059
0.356863 0.262745 0.827451
0.388235 0.270588 0.839216
0.423529 0.270588 0.835294
0.498039 0.282353 0.839216
0.580392 0.298039 0.839216
0.682353 0.333333 0.847059
0.768627 0.360784 0.85098
0.85098 0.345098 0.85098
0.921569 0.333333 0.854902
0.380392 0.333333 0.827451
0.407843 0.341176 0.843137
0.447059 0.345098 0.839216
0.517647 0.360784 0.843137
0.6 0.372549 0.843137
0.690196 0.403922 0.847059
0.776471 0.427451 0.85098
0.847059 0.415686 0.854902
0.92549 0.411765 0.854902
0.411765 0.431373 0.835294
0.431373 0.439216 0.843137
0.47451 0.443137 0.847059
0.533333 0.454902 0.847059
0.619608 0.47451 0.85098
0.709804 0.501961 0.854902
0.796078 0.529412 0.854902
0.85098 0.513725 0.854902
0.921569 0.513725 0.854902
0.490196 0.568627 0.839216
0.498039 0.568627 0.85098
0.505882 0.552941 0.85098
0.564706 0.564706 0.854902
0.635294 0.572549 0.85098
0.721569 0.596078 0.858824
0.803922 0.627451 0.858824
0.866667 0.627451 0.862745
0.929412 0.627451 0.862745
0.54902 0.698039 0.843137
0.564706 0.701961 0.85098
0.592157 0.701961 0.854902
0.635294 0.705882 0.854902
0.666667 0.682353 0.858824
0.737255 0.694118 0.858824
0.819608 0.717647 0.862745
0.882353 0.737255 0.870588
0.945098 0.737255 0.878431
0.619608 0.803922 0.862745
0.639216 0.807843 0.870588
0.65098 0.803922 0.862745
0.678431 0.807843 0.866667
0.713725 0.803922 0.858824
0.764706 0.8 0.858824
0.831373 0.803922 0.866667
0.901961 0.831373 0.886275
0.956863 0.835294 0.894118
0.717647 0.894118 0.882353
0.72549 0.901961 0.890196
0.741176 0.901961 0.886275
0.760784 0.901961 0.886275
0.784314 0.898039 0.882353
0.827451 0.901961 0.894118
0.870588 0.905882 0.894118
0.929412 0.913725 0.901961
0.964706 0.905882 0.890196
0.823529 0.972549 0.917647
0.827451 0.976471 0.921569
0.839216 0.976471 0.929412
0.854902 0.980392 0.929412
0.870588 0.980392 0.929412
0.894118 0.980392 0.933333
0.921569 0.980392 0.933333
0.956863 0.988235 0.945098
0.980392 0.988235 0.941176
0.482353 0.360784 0.921569
0.505882 0.376471 0.937255
0.537255 0.380392 0.933333
0.592157 0.396078 0.937255
0.654902 0.407843 0.933333
0.721569 0.439216 0.933333
0.796078 0.482353 0.933333
0.858824 0.498039 0.937255
0.917647 0.482353 0.941176
0.505882 0.4 0.941176
0.52549 0.403922 0.94902
0.556863 0.415686 0.952941
0.603922 0.419608 0.94902
0.666667 0.443137 0.945098
0.737255 0.466667 0.945098
0.815686 0.509804 0.945098
0.870588 0.52549 0.941176
0.933333 0.513725 0.94902
0.529412 0.454902 0.94902
0.537255 0.458824 0.94902
0.564706 0.462745 0.94902
0.619608 0.478431 0.952941
0.682353 0.494118 0.952941
0.74902 0.521569 0.945098
0.815686 0.552941 0.941176
0.87451 0.568627 0.941176
0.929412 0.552941 0.945098
0.552941 0.533333 0.945098
0.564706 0.541176 0.94902
0.588235 0.545098 0.94902
0.639216 0.552941 0.94902
0.694118 0.568627 0.94902
0.760784 0.592157 0.945098
0.827451 0.623529 0.94902
0.878431 0.631373 0.941176
0.933333 0.623529 0.94902
0.576471 0.619608 0.94902
0.584314 0.615686 0.94902
0.611765 0.623529 0.94902
0.65098 0.631373 0.952941
0.713725 0.647059 0.952941
0.776471 0.666667 0.956863
0.835294 0.686275 0.94902
0.890196 0.709804 0.952941
0.941176 0.701961 0.952941
0.698039 0.772549 0.952941
0.694118 0.768627 0.94902
0.694118 0.756863 0.956863
0.694118 0.737255 0.956863
0.721569 0.721569 0.952941
0.780392 0.737255 0.956863
0.847059 0.760784 0.956863
0.905882 0.784314 0.956863
0.952941 0.780392 0.960784
0.709804 0.847059 0.956863
0.713725 0.847059 0.952941
0.721569 0.843137 0.956863
0.74902 0.839216 0.956863
0.780392 0.839216 0.952941
0.803922 0.827451 0.968627
0.85098 0.823529 0.956863
0.909804 0.847059 0.960784
0.956863 0.85098 0.960784
0.784314 0.92549 0.968627
0.792157 0.929412 0.972549
0.796078 0.92549 0.968627
0.807843 0.92549 0.972549
0.819608 0.921569 0.968627
0.839216 0.917647 0.968627
0.87451 0.909804 0.968627
0.917647 0.905882 0.968627
0.972549 0.92549 0.972549
0.847059 0.980392 0.980392
0.862745 0.984314 0.984314
0.862745 0.984314 0.980392
0.866667 0.984314 0.984314
0.886275 0.984314 0.984314
0.901961 0.984314 0.984314
0.921569 0.984314 0.984314
0.956863 0.984314 0.984314
0.984314 0.988235 0.988235
