resources/LUTs/LUT Colour Grades (cube)/Film_Cool.cube
#Generated by Picture Instruments - Look Creator
TITLE "Fuji 160SCool"
LUT_3D_SIZE 9
0 0 0
0.0745098 0.00784314 0
0.137255 0.0431373 0
0.219608 0.0470588 0
0.321569 0.0509804 0
0.435294 0.0392157 0
0.564706 0.0431373 0
0.701961 0.054902 0
0.827451 0.109804 0
0.0431373 0.109804 0.0588235
0.0862745 0.113725 0.0509804
0.152941 0.113725 0.027451
0.235294 0.117647 0.0117647
0.345098 0.12549 0
0.458824 0.12549 0
0.588235 0.129412 0
0.72549 0.152941 0
0.839216 0.172549 0
0.0627451 0.215686 0.0980392
0.101961 0.223529 0.101961
0.172549 0.235294 0.0901961
0.278431 0.243137 0.054902
0.384314 0.235294 0.027451
0.498039 0.239216 0.00784314
0.619608 0.247059 0
0.745098 0.258824 0
0.862745 0.278431 0
0.109804 0.368627 0.156863
0.145098 0.380392 0.164706
0.207843 0.384314 0.160784
0.305882 0.396078 0.129412
0.439216 0.415686 0.054902
0.552941 0.403922 0.027451
0.666667 0.396078 0.00392157
0.780392 0.4 0
0.890196 0.411765 0
0.176471 0.533333 0.223529
0.207843 0.545098 0.227451
0.258824 0.54902 0.231373
0.345098 0.560784 0.223529
0.462745 0.568627 0.188235
0.603922 0.588235 0.129412
0.713725 0.580392 0.054902
0.815686 0.564706 0.00392157
0.913725 0.560784 0
0.282353 0.701961 0.313725
0.301961 0.705882 0.317647
0.337255 0.701961 0.317647
0.411765 0.713725 0.32549
0.501961 0.717647 0.309804
0.615686 0.72549 0.27451
0.733333 0.729412 0.223529
0.854902 0.741176 0.168627
0.937255 0.729412 0.121569
0.419608 0.839216 0.443137
0.427451 0.835294 0.443137
0.458824 0.835294 0.439216
0.501961 0.835294 0.439216
0.556863 0.831373 0.443137
0.647059 0.839216 0.419608
0.737255 0.843137 0.388235
0.843137 0.847059 0.345098
0.952941 0.866667 0.313725
0.576471 0.929412 0.584314
0.568627 0.917647 0.576471
0.588235 0.921569 0.576471
0.615686 0.921569 0.584314
0.658824 0.92549 0.592157
0.713725 0.92549 0.588235
0.768627 0.929412 0.568627
0.839216 0.92549 0.533333
0.921569 0.937255 0.513725
0.717647 0.980392 0.721569
0.717647 0.980392 0.717647
0.729412 0.980392 0.721569
0.74902 0.984314 0.72549
0.772549 0.984314 0.737255
0.807843 0.984314 0.74902
0.843137 0.988235 0.745098
0.886275 0.992157 0.741176
0.921569 0.992157 0.72549
0.027451 0.0313725 0.109804
0.0784314 0.0352941 0.105882
0.145098 0.0352941 0.101961
0.231373 0.0470588 0.0980392
0.333333 0.0431373 0.0901961
0.443137 0.0196078 0.0588235
0.572549 0.0235294 0.0196078
0.709804 0.0352941 0
0.835294 0.0627451 0
0.0627451 0.117647 0.129412
0.101961 0.117647 0.129412
0.164706 0.12549 0.121569
0.243137 0.121569 0.109804
0.352941 0.121569 0.0980392
0.470588 0.121569 0.0745098
0.592157 0.117647 0.0235294
0.72549 0.133333 0
0.843137 0.156863 0
0.0980392 0.215686 0.160784
0.121569 0.227451 0.160784
0.184314 0.235294 0.152941
0.286275 0.239216 0.133333
0.392157 0.239216 0.121569
0.501961 0.235294 0.0941176
0.623529 0.247059 0.0470588
0.745098 0.254902 0.00392157
0.858824 0.266667 0
0.141176 0.368627 0.207843
0.160784 0.372549 0.2
0.219608 0.384314 0.207843
0.313725 0.392157 0.184314
0.45098 0.415686 0.152941
0.556863 0.4 0.133333
0.670588 0.392157 0.0901961
0.780392 0.396078 0.0117647
0.886275 0.403922 0
0.2 0.533333 0.262745
0.227451 0.545098 0.270588
0.278431 0.552941 0.270588
0.356863 0.560784 0.266667
0.470588 0.568627 0.239216
0.615686 0.596078 0.196078
0.721569 0.580392 0.156863
0.823529 0.568627 0.117647
0.917647 0.560784 0.0352941
0.294118 0.694118 0.341176
0.317647 0.705882 0.34902
0.356863 0.705882 0.352941
0.427451 0.717647 0.364706
0.505882 0.717647 0.341176
0.619608 0.72549 0.313725
0.733333 0.729412 0.266667
0.854902 0.737255 0.223529
0.941176 0.729412 0.2
0.419608 0.827451 0.454902
0.435294 0.827451 0.454902
0.462745 0.831373 0.454902
0.513725 0.831373 0.466667
0.572549 0.835294 0.470588
0.65098 0.839216 0.447059
0.737255 0.839216 0.411765
0.843137 0.847059 0.376471
0.952941 0.862745 0.345098
0.572549 0.921569 0.592157
0.580392 0.921569 0.588235
0.596078 0.921569 0.592157
0.627451 0.921569 0.596078
0.670588 0.92549 0.607843
0.717647 0.92549 0.603922
0.772549 0.921569 0.580392
0.85098 0.933333 0.568627
0.921569 0.937255 0.537255
0.721569 0.980392 0.729412
0.72549 0.980392 0.729412
0.733333 0.980392 0.729412
0.752941 0.980392 0.737255
0.776471 0.980392 0.741176
0.815686 0.984314 0.760784
0.85098 0.988235 0.760784
0.882353 0.988235 0.74902
0.92549 0.992157 0.741176
0.027451 0.0588235 0.2
0.0823529 0.0588235 0.2
0.152941 0.0627451 0.203922
0.254902 0.0235294 0.207843
0.360784 0 0.192157
0.454902 0 0.160784
0.576471 0.00392157 0.164706
0.709804 0.00392157 0.129412
0.835294 0.0117647 0.0627451
0.054902 0.129412 0.219608
0.105882 0.129412 0.219608
0.180392 0.133333 0.219608
0.270588 0.121569 0.219608
0.368627 0.0862745 0.196078
0.478431 0.105882 0.188235
0.596078 0.0941176 0.172549
0.721569 0.0745098 0.133333
0.839216 0.0862745 0.0627451
0.109804 0.227451 0.239216
0.145098 0.231373 0.243137
0.203922 0.235294 0.247059
0.298039 0.235294 0.239216
0.392157 0.231373 0.223529
0.501961 0.231373 0.203922
0.623529 0.235294 0.184314
0.745098 0.239216 0.156863
0.862745 0.25098 0.0941176
0.176471 0.368627 0.286275
0.207843 0.380392 0.298039
0.254902 0.388235 0.294118
0.333333 0.392157 0.278431
0.462745 0.407843 0.270588
0.560784 0.388235 0.247059
0.670588 0.392157 0.227451
0.784314 0.396078 0.196078
0.882353 0.396078 0.141176
0.266667 0.533333 0.356863
0.278431 0.537255 0.352941
0.309804 0.54902 0.34902
0.380392 0.552941 0.345098
0.486275 0.572549 0.329412
0.623529 0.592157 0.301961
0.721569 0.572549 0.27451
0.823529 0.560784 0.25098
0.909804 0.552941 0.211765
0.341176 0.690196 0.415686
0.352941 0.698039 0.415686
0.388235 0.701961 0.415686
0.447059 0.709804 0.423529
0.529412 0.717647 0.419608
0.627451 0.721569 0.392157
0.752941 0.737255 0.360784
0.858824 0.733333 0.333333
0.933333 0.721569 0.305882
0.45098 0.823529 0.501961
0.466667 0.823529 0.509804
0.494118 0.827451 0.509804
0.541176 0.831373 0.521569
0.596078 0.835294 0.529412
0.666667 0.835294 0.513725
0.752941 0.843137 0.490196
0.854902 0.847059 0.45098
0.960784 0.870588 0.439216
0.588235 0.909804 0.615686
0.603922 0.921569 0.623529
0.619608 0.917647 0.627451
0.65098 0.92549 0.639216
0.682353 0.917647 0.643137
0.733333 0.929412 0.65098
0.784314 0.929412 0.627451
0.854902 0.929412 0.611765
0.92549 0.937255 0.588235
0.737255 0.980392 0.74902
0.737255 0.980392 0.74902
0.745098 0.980392 0.74902
0.768627 0.984314 0.760784
0.792157 0.984314 0.764706
0.823529 0.984314 0.776471
0.854902 0.984314 0.776471
0.894118 0.992157 0.772549
0.92549 0.992157 0.756863
0.0117647 0.0745098 0.321569
0.0784314 0.0823529 0.32549
0.172549 0.0901961 0.32549
0.266667 0.0784314 0.329412
0.380392 0.0117647 0.333333
0.494118 0 0.317647
0.603922 0 0.290196
0.713725 0 0.243137
0.823529 0 0.231373
0.0431373 0.141176 0.333333
0.109804 0.145098 0.337255
0.196078 0.14902 0.337255
0.278431 0.145098 0.341176
0.403922 0.113725 0.34902
0.517647 0.0509804 0.329412
0.623529 0.00392157 0.298039
0.733333 0 0.266667
0.843137 0.0117647 0.243137
0.113725 0.243137 0.34902
0.160784 0.254902 0.364706
0.219608 0.247059 0.360784
0.317647 0.254902 0.364706
0.431373 0.243137 0.368627
0.529412 0.219608 0.337255
0.635294 0.223529 0.317647
0.741176 0.219608 0.290196
0.858824 0.215686 0.258824
0.184314 0.372549 0.380392
0.219608 0.380392 0.388235
0.278431 0.388235 0.4
0.364706 0.396078 0.403922
0.462745 0.392157 0.392157
0.560784 0.384314 0.372549
0.662745 0.376471 0.34902
0.784314 0.388235 0.329412
0.890196 0.388235 0.298039
0.290196 0.533333 0.443137
0.309804 0.537255 0.443137
0.360784 0.541176 0.447059
0.419608 0.552941 0.454902
0.505882 0.564706 0.443137
0.627451 0.576471 0.427451
0.72549 0.560784 0.403922
0.811765 0.545098 0.380392
0.905882 0.545098 0.345098
0.396078 0.686275 0.509804
0.415686 0.694118 0.513725
0.458824 0.698039 0.52549
0.486275 0.705882 0.509804
0.556863 0.713725 0.517647
0.643137 0.717647 0.498039
0.772549 0.745098 0.470588
0.85098 0.721569 0.447059
0.929412 0.709804 0.423529
0.521569 0.815686 0.596078
0.52549 0.811765 0.592157
0.541176 0.819608 0.584314
0.576471 0.827451 0.592157
0.627451 0.827451 0.596078
0.682353 0.835294 0.588235
0.764706 0.843137 0.572549
0.862745 0.85098 0.54902
0.94902 0.854902 0.52549
0.631373 0.909804 0.67451
0.639216 0.917647 0.682353
0.643137 0.913725 0.67451
0.67451 0.917647 0.682353
0.709804 0.921569 0.694118
0.752941 0.921569 0.701961
0.803922 0.92549 0.686275
0.862745 0.929412 0.662745
0.929412 0.933333 0.643137
0.74902 0.980392 0.780392
0.756863 0.980392 0.784314
0.760784 0.980392 0.780392
0.784314 0.980392 0.788235
0.807843 0.984314 0.796078
0.835294 0.984314 0.8
0.866667 0.988235 0.807843
0.894118 0.988235 0.792157
0.941176 0.992157 0.792157
0.00784314 0.0980392 0.45098
0.0745098 0.101961 0.454902
0.184314 0.105882 0.45098
0.294118 0.121569 0.454902
0.388235 0.0862745 0.454902
0.517647 0.0117647 0.466667
0.654902 0 0.47451
0.752941 0 0.439216
0.85098 0 0.396078
0.0470588 0.156863 0.458824
0.113725 0.156863 0.462745
0.203922 0.160784 0.462745
0.305882 0.172549 0.466667
0.415686 0.164706 0.478431
0.537255 0.117647 0.486275
0.67451 0.0588235 0.486275
0.768627 0.00392157 0.447059
0.866667 0 0.403922
0.0980392 0.243137 0.470588
0.160784 0.254902 0.482353
0.239216 0.258824 0.482353
0.341176 0.27451 0.490196
0.443137 0.27451 0.494118
0.552941 0.254902 0.498039
0.682353 0.239216 0.494118
0.772549 0.196078 0.447059
0.870588 0.113725 0.403922
0.2 0.388235 0.490196
0.231373 0.396078 0.501961
0.298039 0.4 0.509804
0.380392 0.4 0.517647
0.486275 0.411765 0.521569
0.6 0.407843 0.52549
0.690196 0.380392 0.494118
0.776471 0.341176 0.439216
0.87451 0.34902 0.419608
0.298039 0.533333 0.533333
0.32549 0.541176 0.545098
0.368627 0.541176 0.545098
0.443137 0.54902 0.552941
0.533333 0.556863 0.556863
0.627451 0.556863 0.54902
0.713725 0.541176 0.521569
0.803922 0.529412 0.490196
0.901961 0.529412 0.462745
0.407843 0.67451 0.584314
0.431373 0.686275 0.592157
0.47451 0.690196 0.6
0.52549 0.694118 0.607843
0.592157 0.709804 0.615686
0.658824 0.709804 0.6
0.772549 0.721569 0.588235
0.847059 0.705882 0.564706
0.92549 0.698039 0.541176
0.529412 0.807843 0.65098
0.552941 0.819608 0.666667
0.576471 0.819608 0.666667
0.619608 0.815686 0.670588
0.65098 0.827451 0.666667
0.713725 0.835294 0.67451
0.776471 0.839216 0.662745
0.882353 0.854902 0.643137
0.945098 0.843137 0.623529
0.65098 0.909804 0.729412
0.662745 0.909804 0.733333
0.686275 0.909804 0.741176
0.705882 0.913725 0.741176
0.737255 0.921569 0.741176
0.772549 0.917647 0.74902
0.819608 0.92549 0.74902
0.87451 0.929412 0.729412
0.945098 0.937255 0.721569
0.784314 0.976471 0.823529
0.788235 0.980392 0.827451
0.796078 0.980392 0.827451
0.796078 0.976471 0.811765
0.819608 0.980392 0.823529
0.847059 0.984314 0.831373
0.878431 0.984314 0.839216
0.905882 0.988235 0.835294
0.945098 0.992157 0.827451
0.0392157 0.121569 0.568627
0.117647 0.129412 0.580392
0.211765 0.133333 0.580392
0.317647 0.145098 0.584314
0.423529 0.156863 0.584314
0.529412 0.117647 0.596078
0.658824 0.054902 0.615686
0.784314 0.0235294 0.619608
0.882353 0.00392157 0.6
0.0784314 0.172549 0.576471
0.145098 0.180392 0.592157
0.231373 0.188235 0.596078
0.337255 0.196078 0.603922
0.45098 0.211765 0.607843
0.552941 0.192157 0.615686
0.670588 0.14902 0.619608
0.803922 0.141176 0.631373
0.890196 0.0745098 0.603922
0.14902 0.262745 0.596078
0.192157 0.270588 0.607843
0.258824 0.27451 0.607843
0.364706 0.286275 0.615686
0.470588 0.301961 0.615686
0.572549 0.301961 0.627451
0.690196 0.286275 0.635294
0.811765 0.286275 0.643137
0.898039 0.254902 0.611765
0.247059 0.403922 0.615686
0.270588 0.407843 0.631373
0.305882 0.396078 0.631373
0.396078 0.403922 0.631373
0.505882 0.431373 0.647059
0.603922 0.431373 0.647059
0.709804 0.423529 0.654902
0.819608 0.423529 0.65098
0.901961 0.388235 0.611765
0.321569 0.54902 0.643137
0.337255 0.545098 0.643137
0.376471 0.54902 0.647059
0.45098 0.552941 0.65098
0.537255 0.552941 0.666667
0.647059 0.576471 0.678431
0.745098 0.572549 0.678431
0.823529 0.537255 0.643137
0.894118 0.490196 0.588235
0.427451 0.682353 0.682353
0.443137 0.686275 0.682353
0.47451 0.682353 0.686275
0.533333 0.690196 0.690196
0.6 0.694118 0.694118
0.686275 0.701961 0.705882
0.752941 0.694118 0.682353
0.835294 0.682353 0.662745
0.913725 0.670588 0.635294
0.556863 0.811765 0.733333
0.560784 0.807843 0.72549
0.584314 0.811765 0.72549
0.623529 0.807843 0.729412
0.682353 0.819608 0.741176
0.737255 0.827451 0.74902
0.8 0.835294 0.752941
0.882353 0.843137 0.737255
0.945098 0.831373 0.721569
0.682353 0.921569 0.792157
0.67451 0.905882 0.780392
0.698039 0.913725 0.792157
0.72549 0.917647 0.8
0.764706 0.917647 0.803922
0.803922 0.921569 0.811765
0.839216 0.917647 0.807843
0.890196 0.92549 0.8
0.952941 0.937255 0.792157
0.784314 0.980392 0.85098
0.788235 0.980392 0.85098
0.796078 0.980392 0.85098
0.815686 0.980392 0.854902
0.843137 0.980392 0.862745
0.866667 0.984314 0.870588
0.898039 0.988235 0.878431
0.921569 0.988235 0.87451
0.956863 0.992157 0.870588
0.141176 0.160784 0.694118
0.192157 0.168627 0.709804
0.262745 0.172549 0.709804
0.356863 0.180392 0.709804
0.462745 0.2 0.717647
0.576471 0.227451 0.729412
0.682353 0.203922 0.741176
0.776471 0.172549 0.737255
0.890196 0.192157 0.74902
0.164706 0.207843 0.709804
0.215686 0.215686 0.729412
0.282353 0.223529 0.729412
0.372549 0.227451 0.729412
0.486275 0.247059 0.741176
0.592157 0.270588 0.745098
0.690196 0.25098 0.752941
0.8 0.243137 0.756863
0.905882 0.258824 0.764706
0.211765 0.290196 0.721569
0.247059 0.298039 0.737255
0.313725 0.305882 0.741176
0.4 0.313725 0.741176
0.501961 0.333333 0.74902
0.607843 0.352941 0.745098
0.705882 0.34902 0.760784
0.803922 0.345098 0.760784
0.909804 0.356863 0.764706
0.254902 0.4 0.737255
0.294118 0.411765 0.752941
0.34902 0.419608 0.752941
0.431373 0.423529 0.74902
0.52549 0.443137 0.756863
0.627451 0.466667 0.752941
0.721569 0.470588 0.772549
0.815686 0.470588 0.776471
0.909804 0.470588 0.768627
0.380392 0.568627 0.756863
0.396078 0.568627 0.756863
0.435294 0.568627 0.756863
0.458824 0.541176 0.760784
0.552941 0.556863 0.768627
0.658824 0.580392 0.772549
0.745098 0.596078 0.780392
0.835294 0.592157 0.784314
0.917647 0.596078 0.784314
0.443137 0.682353 0.764706
0.458824 0.686275 0.772549
0.490196 0.694118 0.776471
0.529412 0.690196 0.768627
0.603922 0.690196 0.780392
0.686275 0.694118 0.784314
0.776471 0.717647 0.8
0.854902 0.717647 0.803922
0.917647 0.690196 0.776471
0.552941 0.8 0.796078
0.568627 0.803922 0.803922
0.588235 0.8 0.8
0.623529 0.803922 0.796078
0.67451 0.807843 0.803922
0.737255 0.807843 0.807843
0.815686 0.823529 0.819608
0.866667 0.811765 0.807843
0.933333 0.803922 0.788235
0.670588 0.898039 0.831373
0.690196 0.901961 0.839216
0.698039 0.905882 0.835294
0.733333 0.905882 0.843137
0.768627 0.913725 0.847059
0.807843 0.913725 0.854902
0.858824 0.92549 0.862745
0.894118 0.921569 0.858824
0.960784 0.933333 0.858824
0.792157 0.980392 0.886275
0.8 0.980392 0.890196
0.803922 0.976471 0.886275
0.827451 0.980392 0.894118
0.843137 0.980392 0.890196
0.87451 0.980392 0.898039
0.901961 0.984314 0.905882
0.929412 0.988235 0.909804
0.960784 0.988235 0.905882
0.270588 0.231373 0.815686
0.301961 0.243137 0.831373
0.352941 0.25098 0.835294
0.431373 0.258824 0.835294
0.521569 0.282353 0.843137
0.627451 0.313725 0.847059
0.713725 0.333333 0.847059
0.811765 0.32549 0.858824
0.890196 0.313725 0.858824
0.294118 0.278431 0.847059
0.32549 0.290196 0.858824
0.368627 0.286275 0.85098
0.447059 0.301961 0.858824
0.541176 0.317647 0.858824
0.639216 0.352941 0.862745
0.729412 0.376471 0.862745
0.819608 0.360784 0.870588
0.898039 0.352941 0.870588
0.317647 0.34902 0.847059
0.345098 0.360784 0.858824
0.396078 0.360784 0.858824
0.470588 0.376471 0.862745
0.54902 0.388235 0.858824
0.65098 0.423529 0.862745
0.741176 0.443137 0.866667
0.819608 0.427451 0.866667
0.901961 0.427451 0.870588
0.352941 0.443137 0.85098
0.376471 0.45098 0.858824
0.423529 0.458824 0.862745
0.490196 0.466667 0.862745
0.580392 0.486275 0.866667
0.670588 0.513725 0.870588
0.756863 0.541176 0.870588
0.823529 0.52549 0.870588
0.898039 0.52549 0.870588
0.431373 0.576471 0.854902
0.447059 0.580392 0.866667
0.454902 0.560784 0.866667
0.517647 0.572549 0.870588
0.592157 0.584314 0.866667
0.686275 0.603922 0.866667
0.772549 0.631373 0.870588
0.847059 0.635294 0.878431
0.909804 0.631373 0.878431
0.498039 0.701961 0.858824
0.513725 0.705882 0.862745
0.545098 0.709804 0.866667
0.596078 0.709804 0.870588
0.619608 0.690196 0.870588
0.694118 0.698039 0.870588
0.788235 0.72549 0.878431
0.862745 0.737255 0.890196
0.92549 0.737255 0.890196
0.580392 0.807843 0.87451
0.592157 0.815686 0.882353
0.603922 0.807843 0.87451
0.635294 0.815686 0.878431
0.678431 0.807843 0.882353
0.729412 0.803922 0.870588
0.803922 0.807843 0.886275
0.882353 0.831373 0.898039
0.945098 0.835294 0.901961
0.682353 0.901961 0.898039
0.690196 0.905882 0.894118
0.705882 0.901961 0.898039
0.729412 0.901961 0.898039
0.760784 0.901961 0.901961
0.803922 0.905882 0.901961
0.85098 0.905882 0.905882
0.909804 0.917647 0.913725
0.952941 0.905882 0.901961
0.796078 0.976471 0.92549
0.803922 0.976471 0.929412
0.815686 0.980392 0.937255
0.835294 0.984314 0.937255
0.854902 0.980392 0.937255
0.882353 0.984314 0.937255
0.909804 0.984314 0.937255
0.94902 0.988235 0.952941
0.972549 0.988235 0.94902
0.431373 0.376471 0.929412
0.458824 0.392157 0.941176
0.490196 0.396078 0.941176
0.545098 0.411765 0.945098
0.611765 0.427451 0.941176
0.690196 0.454902 0.937255
0.768627 0.494118 0.941176
0.835294 0.505882 0.941176
0.901961 0.494118 0.94902
0.458824 0.411765 0.94902
0.47451 0.419608 0.960784
0.509804 0.431373 0.956863
0.556863 0.435294 0.94902
0.623529 0.454902 0.952941
0.701961 0.482353 0.952941
0.784314 0.521569 0.952941
0.847059 0.533333 0.94902
0.913725 0.521569 0.952941
0.478431 0.470588 0.952941
0.494118 0.470588 0.952941
0.521569 0.478431 0.956863
0.576471 0.490196 0.956863
0.643137 0.509804 0.952941
0.717647 0.533333 0.956863
0.788235 0.564706 0.952941
0.854902 0.580392 0.94902
0.909804 0.564706 0.952941
0.509804 0.54902 0.956863
0.517647 0.54902 0.956863
0.545098 0.556863 0.952941
0.596078 0.564706 0.952941
0.658824 0.580392 0.952941
0.729412 0.6 0.956863
0.8 0.631373 0.952941
0.854902 0.639216 0.94902
0.917647 0.631373 0.956863
0.533333 0.627451 0.956863
0.537255 0.623529 0.956863
0.564706 0.635294 0.956863
0.615686 0.643137 0.960784
0.670588 0.654902 0.956863
0.745098 0.67451 0.956863
0.807843 0.694118 0.956863
0.87451 0.717647 0.960784
0.929412 0.705882 0.960784
0.662745 0.780392 0.964706
0.658824 0.772549 0.956863
0.658824 0.760784 0.956863
0.658824 0.741176 0.960784
0.686275 0.72549 0.960784
0.756863 0.745098 0.960784
0.823529 0.764706 0.964706
0.894118 0.788235 0.960784
0.945098 0.780392 0.964706
0.67451 0.85098 0.964706
0.678431 0.85098 0.960784
0.690196 0.847059 0.960784
0.713725 0.847059 0.960784
0.74902 0.839216 0.960784
0.776471 0.827451 0.964706
0.827451 0.827451 0.964706
0.898039 0.847059 0.964706
0.94902 0.85098 0.964706
0.760784 0.929412 0.972549
0.768627 0.933333 0.976471
0.768627 0.92549 0.972549
0.784314 0.929412 0.976471
0.796078 0.92549 0.972549
0.815686 0.917647 0.972549
0.854902 0.913725 0.972549
0.909804 0.909804 0.972549
0.968627 0.92549 0.976471
0.831373 0.984314 0.984314
0.843137 0.984314 0.984314
0.847059 0.984314 0.984314
0.854902 0.984314 0.984314
0.870588 0.984314 0.984314
0.890196 0.984314 0.984314
0.909804 0.984314 0.984314
0.94902 0.984314 0.984314
0.984314 0.988235 0.988235
