resources/LUTs/LUT Colour Grades (cube)/Film_Warm.cube
#Generated by Picture Instruments - Look Creator
TITLE "Fuji 160SWarm"
LUT_3D_SIZE 17
0 0 0
0.0431373 0 0
0.0745098 0.00784314 0
0.105882 0.0235294 0
0.145098 0.0392157 0
0.180392 0.0313725 0
0.231373 0.0352941 0
0.286275 0.0235294 0
0.345098 0.0156863 0
0.403922 0.00784314 0
0.462745 0.00392157 0
0.529412 0.0117647 0
0.596078 0.00392157 0
0.666667 0.00392157 0
0.733333 0.00784314 0
0.796078 0.0156863 0
0.854902 0.027451 0
0.0196078 0.0666667 0.0196078
0.054902 0.0666667 0.0156863
0.0823529 0.0705882 0.00392157
0.117647 0.0745098 0
0.14902 0.0745098 0
0.192157 0.0705882 0
0.239216 0.0627451 0
0.301961 0.0666667 0
0.360784 0.0509804 0
0.419608 0.0392157 0
0.482353 0.027451 0
0.541176 0.0235294 0
0.607843 0.0235294 0
0.67451 0.0235294 0
0.741176 0.027451 0
0.803922 0.0431373 0
0.862745 0.0666667 0
0.0470588 0.109804 0.0431373
0.0588235 0.109804 0.0431373
0.0941176 0.113725 0.0352941
0.12549 0.117647 0.0235294
0.160784 0.113725 0.0156863
0.207843 0.113725 0.00784314
0.254902 0.109804 0
0.305882 0.105882 0
0.368627 0.105882 0
0.431373 0.0980392 0
0.490196 0.0862745 0
0.552941 0.0784314 0
0.615686 0.0745098 0
0.690196 0.0941176 0
0.752941 0.0980392 0
0.811765 0.101961 0
0.866667 0.113725 0
0.0588235 0.156863 0.0588235
0.0862745 0.164706 0.0666667
0.101961 0.164706 0.0588235
0.129412 0.168627 0.0470588
0.184314 0.172549 0.0313725
0.227451 0.168627 0.0235294
0.27451 0.160784 0.00784314
0.333333 0.160784 0.00392157
0.388235 0.160784 0
0.447059 0.152941 0
0.509804 0.156863 0
0.564706 0.14902 0
0.631373 0.152941 0
0.694118 0.152941 0
0.760784 0.160784 0
0.819608 0.172549 0
0.87451 0.184314 0
0.0784314 0.211765 0.0745098
0.0941176 0.219608 0.0745098
0.117647 0.223529 0.0784314
0.145098 0.227451 0.0705882
0.192157 0.227451 0.0588235
0.243137 0.227451 0.0352941
0.305882 0.235294 0.0196078
0.356863 0.227451 0.00784314
0.415686 0.223529 0.00392157
0.470588 0.215686 0
0.529412 0.219608 0
0.588235 0.219608 0
0.65098 0.223529 0
0.709804 0.223529 0
0.772549 0.235294 0
0.831373 0.243137 0
0.886275 0.25098 0
0.105882 0.282353 0.0941176
0.121569 0.286275 0.0941176
0.137255 0.286275 0.0901961
0.168627 0.294118 0.0980392
0.203922 0.294118 0.0823529
0.258824 0.301961 0.0627451
0.317647 0.305882 0.0392157
0.392157 0.317647 0.0117647
0.443137 0.309804 0.00392157
0.501961 0.301961 0
0.552941 0.294118 0
0.611765 0.290196 0
0.670588 0.294118 0
0.733333 0.301961 0
0.788235 0.305882 0
0.843137 0.309804 0
0.894118 0.317647 0
0.141176 0.360784 0.117647
0.156863 0.368627 0.121569
0.176471 0.372549 0.121569
0.196078 0.372549 0.117647
0.239216 0.380392 0.121569
0.278431 0.380392 0.0980392
0.333333 0.384314 0.0745098
0.396078 0.384314 0.0313725
0.47451 0.4 0.00392157
0.529412 0.396078 0.00392157
0.584314 0.388235 0
0.635294 0.376471 0
0.701961 0.380392 0
0.756863 0.376471 0
0.811765 0.380392 0
0.862745 0.388235 0
0.913725 0.396078 0
0.180392 0.443137 0.141176
0.196078 0.45098 0.145098
0.211765 0.45098 0.145098
0.231373 0.45098 0.145098
0.266667 0.458824 0.145098
0.305882 0.462745 0.141176
0.356863 0.466667 0.121569
0.411765 0.466667 0.0901961
0.486275 0.482353 0.0627451
0.564706 0.494118 0.00392157
0.619608 0.486275 0.00392157
0.670588 0.478431 0
0.72549 0.47451 0
0.776471 0.466667 0
0.831373 0.462745 0
0.87451 0.462745 0
0.921569 0.466667 0
0.227451 0.52549 0.172549
0.243137 0.537255 0.180392
0.25098 0.537255 0.180392
0.278431 0.541176 0.180392
0.305882 0.545098 0.180392
0.337255 0.54902 0.180392
0.388235 0.552941 0.168627
0.439216 0.556863 0.14902
0.498039 0.560784 0.12549
0.560784 0.564706 0.0784314
0.639216 0.576471 0.0235294
0.701961 0.580392 0
0.74902 0.572549 0
0.796078 0.560784 0
0.843137 0.552941 0
0.894118 0.54902 0
0.937255 0.54902 0
0.278431 0.615686 0.215686
0.286275 0.619608 0.215686
0.301961 0.623529 0.219608
0.32549 0.627451 0.223529
0.345098 0.627451 0.219608
0.376471 0.631373 0.219608
0.411765 0.631373 0.215686
0.462745 0.635294 0.203922
0.521569 0.639216 0.188235
0.572549 0.647059 0.164706
0.631373 0.643137 0.121569
0.701961 0.647059 0.0666667
0.780392 0.670588 0.0156863
0.823529 0.658824 0.00392157
0.866667 0.65098 0
0.905882 0.643137 0
0.941176 0.635294 0
0.333333 0.694118 0.258824
0.341176 0.698039 0.262745
0.352941 0.701961 0.262745
0.372549 0.701961 0.266667
0.388235 0.698039 0.262745
0.419608 0.701961 0.266667
0.454902 0.705882 0.270588
0.494118 0.705882 0.262745
0.541176 0.713725 0.25098
0.592157 0.717647 0.235294
0.647059 0.721569 0.211765
0.701961 0.717647 0.180392
0.764706 0.721569 0.137255
0.843137 0.745098 0.0627451
0.878431 0.733333 0.0313725
0.92549 0.729412 0.0196078
0.952941 0.721569 0.00392157
0.403922 0.776471 0.32549
0.403922 0.772549 0.321569
0.411765 0.768627 0.321569
0.427451 0.768627 0.32549
0.447059 0.772549 0.32549
0.466667 0.772549 0.32549
0.494118 0.768627 0.321569
0.52549 0.772549 0.32549
0.572549 0.780392 0.317647
0.615686 0.776471 0.301961
0.666667 0.788235 0.290196
0.713725 0.780392 0.262745
0.768627 0.784314 0.243137
0.819608 0.788235 0.211765
0.898039 0.811765 0.168627
0.933333 0.803922 0.145098
0.960784 0.8 0.121569
0.47451 0.839216 0.392157
0.47451 0.835294 0.388235
0.478431 0.835294 0.388235
0.486275 0.831373 0.388235
0.501961 0.831373 0.388235
0.521569 0.827451 0.388235
0.54902 0.831373 0.392157
0.568627 0.831373 0.388235
0.6 0.827451 0.388235
0.643137 0.835294 0.376471
0.682353 0.839216 0.364706
0.72549 0.835294 0.34902
0.772549 0.839216 0.333333
0.815686 0.839216 0.309804
0.870588 0.843137 0.286275
0.941176 0.866667 0.258824
0.968627 0.866667 0.243137
0.545098 0.886275 0.462745
0.537255 0.878431 0.454902
0.545098 0.882353 0.462745
0.552941 0.878431 0.454902
0.564706 0.87451 0.454902
0.580392 0.878431 0.454902
0.6 0.878431 0.462745
0.619608 0.878431 0.462745
0.65098 0.878431 0.47451
0.678431 0.878431 0.466667
0.709804 0.878431 0.454902
0.74902 0.882353 0.439216
0.788235 0.886275 0.427451
0.819608 0.882353 0.4
0.87451 0.894118 0.392157
0.913725 0.898039 0.372549
0.960784 0.905882 0.352941
0.623529 0.92549 0.545098
0.619608 0.92549 0.537255
0.615686 0.917647 0.533333
0.623529 0.921569 0.537255
0.631373 0.917647 0.533333
0.647059 0.921569 0.537255
0.662745 0.921569 0.541176
0.67451 0.917647 0.537255
0.701961 0.917647 0.54902
0.721569 0.921569 0.552941
0.74902 0.921569 0.545098
0.776471 0.92549 0.537255
0.803922 0.92549 0.521569
0.843137 0.933333 0.517647
0.870588 0.921569 0.490196
0.898039 0.92549 0.47451
0.941176 0.933333 0.466667
0.694118 0.960784 0.627451
0.682353 0.94902 0.611765
0.686275 0.952941 0.611765
0.694118 0.952941 0.611765
0.698039 0.952941 0.611765
0.713725 0.956863 0.623529
0.721569 0.952941 0.619608
0.737255 0.952941 0.627451
0.74902 0.952941 0.627451
0.768627 0.952941 0.635294
0.792157 0.952941 0.639216
0.811765 0.956863 0.631373
0.831373 0.956863 0.623529
0.858824 0.960784 0.615686
0.878431 0.960784 0.603922
0.909804 0.960784 0.592157
0.929412 0.960784 0.576471
0.752941 0.976471 0.694118
0.74902 0.972549 0.682353
0.752941 0.976471 0.686275
0.752941 0.976471 0.686275
0.764706 0.976471 0.690196
0.772549 0.980392 0.694118
0.780392 0.980392 0.698039
0.796078 0.976471 0.701961
0.807843 0.980392 0.709804
0.823529 0.984314 0.717647
0.835294 0.980392 0.721569
0.854902 0.984314 0.72549
0.866667 0.984314 0.717647
0.886275 0.988235 0.717647
0.905882 0.988235 0.717647
0.92549 0.992157 0.709804
0.937255 0.992157 0.698039
0.0117647 0.0117647 0.0509804
0.054902 0.0156863 0.054902
0.0862745 0.0156863 0.0588235
0.105882 0.0196078 0.0392157
0.14902 0.0509804 0.054902
0.192157 0.0431373 0.0431373
0.239216 0.0392157 0.0352941
0.298039 0.0352941 0.027451
0.34902 0.0196078 0.00784314
0.411765 0.00784314 0
0.47451 0.00392157 0
0.529412 0.00392157 0
0.596078 0.00392157 0
0.670588 0.00784314 0
0.737255 0.00392157 0
0.8 0.0117647 0
0.862745 0.0235294 0
0.0392157 0.0705882 0.0588235
0.0627451 0.0705882 0.0588235
0.0901961 0.0705882 0.0588235
0.117647 0.0745098 0.0588235
0.156863 0.0784314 0.0588235
0.196078 0.0745098 0.0470588
0.25098 0.0705882 0.0392157
0.305882 0.0627451 0.027451
0.364706 0.0509804 0.0117647
0.423529 0.0352941 0.00392157
0.486275 0.0235294 0
0.545098 0.0156863 0
0.611765 0.0156863 0
0.678431 0.0156863 0
0.745098 0.0196078 0
0.807843 0.0235294 0
0.866667 0.0509804 0
0.0666667 0.113725 0.0784314
0.0784314 0.113725 0.0784314
0.101961 0.113725 0.0705882
0.133333 0.117647 0.0666667
0.168627 0.113725 0.0627451
0.219608 0.117647 0.0588235
0.262745 0.113725 0.0470588
0.313725 0.105882 0.027451
0.376471 0.109804 0.0196078
0.439216 0.0980392 0.00392157
0.494118 0.0784314 0
0.556863 0.0745098 0
0.619608 0.0627451 0
0.686275 0.0666667 0
0.74902 0.0666667 0
0.811765 0.0901961 0
0.870588 0.109804 0
0.0823529 0.156863 0.0862745
0.0941176 0.160784 0.0901961
0.105882 0.156863 0.0862745
0.133333 0.164706 0.0745098
0.192157 0.176471 0.0745098
0.231373 0.168627 0.0627451
0.282353 0.160784 0.0509804
0.337255 0.160784 0.0352941
0.392157 0.156863 0.0196078
0.45098 0.156863 0.00784314
0.509804 0.14902 0
0.568627 0.145098 0
0.635294 0.14902 0
0.698039 0.152941 0
0.760784 0.156863 0
0.819608 0.168627 0
0.87451 0.176471 0
0.0980392 0.219608 0.0980392
0.105882 0.219608 0.101961
0.121569 0.219608 0.0980392
0.156863 0.223529 0.0980392
0.196078 0.227451 0.0862745
0.254902 0.235294 0.0705882
0.305882 0.235294 0.0509804
0.360784 0.231373 0.0431373
0.415686 0.219608 0.0196078
0.470588 0.215686 0.00784314
0.537255 0.223529 0.00392157
0.592157 0.219608 0
0.65098 0.219608 0
0.717647 0.227451 0
0.776471 0.231373 0
0.831373 0.235294 0
0.886275 0.243137 0
0.121569 0.286275 0.113725
0.133333 0.290196 0.117647
0.152941 0.298039 0.121569
0.180392 0.294118 0.117647
0.211765 0.298039 0.105882
0.262745 0.305882 0.0941176
0.321569 0.301961 0.0705882
0.392157 0.313725 0.0431373
0.443137 0.305882 0.0235294
0.501961 0.301961 0.0117647
0.556863 0.294118 0.00392157
0.611765 0.290196 0
0.670588 0.290196 0
0.729412 0.294118 0
0.792157 0.305882 0
0.843137 0.305882 0
0.894118 0.313725 0
0.152941 0.364706 0.137255
0.164706 0.368627 0.137255
0.180392 0.368627 0.137255
0.207843 0.368627 0.133333
0.243137 0.376471 0.137255
0.282353 0.380392 0.12549
0.337255 0.384314 0.105882
0.403922 0.392157 0.0784314
0.482353 0.403922 0.0352941
0.533333 0.4 0.0196078
0.584314 0.388235 0.00392157
0.639216 0.376471 0
0.698039 0.376471 0
0.756863 0.376471 0
0.807843 0.376471 0
0.862745 0.384314 0
0.909804 0.388235 0
0.192157 0.443137 0.160784
0.207843 0.454902 0.164706
0.219608 0.45098 0.160784
0.243137 0.458824 0.164706
0.278431 0.462745 0.168627
0.309804 0.462745 0.156863
0.360784 0.470588 0.141176
0.419608 0.47451 0.12549
0.486275 0.478431 0.0941176
0.568627 0.494118 0.0313725
0.619608 0.490196 0.0156863
0.67451 0.482353 0.00784314
0.72549 0.47451 0
0.780392 0.466667 0
0.831373 0.462745 0
0.87451 0.462745 0
0.929412 0.470588 0
0.235294 0.529412 0.188235
0.247059 0.533333 0.196078
0.258824 0.533333 0.188235
0.282353 0.537255 0.196078
0.313725 0.545098 0.2
0.345098 0.541176 0.192157
0.388235 0.54902 0.180392
0.45098 0.556863 0.176471
0.505882 0.564706 0.152941
0.564706 0.564706 0.117647
0.643137 0.580392 0.054902
0.705882 0.580392 0.0196078
0.752941 0.572549 0.00392157
0.8 0.560784 0
0.85098 0.560784 0
0.898039 0.552941 0
0.937255 0.54902 0
0.282353 0.611765 0.227451
0.290196 0.615686 0.227451
0.309804 0.619608 0.231373
0.32549 0.619608 0.231373
0.34902 0.623529 0.235294
0.384314 0.631373 0.239216
0.419608 0.631373 0.235294
0.466667 0.635294 0.215686
0.52549 0.639216 0.207843
0.576471 0.647059 0.188235
0.639216 0.647059 0.152941
0.705882 0.654902 0.109804
0.784314 0.67451 0.054902
0.823529 0.654902 0.0196078
0.866667 0.65098 0.00784314
0.905882 0.639216 0
0.945098 0.639216 0
0.337255 0.690196 0.270588
0.34902 0.698039 0.278431
0.352941 0.694118 0.27451
0.376471 0.701961 0.278431
0.4 0.705882 0.278431
0.423529 0.701961 0.278431
0.458824 0.709804 0.286275
0.498039 0.709804 0.27451
0.541176 0.709804 0.258824
0.592157 0.709804 0.243137
0.647059 0.717647 0.223529
0.705882 0.717647 0.196078
0.768627 0.72549 0.164706
0.843137 0.745098 0.113725
0.878431 0.733333 0.0745098
0.917647 0.721569 0.0352941
0.952941 0.721569 0.0196078
0.396078 0.760784 0.32549
0.403922 0.764706 0.329412
0.419608 0.768627 0.329412
0.427451 0.764706 0.329412
0.447059 0.768627 0.333333
0.470588 0.772549 0.337255
0.501961 0.776471 0.337255
0.52549 0.768627 0.333333
0.572549 0.780392 0.333333
0.619608 0.780392 0.317647
0.662745 0.780392 0.301961
0.713725 0.780392 0.278431
0.768627 0.784314 0.254902
0.819608 0.788235 0.227451
0.901961 0.815686 0.192157
0.933333 0.803922 0.172549
0.964706 0.8 0.160784
0.462745 0.823529 0.384314
0.47451 0.823529 0.388235
0.478431 0.823529 0.388235
0.490196 0.827451 0.392157
0.501961 0.823529 0.392157
0.52549 0.831373 0.4
0.54902 0.831373 0.4
0.584314 0.835294 0.403922
0.603922 0.831373 0.4
0.643137 0.831373 0.392157
0.682353 0.835294 0.376471
0.72549 0.835294 0.360784
0.776471 0.839216 0.34902
0.819608 0.843137 0.32549
0.87451 0.847059 0.298039
0.933333 0.862745 0.27451
0.972549 0.866667 0.262745
0.52549 0.862745 0.447059
0.533333 0.870588 0.454902
0.541176 0.878431 0.458824
0.556863 0.878431 0.462745
0.568627 0.878431 0.466667
0.580392 0.87451 0.462745
0.607843 0.878431 0.470588
0.623529 0.878431 0.470588
0.65098 0.878431 0.47451
0.678431 0.878431 0.47451
0.713725 0.882353 0.462745
0.74902 0.882353 0.443137
0.788235 0.882353 0.435294
0.827451 0.886275 0.419608
0.866667 0.886275 0.4
0.909804 0.894118 0.380392
0.956863 0.905882 0.360784
0.607843 0.913725 0.533333
0.611765 0.917647 0.533333
0.615686 0.913725 0.533333
0.623529 0.917647 0.537255
0.639216 0.917647 0.541176
0.643137 0.917647 0.541176
0.662745 0.917647 0.545098
0.682353 0.921569 0.54902
0.701961 0.917647 0.552941
0.729412 0.92549 0.564706
0.74902 0.921569 0.552941
0.776471 0.921569 0.545098
0.803922 0.921569 0.529412
0.835294 0.92549 0.517647
0.87451 0.92549 0.501961
0.905882 0.933333 0.490196
0.941176 0.933333 0.47451
0.678431 0.94902 0.611765
0.682353 0.94902 0.615686
0.686275 0.94902 0.615686
0.701961 0.956863 0.623529
0.705882 0.956863 0.623529
0.713725 0.956863 0.623529
0.72549 0.952941 0.623529
0.741176 0.956863 0.631373
0.752941 0.956863 0.635294
0.768627 0.952941 0.639216
0.792157 0.952941 0.643137
0.811765 0.960784 0.643137
0.831373 0.956863 0.627451
0.858824 0.960784 0.623529
0.886275 0.964706 0.615686
0.909804 0.960784 0.6
0.933333 0.960784 0.588235
0.756863 0.980392 0.698039
0.74902 0.976471 0.690196
0.756863 0.980392 0.694118
0.760784 0.980392 0.694118
0.764706 0.976471 0.694118
0.776471 0.976471 0.698039
0.784314 0.980392 0.701961
0.8 0.980392 0.713725
0.811765 0.980392 0.713725
0.827451 0.980392 0.721569
0.835294 0.980392 0.721569
0.85098 0.984314 0.72549
0.87451 0.988235 0.729412
0.882353 0.984314 0.717647
0.905882 0.988235 0.717647
0.92549 0.988235 0.713725
0.945098 0.988235 0.705882
0.0392157 0.0313725 0.0941176
0.0666667 0.0352941 0.0901961
0.0862745 0.0352941 0.0901961
0.121569 0.0313725 0.0901961
0.156863 0.0313725 0.0862745
0.2 0.0235294 0.0784314
0.247059 0.0313725 0.0784314
0.301961 0.0196078 0.0705882
0.356863 0.0117647 0.0627451
0.419608 0.00784314 0.0470588
0.470588 0.00392157 0.0196078
0.537255 0.00392157 0.0117647
0.603922 0 0
0.662745 0 0
0.737255 0.00392157 0
0.803922 0.00392157 0
0.862745 0.00392157 0
0.0509804 0.0823529 0.0980392
0.0784314 0.0823529 0.101961
0.0980392 0.0784314 0.0980392
0.12549 0.0745098 0.0941176
0.164706 0.0705882 0.0862745
0.207843 0.0784314 0.0901961
0.262745 0.0745098 0.0862745
0.313725 0.0627451 0.0784314
0.372549 0.0509804 0.0705882
0.435294 0.0313725 0.054902
0.494118 0.0196078 0.0313725
0.545098 0.00392157 0.00392157
0.611765 0.00784314 0.00392157
0.678431 0.00784314 0
0.745098 0.00784314 0
0.807843 0.0117647 0
0.866667 0.0352941 0
0.0745098 0.117647 0.101961
0.0862745 0.113725 0.105882
0.109804 0.117647 0.105882
0.141176 0.121569 0.105882
0.180392 0.121569 0.101961
0.219608 0.113725 0.0941176
0.266667 0.109804 0.0862745
0.32549 0.109804 0.0823529
0.380392 0.101961 0.0705882
0.435294 0.0823529 0.0431373
0.501961 0.0784314 0.0313725
0.556863 0.0627451 0.0117647
0.623529 0.0509804 0
0.682353 0.0470588 0
0.756863 0.0627451 0
0.811765 0.0666667 0
0.870588 0.0901961 0
0.0980392 0.160784 0.117647
0.109804 0.160784 0.121569
0.117647 0.160784 0.105882
0.152941 0.168627 0.113725
0.196078 0.168627 0.105882
0.235294 0.160784 0.101961
0.290196 0.164706 0.0941176
0.345098 0.160784 0.0862745
0.396078 0.156863 0.0705882
0.454902 0.152941 0.054902
0.513725 0.14902 0.0313725
0.572549 0.14902 0.0117647
0.635294 0.141176 0.00392157
0.701961 0.14902 0
0.760784 0.145098 0
0.823529 0.160784 0
0.870588 0.160784 0
0.121569 0.215686 0.129412
0.133333 0.223529 0.137255
0.145098 0.223529 0.12549
0.168627 0.223529 0.12549
0.207843 0.231373 0.121569
0.258824 0.235294 0.101961
0.313725 0.235294 0.101961
0.364706 0.227451 0.0901961
0.423529 0.223529 0.0823529
0.478431 0.223529 0.0627451
0.533333 0.215686 0.0313725
0.592157 0.215686 0.0117647
0.654902 0.223529 0
0.717647 0.223529 0
0.776471 0.223529 0
0.831373 0.231373 0
0.886275 0.235294 0
0.145098 0.282353 0.14902
0.152941 0.290196 0.145098
0.168627 0.294118 0.145098
0.192157 0.294118 0.145098
0.231373 0.301961 0.145098
0.27451 0.301961 0.133333
0.329412 0.305882 0.117647
0.396078 0.313725 0.101961
0.45098 0.305882 0.0901961
0.501961 0.298039 0.0666667
0.560784 0.294118 0.0431373
0.619608 0.294118 0.0196078
0.67451 0.294118 0.00784314
0.733333 0.294118 0
0.8 0.305882 0
0.847059 0.305882 0
0.898039 0.313725 0
0.176471 0.360784 0.164706
0.184314 0.368627 0.164706
0.196078 0.364706 0.160784
0.215686 0.368627 0.160784
0.254902 0.376471 0.168627
0.298039 0.380392 0.156863
0.345098 0.384314 0.141176
0.407843 0.388235 0.12549
0.486275 0.403922 0.101961
0.537255 0.396078 0.0823529
0.592157 0.388235 0.0588235
0.639216 0.372549 0.0235294
0.701961 0.376471 0.0117647
0.760784 0.376471 0.00392157
0.807843 0.376471 0
0.866667 0.384314 0
0.909804 0.384314 0
0.211765 0.447059 0.188235
0.219608 0.45098 0.192157
0.231373 0.45098 0.188235
0.254902 0.454902 0.192157
0.282353 0.458824 0.188235
0.321569 0.462745 0.188235
0.376471 0.470588 0.180392
0.427451 0.470588 0.160784
0.494118 0.478431 0.141176
0.572549 0.494118 0.101961
0.623529 0.486275 0.0862745
0.67451 0.47451 0.0431373
0.729412 0.470588 0.0235294
0.788235 0.470588 0.00784314
0.835294 0.466667 0.00392157
0.878431 0.462745 0
0.92549 0.466667 0
0.247059 0.52549 0.211765
0.258824 0.533333 0.215686
0.27451 0.537255 0.219608
0.294118 0.537255 0.223529
0.32549 0.545098 0.223529
0.352941 0.545098 0.223529
0.396078 0.552941 0.215686
0.447059 0.552941 0.2
0.505882 0.560784 0.184314
0.572549 0.564706 0.160784
0.65098 0.584314 0.12549
0.701961 0.576471 0.0823529
0.752941 0.572549 0.054902
0.8 0.560784 0.027451
0.85098 0.556863 0.0117647
0.901961 0.552941 0
0.937255 0.54902 0
0.294118 0.607843 0.247059
0.309804 0.615686 0.254902
0.317647 0.619608 0.254902
0.333333 0.623529 0.254902
0.364706 0.623529 0.254902
0.392157 0.623529 0.254902
0.427451 0.627451 0.258824
0.47451 0.635294 0.247059
0.52549 0.635294 0.227451
0.580392 0.643137 0.215686
0.643137 0.647059 0.184314
0.713725 0.658824 0.160784
0.776471 0.662745 0.109804
0.827451 0.662745 0.0980392
0.866667 0.65098 0.054902
0.909804 0.639216 0.0235294
0.94902 0.639216 0.00392157
0.34902 0.686275 0.290196
0.356863 0.694118 0.294118
0.368627 0.698039 0.298039
0.388235 0.705882 0.305882
0.407843 0.701961 0.301961
0.435294 0.701961 0.301961
0.47451 0.713725 0.309804
0.509804 0.713725 0.305882
0.54902 0.713725 0.290196
0.6 0.717647 0.27451
0.65098 0.721569 0.258824
0.713725 0.721569 0.231373
0.772549 0.72549 0.203922
0.847059 0.745098 0.168627
0.878431 0.733333 0.141176
0.921569 0.72549 0.117647
0.960784 0.72549 0.0980392
0.403922 0.760784 0.345098
0.415686 0.764706 0.34902
0.423529 0.764706 0.34902
0.439216 0.768627 0.352941
0.462745 0.776471 0.356863
0.486275 0.772549 0.356863
0.509804 0.772549 0.356863
0.545098 0.776471 0.360784
0.580392 0.772549 0.34902
0.623529 0.780392 0.337255
0.666667 0.780392 0.321569
0.717647 0.780392 0.301961
0.772549 0.780392 0.282353
0.819608 0.784314 0.25098
0.901961 0.815686 0.231373
0.933333 0.8 0.207843
0.964706 0.8 0.196078
0.47451 0.823529 0.403922
0.47451 0.823529 0.403922
0.482353 0.823529 0.403922
0.501961 0.827451 0.411765
0.513725 0.827451 0.407843
0.529412 0.823529 0.411765
0.556863 0.827451 0.411765
0.588235 0.835294 0.423529
0.615686 0.831373 0.423529
0.647059 0.835294 0.407843
0.686275 0.835294 0.396078
0.733333 0.839216 0.388235
0.776471 0.839216 0.360784
0.819608 0.839216 0.345098
0.870588 0.843137 0.321569
0.933333 0.862745 0.294118
0.968627 0.862745 0.286275
0.537255 0.870588 0.466667
0.537255 0.870588 0.466667
0.552941 0.87451 0.47451
0.556863 0.87451 0.47451
0.572549 0.87451 0.47451
0.592157 0.87451 0.482353
0.607843 0.87451 0.478431
0.635294 0.878431 0.490196
0.662745 0.882353 0.494118
0.682353 0.878431 0.490196
0.717647 0.882353 0.482353
0.752941 0.882353 0.470588
0.792157 0.886275 0.454902
0.823529 0.878431 0.431373
0.870588 0.890196 0.419608
0.917647 0.898039 0.403922
0.960784 0.905882 0.384314
0.619608 0.921569 0.552941
0.619608 0.913725 0.54902
0.623529 0.917647 0.552941
0.635294 0.921569 0.560784
0.639216 0.917647 0.54902
0.658824 0.921569 0.556863
0.670588 0.917647 0.556863
0.690196 0.921569 0.564706
0.709804 0.92549 0.568627
0.733333 0.92549 0.576471
0.752941 0.921569 0.568627
0.784314 0.929412 0.564706
0.803922 0.921569 0.541176
0.847059 0.933333 0.541176
0.87451 0.933333 0.521569
0.901961 0.92549 0.498039
0.941176 0.933333 0.490196
0.686275 0.952941 0.623529
0.694118 0.952941 0.627451
0.694118 0.94902 0.623529
0.698039 0.94902 0.623529
0.705882 0.952941 0.627451
0.713725 0.952941 0.627451
0.729412 0.952941 0.635294
0.74902 0.956863 0.643137
0.760784 0.952941 0.643137
0.780392 0.956863 0.65098
0.792157 0.952941 0.65098
0.815686 0.960784 0.65098
0.839216 0.960784 0.643137
0.858824 0.956863 0.631373
0.886275 0.964706 0.623529
0.909804 0.960784 0.607843
0.933333 0.960784 0.596078
0.756863 0.980392 0.701961
0.756863 0.976471 0.701961
0.760784 0.980392 0.701961
0.760784 0.976471 0.701961
0.768627 0.976471 0.701961
0.780392 0.980392 0.705882
0.788235 0.976471 0.709804
0.8 0.980392 0.713725
0.807843 0.976471 0.713725
0.831373 0.980392 0.729412
0.843137 0.980392 0.733333
0.858824 0.984314 0.737255
0.87451 0.984314 0.733333
0.886275 0.984314 0.72549
0.905882 0.988235 0.721569
0.92549 0.988235 0.721569
0.941176 0.988235 0.713725
0.054902 0.0470588 0.129412
0.0784314 0.0509804 0.129412
0.0980392 0.054902 0.12549
0.12549 0.0509804 0.12549
0.164706 0.0392157 0.129412
0.215686 0.0196078 0.12549
0.262745 0.00784314 0.117647
0.309804 0 0.105882
0.364706 0 0.101961
0.423529 0 0.0980392
0.482353 0.00392157 0.0901961
0.541176 0 0.0705882
0.603922 0 0.0431373
0.67451 0 0.0156863
0.745098 0 0
0.807843 0 0
0.866667 0 0
0.0588235 0.0823529 0.129412
0.0862745 0.0823529 0.133333
0.101961 0.0862745 0.129412
0.133333 0.0862745 0.133333
0.172549 0.0784314 0.133333
0.223529 0.0666667 0.133333
0.270588 0.0470588 0.12549
0.321569 0.0117647 0.109804
0.376471 0.027451 0.109804
0.435294 0.0196078 0.105882
0.490196 0.00392157 0.0862745
0.552941 0.00784314 0.0705882
0.611765 0.00392157 0.0392157
0.678431 0 0.0117647
0.745098 0 0
0.807843 0.00392157 0
