resources/LUTs/LUT Colour Grades (cube)/Film_Cool.cube
#Generated by Picture Instruments - Look Creator
TITLE "Fuji 160SCool"
LUT_3D_SIZE 17
0 0 0
0.0431373 0 0
0.0745098 0.00784314 0
0.101961 0.0235294 0
0.137255 0.0431373 0
0.172549 0.0392157 0
0.219608 0.0470588 0
0.266667 0.0470588 0
0.321569 0.0509804 0
0.376471 0.0352941 0
0.435294 0.0392157 0
0.501961 0.0470588 0
0.564706 0.0431373 0
0.635294 0.0509804 0
0.701961 0.054902 0
0.768627 0.0745098 0
0.827451 0.109804 0
0.0196078 0.0666667 0.027451
0.054902 0.0666667 0.0235294
0.0823529 0.0666667 0.0117647
0.113725 0.0784314 0.00392157
0.141176 0.0745098 0
0.180392 0.0784314 0
0.223529 0.0784314 0
0.282353 0.0862745 0
0.333333 0.0862745 0
0.392157 0.0823529 0
0.454902 0.0784314 0
0.513725 0.0705882 0
0.580392 0.0784314 0
0.647059 0.0862745 0
0.713725 0.0980392 0
0.776471 0.117647 0
0.835294 0.141176 0
0.0431373 0.109804 0.0588235
0.054902 0.109804 0.054902
0.0862745 0.113725 0.0509804
0.121569 0.117647 0.0352941
0.152941 0.113725 0.027451
0.196078 0.117647 0.0235294
0.235294 0.117647 0.0117647
0.290196 0.117647 0.00392157
0.345098 0.12549 0
0.4 0.12549 0
0.458824 0.12549 0
0.521569 0.12549 0
0.588235 0.129412 0
0.658824 0.145098 0
0.72549 0.152941 0
0.780392 0.156863 0
0.839216 0.172549 0
0.0509804 0.156863 0.0745098
0.0745098 0.164706 0.0862745
0.0941176 0.160784 0.0823529
0.129412 0.168627 0.0705882
0.172549 0.172549 0.054902
0.211765 0.176471 0.0509804
0.254902 0.168627 0.0313725
0.305882 0.172549 0.0313725
0.364706 0.176471 0.0156863
0.419608 0.172549 0.00784314
0.478431 0.176471 0
0.533333 0.176471 0
0.6 0.184314 0
0.662745 0.188235 0
0.729412 0.2 0
0.788235 0.211765 0
0.847059 0.219608 0
0.0627451 0.215686 0.0980392
0.0784314 0.219608 0.101961
0.101961 0.223529 0.101961
0.133333 0.227451 0.101961
0.172549 0.235294 0.0901961
0.223529 0.235294 0.0705882
0.278431 0.243137 0.054902
0.329412 0.239216 0.0392157
0.384314 0.235294 0.027451
0.439216 0.231373 0.0117647
0.498039 0.239216 0.00784314
0.556863 0.239216 0
0.619608 0.247059 0
0.678431 0.25098 0
0.745098 0.258824 0
0.803922 0.266667 0
0.862745 0.278431 0
0.0823529 0.286275 0.12549
0.0980392 0.290196 0.129412
0.113725 0.290196 0.121569
0.14902 0.301961 0.129412
0.184314 0.301961 0.117647
0.235294 0.305882 0.105882
0.290196 0.313725 0.0901961
0.360784 0.329412 0.0627451
0.411765 0.321569 0.0392157
0.466667 0.317647 0.0235294
0.52549 0.309804 0.00784314
0.580392 0.309804 0
0.639216 0.313725 0
0.701961 0.321569 0
0.760784 0.32549 0
0.815686 0.329412 0
0.870588 0.337255 0
0.109804 0.368627 0.156863
0.121569 0.376471 0.160784
0.145098 0.380392 0.164706
0.164706 0.376471 0.156863
0.207843 0.384314 0.160784
0.247059 0.388235 0.145098
0.305882 0.396078 0.129412
0.364706 0.396078 0.101961
0.439216 0.415686 0.054902
0.501961 0.407843 0.0431373
0.552941 0.403922 0.027451
0.603922 0.392157 0.00784314
0.666667 0.396078 0.00392157
0.72549 0.396078 0
0.780392 0.4 0
0.835294 0.407843 0
0.890196 0.411765 0
0.137255 0.45098 0.188235
0.152941 0.458824 0.192157
0.172549 0.458824 0.192157
0.192157 0.458824 0.188235
0.227451 0.466667 0.192157
0.270588 0.470588 0.184314
0.317647 0.478431 0.172549
0.380392 0.478431 0.152941
0.45098 0.490196 0.137255
0.529412 0.505882 0.0862745
0.584314 0.498039 0.0588235
0.635294 0.490196 0.0313725
0.690196 0.486275 0.0117647
0.745098 0.482353 0
0.8 0.478431 0
0.847059 0.47451 0
0.898039 0.478431 0
0.176471 0.533333 0.223529
0.192157 0.545098 0.231373
0.207843 0.545098 0.227451
0.227451 0.54902 0.227451
0.258824 0.54902 0.231373
0.298039 0.552941 0.231373
0.345098 0.560784 0.223529
0.396078 0.564706 0.207843
0.462745 0.568627 0.188235
0.521569 0.572549 0.160784
0.603922 0.588235 0.129412
0.666667 0.592157 0.0862745
0.713725 0.580392 0.054902
0.764706 0.572549 0.0235294
0.815686 0.564706 0.00392157
0.866667 0.560784 0
0.913725 0.560784 0
0.223529 0.623529 0.266667
0.235294 0.627451 0.270588
0.25098 0.627451 0.270588
0.27451 0.631373 0.27451
0.298039 0.631373 0.270588
0.333333 0.631373 0.27451
0.372549 0.639216 0.270588
0.419608 0.643137 0.258824
0.478431 0.647059 0.243137
0.537255 0.65098 0.227451
0.596078 0.65098 0.2
0.662745 0.654902 0.168627
0.74902 0.678431 0.137255
0.792157 0.666667 0.113725
0.839216 0.658824 0.0784314
0.882353 0.65098 0.0352941
0.921569 0.643137 0.0117647
0.282353 0.701961 0.313725
0.286275 0.701961 0.317647
0.301961 0.705882 0.317647
0.317647 0.705882 0.321569
0.337255 0.701961 0.317647
0.372549 0.705882 0.317647
0.411765 0.713725 0.32549
0.447059 0.713725 0.317647
0.501961 0.717647 0.309804
0.552941 0.72549 0.294118
0.615686 0.72549 0.27451
0.670588 0.72549 0.247059
0.733333 0.729412 0.223529
0.815686 0.752941 0.184314
0.854902 0.741176 0.168627
0.898039 0.737255 0.152941
0.937255 0.729412 0.121569
0.352941 0.780392 0.380392
0.352941 0.772549 0.376471
0.360784 0.772549 0.376471
0.376471 0.772549 0.376471
0.4 0.776471 0.376471
0.419608 0.776471 0.376471
0.45098 0.772549 0.376471
0.482353 0.776471 0.380392
0.529412 0.784314 0.372549
0.572549 0.780392 0.356863
0.623529 0.788235 0.345098
0.670588 0.784314 0.321569
0.733333 0.788235 0.305882
0.788235 0.796078 0.278431
0.87451 0.815686 0.247059
0.909804 0.807843 0.235294
0.945098 0.803922 0.223529
0.419608 0.839216 0.443137
0.423529 0.835294 0.439216
0.427451 0.835294 0.443137
0.439216 0.835294 0.439216
0.458824 0.835294 0.439216
0.47451 0.835294 0.439216
0.501961 0.835294 0.439216
0.529412 0.835294 0.439216
0.556863 0.831373 0.443137
0.6 0.839216 0.431373
0.647059 0.839216 0.419608
0.686275 0.843137 0.403922
0.737255 0.843137 0.388235
0.788235 0.843137 0.368627
0.843137 0.847059 0.345098
0.917647 0.870588 0.32549
0.952941 0.866667 0.313725
0.494118 0.890196 0.509804
0.490196 0.882353 0.505882
0.501961 0.882353 0.501961
0.505882 0.882353 0.501961
0.517647 0.87451 0.501961
0.533333 0.882353 0.505882
0.556863 0.886275 0.509804
0.580392 0.882353 0.509804
0.607843 0.886275 0.517647
0.635294 0.886275 0.509804
0.670588 0.882353 0.498039
0.705882 0.890196 0.490196
0.752941 0.894118 0.478431
0.780392 0.882353 0.45098
0.843137 0.898039 0.45098
0.894118 0.898039 0.427451
0.941176 0.905882 0.411765
0.576471 0.929412 0.584314
0.572549 0.92549 0.580392
0.568627 0.917647 0.576471
0.576471 0.921569 0.580392
0.588235 0.921569 0.576471
0.6 0.92549 0.580392
0.615686 0.921569 0.584314
0.631373 0.917647 0.580392
0.658824 0.92549 0.592157
0.682353 0.921569 0.588235
0.713725 0.92549 0.588235
0.737255 0.929412 0.576471
0.768627 0.929412 0.568627
0.811765 0.933333 0.560784
0.839216 0.92549 0.533333
0.878431 0.929412 0.517647
0.921569 0.937255 0.513725
0.654902 0.960784 0.662745
0.643137 0.952941 0.647059
0.647059 0.956863 0.647059
0.65098 0.956863 0.647059
0.658824 0.952941 0.647059
0.67451 0.960784 0.658824
0.682353 0.956863 0.654902
0.698039 0.960784 0.658824
0.713725 0.956863 0.662745
0.737255 0.956863 0.670588
0.756863 0.960784 0.670588
0.776471 0.956863 0.662745
0.8 0.960784 0.654902
0.827451 0.964706 0.65098
0.854902 0.960784 0.639216
0.886275 0.964706 0.631373
0.909804 0.964706 0.615686
0.717647 0.980392 0.721569
0.709804 0.976471 0.713725
0.717647 0.980392 0.717647
0.717647 0.980392 0.713725
0.729412 0.980392 0.721569
0.737255 0.980392 0.72549
0.74902 0.984314 0.72549
0.760784 0.980392 0.733333
0.772549 0.984314 0.737255
0.796078 0.984314 0.745098
0.807843 0.984314 0.74902
0.831373 0.984314 0.752941
0.843137 0.988235 0.745098
0.862745 0.988235 0.745098
0.886275 0.992157 0.741176
0.905882 0.992157 0.737255
0.921569 0.992157 0.72549
0.00784314 0.0117647 0.0627451
0.0509804 0.0117647 0.0666667
0.0862745 0.0156863 0.0705882
0.105882 0.0235294 0.054902
0.145098 0.054902 0.0666667
0.180392 0.0509804 0.0588235
0.223529 0.054902 0.054902
0.27451 0.054902 0.0470588
0.32549 0.0470588 0.0352941
0.380392 0.0392157 0.0156863
0.447059 0.0431373 0.00784314
0.501961 0.0313725 0
0.564706 0.0313725 0
0.639216 0.0431373 0
0.705882 0.0509804 0
0.768627 0.0588235 0
0.835294 0.0980392 0
0.0313725 0.0705882 0.0745098
0.0588235 0.0666667 0.0745098
0.0862745 0.0705882 0.0745098
0.113725 0.0745098 0.0705882
0.14902 0.0823529 0.0745098
0.184314 0.0823529 0.0627451
0.231373 0.0862745 0.0588235
0.282353 0.0862745 0.0509804
0.337255 0.0823529 0.0431373
0.396078 0.0784314 0.027451
0.454902 0.0745098 0.00784314
0.513725 0.0666667 0.00392157
0.580392 0.0705882 0
0.647059 0.0784314 0
0.713725 0.0901961 0
0.776471 0.105882 0
0.835294 0.12549 0
0.0588235 0.113725 0.0980392
0.0705882 0.113725 0.0901961
0.0941176 0.113725 0.0862745
0.129412 0.117647 0.0823529
0.156863 0.117647 0.0784314
0.2 0.121569 0.0784314
0.243137 0.121569 0.0705882
0.290196 0.121569 0.054902
0.34902 0.12549 0.0509804
0.407843 0.12549 0.0313725
0.462745 0.121569 0.0117647
0.52549 0.12549 0.00392157
0.588235 0.121569 0
0.654902 0.129412 0
0.717647 0.137255 0
0.780392 0.152941 0
0.839216 0.164706 0
0.0705882 0.156863 0.109804
0.0823529 0.160784 0.113725
0.0980392 0.160784 0.109804
0.121569 0.164706 0.0980392
0.180392 0.176471 0.0980392
0.215686 0.172549 0.0901961
0.258824 0.172549 0.0784314
0.309804 0.172549 0.0705882
0.364706 0.172549 0.054902
0.423529 0.176471 0.0392157
0.478431 0.172549 0.0196078
0.537255 0.172549 0.00392157
0.6 0.180392 0
0.666667 0.188235 0
0.729412 0.196078 0
0.792157 0.207843 0
0.847059 0.215686 0
0.0823529 0.219608 0.12549
0.0941176 0.223529 0.12549
0.109804 0.223529 0.121569
0.137255 0.227451 0.12549
0.176471 0.235294 0.113725
0.235294 0.239216 0.105882
0.278431 0.243137 0.0941176
0.333333 0.243137 0.0823529
0.384314 0.235294 0.0705882
0.439216 0.231373 0.0470588
0.505882 0.239216 0.0352941
0.556863 0.243137 0.0117647
0.615686 0.243137 0.00392157
0.686275 0.25098 0
0.745098 0.258824 0
0.803922 0.266667 0
0.858824 0.27451 0
0.0980392 0.290196 0.14902
0.109804 0.294118 0.14902
0.129412 0.298039 0.152941
0.152941 0.298039 0.14902
0.192157 0.301961 0.141176
0.239216 0.309804 0.133333
0.286275 0.313725 0.113725
0.360784 0.32549 0.101961
0.411765 0.317647 0.0823529
0.470588 0.313725 0.0666667
0.52549 0.309804 0.0431373
0.580392 0.309804 0.0196078
0.635294 0.309804 0.00784314
0.698039 0.313725 0
0.764706 0.32549 0
0.815686 0.329412 0
0.866667 0.333333 0
0.117647 0.368627 0.172549
0.129412 0.372549 0.172549
0.14902 0.372549 0.176471
0.172549 0.376471 0.176471
0.207843 0.380392 0.176471
0.25098 0.388235 0.164706
0.309804 0.396078 0.152941
0.372549 0.4 0.137255
0.447059 0.415686 0.109804
0.501961 0.411765 0.0941176
0.54902 0.4 0.0705882
0.607843 0.392157 0.0392157
0.666667 0.392157 0.0196078
0.729412 0.396078 0.00392157
0.776471 0.396078 0
0.831373 0.4 0
0.886275 0.407843 0
0.14902 0.45098 0.203922
0.160784 0.458824 0.207843
0.180392 0.462745 0.211765
0.203922 0.462745 0.211765
0.235294 0.470588 0.211765
0.27451 0.470588 0.203922
0.329412 0.47451 0.196078
0.388235 0.482353 0.176471
0.45098 0.486275 0.156863
0.529412 0.505882 0.117647
0.588235 0.501961 0.109804
0.639216 0.494118 0.0862745
0.694118 0.486275 0.054902
0.74902 0.482353 0.0235294
0.803922 0.478431 0.00784314
0.85098 0.47451 0
0.905882 0.486275 0
0.184314 0.537255 0.239216
0.2 0.541176 0.243137
0.211765 0.541176 0.239216
0.235294 0.545098 0.243137
0.270588 0.552941 0.247059
0.301961 0.552941 0.243137
0.345098 0.556863 0.235294
0.403922 0.568627 0.227451
0.470588 0.576471 0.211765
0.52549 0.572549 0.184314
0.603922 0.588235 0.152941
0.670588 0.592157 0.129412
0.717647 0.580392 0.105882
0.768627 0.572549 0.0705882
0.823529 0.572549 0.0470588
0.870588 0.564706 0.0117647
0.913725 0.556863 0
0.231373 0.615686 0.278431
0.239216 0.623529 0.278431
0.258824 0.627451 0.282353
0.278431 0.627451 0.286275
0.301961 0.631373 0.286275
0.341176 0.635294 0.290196
0.380392 0.639216 0.290196
0.427451 0.643137 0.27451
0.482353 0.65098 0.266667
0.541176 0.654902 0.247059
0.6 0.654902 0.219608
0.670588 0.662745 0.196078
0.752941 0.678431 0.168627
0.792157 0.662745 0.141176
0.839216 0.658824 0.117647
0.882353 0.65098 0.0823529
0.92549 0.647059 0.0470588
0.282353 0.694118 0.321569
0.294118 0.705882 0.333333
0.301961 0.698039 0.32549
0.32549 0.705882 0.329412
0.34902 0.705882 0.333333
0.376471 0.709804 0.333333
0.415686 0.709804 0.337255
0.454902 0.713725 0.329412
0.498039 0.713725 0.317647
0.54902 0.717647 0.298039
0.611765 0.721569 0.286275
0.666667 0.72549 0.262745
0.733333 0.729412 0.239216
0.815686 0.752941 0.207843
0.85098 0.737255 0.188235
0.894118 0.72549 0.168627
0.933333 0.72549 0.152941
0.345098 0.764706 0.376471
0.356863 0.772549 0.380392
0.364706 0.772549 0.384314
0.380392 0.772549 0.384314
0.396078 0.772549 0.384314
0.427451 0.776471 0.388235
0.458824 0.780392 0.388235
0.482353 0.772549 0.384314
0.529412 0.784314 0.384314
0.576471 0.784314 0.372549
0.619608 0.784314 0.352941
0.67451 0.784314 0.337255
0.733333 0.788235 0.317647
0.788235 0.792157 0.294118
0.878431 0.819608 0.270588
0.909804 0.803922 0.25098
0.945098 0.803922 0.247059
0.411765 0.823529 0.435294
0.419608 0.827451 0.439216
0.427451 0.831373 0.439216
0.439216 0.831373 0.443137
0.454902 0.827451 0.443137
0.482353 0.835294 0.45098
0.501961 0.831373 0.447059
0.537255 0.839216 0.454902
0.560784 0.835294 0.45098
0.6 0.835294 0.443137
0.647059 0.839216 0.427451
0.690196 0.839216 0.415686
0.737255 0.843137 0.4
0.788235 0.839216 0.376471
0.847059 0.847059 0.360784
0.913725 0.866667 0.333333
0.956863 0.866667 0.329412
0.47451 0.870588 0.494118
0.482353 0.87451 0.498039
0.498039 0.878431 0.505882
0.509804 0.882353 0.509804
0.52549 0.882353 0.509804
0.537255 0.878431 0.509804
0.564706 0.882353 0.517647
0.584314 0.878431 0.521569
0.607843 0.878431 0.521569
0.635294 0.886275 0.517647
0.67451 0.886275 0.509804
0.709804 0.882353 0.498039
0.74902 0.886275 0.478431
0.788235 0.890196 0.470588
0.835294 0.890196 0.447059
0.894118 0.898039 0.431373
0.941176 0.901961 0.419608
0.560784 0.917647 0.572549
0.564706 0.917647 0.576471
0.568627 0.917647 0.576471
0.580392 0.921569 0.580392
0.592157 0.921569 0.584314
0.603922 0.921569 0.588235
0.623529 0.917647 0.584314
0.639216 0.921569 0.592157
0.666667 0.921569 0.592157
0.694118 0.92549 0.603922
0.713725 0.92549 0.596078
0.737255 0.929412 0.580392
0.772549 0.92549 0.572549
0.807843 0.929412 0.560784
0.843137 0.929412 0.545098
0.886275 0.933333 0.533333
0.921569 0.933333 0.517647
0.639216 0.94902 0.647059
0.643137 0.952941 0.65098
0.647059 0.956863 0.65098
0.658824 0.960784 0.658824
0.666667 0.960784 0.658824
0.67451 0.956863 0.658824
0.686275 0.956863 0.662745
0.705882 0.960784 0.666667
0.717647 0.956863 0.670588
0.737255 0.956863 0.670588
0.756863 0.960784 0.67451
0.780392 0.960784 0.67451
0.8 0.960784 0.662745
0.827451 0.960784 0.658824
0.858824 0.964706 0.647059
0.890196 0.964706 0.635294
0.913725 0.964706 0.623529
0.721569 0.980392 0.729412
0.713725 0.976471 0.717647
0.721569 0.984314 0.72549
0.72549 0.980392 0.72549
0.72549 0.976471 0.721569
0.741176 0.980392 0.729412
0.74902 0.980392 0.729412
0.768627 0.984314 0.741176
0.776471 0.984314 0.741176
0.796078 0.984314 0.74902
0.807843 0.984314 0.74902
0.827451 0.984314 0.74902
0.85098 0.988235 0.752941
0.858824 0.988235 0.741176
0.886275 0.988235 0.745098
0.905882 0.992157 0.741176
0.929412 0.992157 0.737255
0.027451 0.0313725 0.109804
0.0588235 0.0352941 0.109804
0.0784314 0.0352941 0.105882
0.113725 0.0352941 0.109804
0.145098 0.0352941 0.101961
0.188235 0.0352941 0.0980392
0.231373 0.0470588 0.0980392
0.278431 0.0470588 0.0941176
0.333333 0.0431373 0.0901961
0.388235 0.0352941 0.0784314
0.443137 0.0196078 0.0588235
0.505882 0.027451 0.0431373
0.572549 0.0235294 0.0196078
0.635294 0.0196078 0
0.709804 0.0352941 0
0.776471 0.0509804 0
0.835294 0.0627451 0
0.0431373 0.0823529 0.117647
0.0666667 0.0823529 0.117647
0.0901961 0.0784314 0.113725
0.117647 0.0745098 0.113725
0.152941 0.0745098 0.109804
0.192157 0.0862745 0.109804
0.243137 0.0901961 0.109804
0.290196 0.0862745 0.105882
0.345098 0.0823529 0.0980392
0.403922 0.0784314 0.0901961
0.462745 0.0666667 0.0705882
0.517647 0.0470588 0.0392157
0.580392 0.0470588 0.0196078
0.647059 0.0627451 0.00392157
0.717647 0.0627451 0
0.776471 0.0784314 0
0.839216 0.109804 0
0.0627451 0.117647 0.129412
0.0784314 0.117647 0.12549
0.101961 0.117647 0.129412
0.129412 0.121569 0.12549
0.164706 0.12549 0.121569
0.2 0.117647 0.113725
0.243137 0.121569 0.109804
0.301961 0.12549 0.109804
0.352941 0.121569 0.0980392
0.407843 0.113725 0.0862745
0.470588 0.121569 0.0745098
0.52549 0.109804 0.0509804
0.592157 0.117647 0.0235294
0.654902 0.113725 0.00392157
0.72549 0.133333 0
0.784314 0.137255 0
0.843137 0.156863 0
0.0823529 0.164706 0.145098
0.0941176 0.160784 0.137255
0.109804 0.160784 0.133333
0.141176 0.168627 0.137255
0.180392 0.172549 0.12549
0.215686 0.168627 0.121569
0.266667 0.172549 0.121569
0.317647 0.172549 0.117647
0.364706 0.172549 0.105882
0.427451 0.172549 0.0980392
0.482353 0.172549 0.0823529
0.545098 0.176471 0.0627451
0.603922 0.176471 0.027451
0.670588 0.184314 0.00784314
0.729412 0.188235 0
0.796078 0.2 0
0.847059 0.2 0
0.0980392 0.215686 0.160784
0.117647 0.227451 0.168627
0.121569 0.227451 0.160784
0.141176 0.223529 0.152941
0.184314 0.235294 0.152941
0.243137 0.243137 0.141176
0.286275 0.239216 0.133333
0.337255 0.235294 0.129412
0.392157 0.239216 0.121569
0.45098 0.239216 0.113725
0.501961 0.235294 0.0941176
0.560784 0.235294 0.0745098
0.623529 0.247059 0.0470588
0.686275 0.25098 0.0117647
0.745098 0.254902 0.00392157
0.803922 0.258824 0
0.858824 0.266667 0
0.117647 0.286275 0.180392
0.121569 0.294118 0.180392
0.141176 0.298039 0.180392
0.164706 0.298039 0.180392
0.2 0.305882 0.180392
0.247059 0.309804 0.168627
0.298039 0.317647 0.156863
0.364706 0.321569 0.141176
0.419608 0.317647 0.133333
0.47451 0.313725 0.121569
0.529412 0.309804 0.109804
0.588235 0.313725 0.0941176
0.643137 0.313725 0.0627451
0.701961 0.313725 0.0235294
0.768627 0.329412 0.00784314
0.819608 0.329412 0
0.87451 0.333333 0
0.141176 0.368627 0.207843
0.14902 0.376471 0.203922
0.160784 0.372549 0.2
0.184314 0.376471 0.2
0.219608 0.384314 0.207843
0.262745 0.388235 0.2
0.313725 0.392157 0.184314
0.376471 0.396078 0.168627
0.45098 0.415686 0.152941
0.505882 0.407843 0.145098
0.556863 0.4 0.133333
0.603922 0.388235 0.105882
0.670588 0.392157 0.0901961
0.729412 0.396078 0.054902
0.780392 0.396078 0.0117647
0.839216 0.403922 0
0.886275 0.403922 0
0.168627 0.454902 0.235294
0.176471 0.458824 0.235294
0.188235 0.458824 0.235294
0.211765 0.462745 0.231373
0.243137 0.466667 0.235294
0.282353 0.470588 0.231373
0.337255 0.478431 0.227451
0.392157 0.482353 0.207843
0.458824 0.490196 0.192157
0.533333 0.505882 0.168627
0.588235 0.501961 0.160784
0.639216 0.490196 0.137255
0.698039 0.486275 0.121569
0.752941 0.486275 0.101961
0.803922 0.478431 0.0627451
0.854902 0.478431 0.0156863
0.901961 0.482353 0
0.2 0.533333 0.262745
0.207843 0.541176 0.266667
0.227451 0.545098 0.270588
0.247059 0.545098 0.270588
0.278431 0.552941 0.270588
0.309804 0.552941 0.270588
0.356863 0.560784 0.266667
0.403922 0.560784 0.25098
0.470588 0.568627 0.239216
0.533333 0.576471 0.219608
0.615686 0.596078 0.196078
0.670588 0.588235 0.172549
0.721569 0.580392 0.156863
0.768627 0.568627 0.133333
0.823529 0.568627 0.117647
0.87451 0.564706 0.0862745
0.917647 0.560784 0.0352941
0.239216 0.615686 0.298039
0.258824 0.627451 0.305882
0.266667 0.623529 0.305882
0.286275 0.627451 0.305882
0.313725 0.631373 0.305882
0.345098 0.631373 0.309804
0.384314 0.639216 0.309804
0.431373 0.643137 0.298039
0.482353 0.643137 0.282353
0.545098 0.65098 0.270588
0.603922 0.65098 0.247059
0.678431 0.662745 0.227451
0.745098 0.670588 0.2
0.792157 0.666667 0.192157
0.839216 0.658824 0.172549
0.882353 0.65098 0.14902
0.929412 0.647059 0.121569
0.294118 0.694118 0.341176
0.305882 0.701961 0.345098
0.317647 0.705882 0.34902
0.337255 0.709804 0.356863
0.356863 0.705882 0.352941
0.388235 0.709804 0.352941
0.427451 0.717647 0.364706
0.462745 0.717647 0.356863
0.505882 0.717647 0.341176
0.556863 0.721569 0.329412
0.619608 0.72549 0.313725
0.67451 0.729412 0.294118
0.733333 0.729412 0.266667
0.819608 0.74902 0.243137
0.854902 0.737255 0.223529
0.898039 0.729412 0.215686
0.941176 0.729412 0.2
0.352941 0.760784 0.396078
0.360784 0.768627 0.396078
0.372549 0.768627 0.4
0.392157 0.772549 0.4
0.411765 0.780392 0.407843
0.439216 0.780392 0.407843
0.462745 0.776471 0.407843
0.498039 0.780392 0.411765
0.533333 0.780392 0.403922
0.580392 0.784314 0.392157
0.623529 0.784314 0.376471
0.678431 0.784314 0.356863
0.733333 0.788235 0.341176
0.788235 0.788235 0.313725
0.87451 0.819608 0.298039
0.909804 0.803922 0.282353
0.945098 0.8 0.27451
0.419608 0.827451 0.454902
0.423529 0.827451 0.45098
0.435294 0.827451 0.454902
0.454902 0.835294 0.462745
0.462745 0.831373 0.454902
0.486275 0.831373 0.462745
0.513725 0.831373 0.466667
0.541176 0.835294 0.470588
0.572549 0.835294 0.470588
0.611765 0.835294 0.462745
0.65098 0.839216 0.447059
0.698039 0.843137 0.439216
0.737255 0.839216 0.411765
0.788235 0.843137 0.4
0.843137 0.847059 0.376471
0.917647 0.866667 0.356863
0.952941 0.862745 0.345098
0.490196 0.87451 0.513725
0.494118 0.87451 0.509804
0.501961 0.878431 0.517647
0.509804 0.87451 0.517647
0.52549 0.878431 0.52549
0.545098 0.878431 0.521569
0.560784 0.87451 0.52549
0.592157 0.882353 0.533333
0.615686 0.886275 0.537255
0.647059 0.882353 0.537255
0.678431 0.886275 0.52549
0.713725 0.886275 0.513725
0.756863 0.894118 0.501961
0.788235 0.886275 0.486275
0.839216 0.890196 0.466667
0.890196 0.901961 0.454902
0.945098 0.905882 0.435294
0.572549 0.921569 0.592157
0.572549 0.917647 0.588235
0.580392 0.921569 0.588235
0.592157 0.92549 0.592157
0.596078 0.921569 0.592157
0.611765 0.921569 0.596078
0.627451 0.921569 0.596078
0.654902 0.92549 0.607843
0.670588 0.92549 0.607843
0.694118 0.92549 0.611765
0.717647 0.92549 0.603922
0.752941 0.929412 0.603922
0.772549 0.921569 0.580392
0.815686 0.933333 0.580392
0.85098 0.933333 0.568627
0.882353 0.929412 0.545098
0.921569 0.937255 0.537255
0.65098 0.956863 0.658824
0.65098 0.956863 0.662745
0.65098 0.952941 0.654902
0.654902 0.952941 0.658824
0.666667 0.956863 0.662745
0.67451 0.952941 0.666667
0.690196 0.956863 0.670588
0.709804 0.960784 0.67451
0.721569 0.956863 0.67451
0.741176 0.960784 0.682353
0.760784 0.956863 0.686275
0.784314 0.960784 0.682353
0.807843 0.964706 0.678431
0.831373 0.960784 0.662745
0.862745 0.968627 0.658824
0.890196 0.964706 0.643137
0.913725 0.964706 0.631373
0.721569 0.980392 0.729412
0.721569 0.980392 0.729412
0.72549 0.980392 0.729412
0.72549 0.980392 0.729412
0.733333 0.980392 0.729412
0.745098 0.980392 0.737255
0.752941 0.980392 0.737255
0.768627 0.980392 0.741176
0.776471 0.980392 0.741176
0.8 0.984314 0.756863
0.815686 0.984314 0.760784
0.831373 0.988235 0.760784
0.85098 0.988235 0.760784
0.862745 0.988235 0.74902
0.882353 0.988235 0.74902
0.909804 0.992157 0.745098
0.92549 0.992157 0.741176
0.0313725 0.0470588 0.152941
0.0627451 0.0509804 0.152941
0.0862745 0.054902 0.14902
0.113725 0.054902 0.152941
0.14902 0.0431373 0.152941
0.196078 0.0352941 0.152941
0.239216 0.0235294 0.145098
0.286275 0.00784314 0.133333
0.337255 0.0156863 0.129412
0.392157 0.0196078 0.129412
0.454902 0.0235294 0.12549
0.509804 0.0117647 0.113725
0.572549 0.00784314 0.0980392
0.643137 0.0117647 0.0745098
0.713725 0.0196078 0.0392157
0.776471 0.027451 0.00784314
0.835294 0.027451 0
0.0392157 0.0823529 0.156863
0.0627451 0.0823529 0.160784
0.0901961 0.0862745 0.152941
0.121569 0.0862745 0.160784
0.160784 0.0862745 0.160784
0.203922 0.0784314 0.156863
0.25098 0.0666667 0.152941
0.294118 0.0392157 0.137255
0.34902 0.0627451 0.137255
0.403922 0.0588235 0.137255
0.458824 0.0431373 0.121569
0.521569 0.0431373 0.113725
0.580392 0.027451 0.0980392
0.647059 0.0313725 0.0705882
0.713725 0.0352941 0.0313725
0.776471 0.0470588 0.00392157
