resources/LUTs/LUT Colour Grades (cube)/Film_Warm.cube
#Generated by Picture Instruments - Look Creator
TITLE "Fuji 160SWarm"
LUT_3D_SIZE 5
0 0 0
0.145098 0.0392157 0
0.345098 0.0156863 0
0.596078 0.00392157 0
0.854902 0.027451 0
0.0784314 0.211765 0.0745098
0.192157 0.227451 0.0588235
0.415686 0.223529 0.00392157
0.65098 0.223529 0
0.886275 0.25098 0
0.227451 0.52549 0.172549
0.305882 0.545098 0.180392
0.498039 0.560784 0.12549
0.74902 0.572549 0
0.937255 0.54902 0
0.47451 0.839216 0.392157
0.501961 0.831373 0.388235
0.6 0.827451 0.388235
0.772549 0.839216 0.333333
0.968627 0.866667 0.243137
0.752941 0.976471 0.694118
0.764706 0.976471 0.690196
0.807843 0.980392 0.709804
0.866667 0.984314 0.717647
0.937255 0.992157 0.698039
0.0627451 0.0588235 0.172549
0.172549 0.054902 0.172549
0.388235 0 0.160784
0.611765 0 0.12549
0.862745 0 0.00392157
0.141176 0.223529 0.203922
0.239216 0.227451 0.207843
0.427451 0.219608 0.180392
0.654902 0.207843 0.141176
0.886275 0.219608 0.0156863
0.317647 0.52549 0.309804
0.360784 0.541176 0.298039
0.521569 0.560784 0.282353
0.756863 0.560784 0.219608
0.933333 0.545098 0.137255
0.501961 0.819608 0.458824
0.537255 0.823529 0.470588
0.639216 0.831373 0.482353
0.792157 0.839216 0.439216
0.976471 0.870588 0.384314
0.768627 0.980392 0.72549
0.780392 0.976471 0.721569
0.823529 0.980392 0.737255
0.878431 0.984314 0.752941
0.941176 0.988235 0.737255
0.109804 0.0901961 0.407843
0.235294 0.0901961 0.403922
0.431373 0.0352941 0.411765
0.690196 0 0.431373
0.878431 0 0.352941
0.180392 0.235294 0.431373
0.286275 0.25098 0.443137
0.486275 0.258824 0.454902
0.717647 0.215686 0.447059
0.901961 0.0392157 0.356863
0.356863 0.52549 0.498039
0.419608 0.533333 0.501961
0.580392 0.545098 0.517647
0.74902 0.529412 0.478431
0.929412 0.517647 0.419608
0.576471 0.803922 0.615686
0.623529 0.815686 0.631373
0.694118 0.819608 0.635294
0.815686 0.831373 0.631373
0.960784 0.843137 0.588235
0.811765 0.972549 0.803922
0.827451 0.980392 0.807843
0.843137 0.980392 0.803922
0.894118 0.984314 0.823529
0.956863 0.988235 0.807843
0.231373 0.145098 0.666667
0.32549 0.156863 0.682353
0.509804 0.172549 0.690196
0.717647 0.164706 0.713725
0.913725 0.152941 0.721569
0.286275 0.278431 0.694118
0.368627 0.294118 0.713725
0.54902 0.321569 0.721569
0.741176 0.32549 0.729412
0.933333 0.337255 0.741176
0.435294 0.556863 0.729412
0.486275 0.552941 0.729412
0.6 0.545098 0.737255
0.784314 0.580392 0.760784
0.937255 0.588235 0.756863
0.596078 0.796078 0.776471
0.631373 0.8 0.772549
0.717647 0.807843 0.784314
0.839216 0.819608 0.803922
0.94902 0.803922 0.768627
0.819608 0.976471 0.87451
0.827451 0.976471 0.87451
0.862745 0.976471 0.882353
0.913725 0.984314 0.894118
0.968627 0.988235 0.898039
0.482353 0.360784 0.921569
0.537255 0.380392 0.933333
0.654902 0.407843 0.933333
0.796078 0.482353 0.933333
0.917647 0.482353 0.941176
0.529412 0.454902 0.94902
0.564706 0.462745 0.94902
0.682353 0.494118 0.952941
0.815686 0.552941 0.941176
0.929412 0.552941 0.945098
0.576471 0.619608 0.94902
0.611765 0.623529 0.94902
0.713725 0.647059 0.952941
0.835294 0.686275 0.94902
0.941176 0.701961 0.952941
0.709804 0.847059 0.956863
0.721569 0.843137 0.956863
0.780392 0.839216 0.952941
0.85098 0.823529 0.956863
0.956863 0.85098 0.960784
0.847059 0.980392 0.980392
0.862745 0.984314 0.980392
0.886275 0.984314 0.984314
0.921569 0.984314 0.984314
0.984314 0.988235 0.988235
