resources/LUTs/LUT Colour Grades (cube)/Natural_Film_Warm.cube
#Generated by Picture Instruments - Look Creator
TITLE "Kodak Ektar 25Warm"
LUT_3D_SIZE 5
0 0 0
0.184314 0.0196078 0
0.45098 0.0156863 0
0.690196 0.141176 0
0.886275 0.258824 0
0.0313725 0.184314 0.0470588
0.203922 0.203922 0.0196078
0.509804 0.235294 0
0.713725 0.270588 0
0.901961 0.345098 0
0.184314 0.435294 0.121569
0.270588 0.427451 0.105882
0.478431 0.462745 0.0235294
0.733333 0.498039 0
0.929412 0.52549 0
0.337255 0.666667 0.247059
0.384314 0.654902 0.235294
0.494118 0.635294 0.2
0.701961 0.690196 0.14902
0.92549 0.745098 0.0156863
0.545098 0.909804 0.462745
0.560784 0.898039 0.447059
0.654902 0.901961 0.447059
0.788235 0.917647 0.447059
0.952941 0.952941 0.454902
0 0.0156863 0.2
0.223529 0 0.188235
0.454902 0 0.12549
0.678431 0.133333 0.0980392
0.878431 0.258824 0
0.0627451 0.219608 0.203922
0.258824 0.235294 0.211765
0.498039 0.235294 0.172549
0.701961 0.266667 0.101961
0.890196 0.341176 0.00392157
0.227451 0.454902 0.247059
0.321569 0.466667 0.258824
0.509804 0.478431 0.231373
0.745098 0.509804 0.168627
0.92549 0.52549 0.0392157
0.34902 0.670588 0.32549
0.411765 0.670588 0.333333
0.513725 0.65098 0.301961
0.717647 0.701961 0.282353
0.929412 0.74902 0.235294
0.54902 0.905882 0.509804
0.572549 0.905882 0.501961
0.662745 0.913725 0.498039
0.796078 0.921569 0.498039
0.960784 0.956863 0.505882
0 0.0117647 0.498039
0.223529 0 0.494118
0.517647 0 0.466667
0.698039 0.0117647 0.34902
0.85098 0.278431 0.34902
0.054902 0.239216 0.482353
0.254902 0.231373 0.498039
0.537255 0.223529 0.486275
0.713725 0.258824 0.388235
0.878431 0.372549 0.384314
0.247059 0.494118 0.494118
0.356863 0.513725 0.509804
0.572549 0.533333 0.52549
0.733333 0.517647 0.466667
0.909804 0.529412 0.407843
0.384314 0.698039 0.509804
0.439216 0.705882 0.521569
0.580392 0.701961 0.529412
0.733333 0.717647 0.501961
0.937255 0.752941 0.482353
0.478431 0.92549 0.572549
0.537255 0.92549 0.584314
0.670588 0.921569 0.615686
0.792157 0.921569 0.592157
0.960784 0.960784 0.607843
0.00784314 0.0235294 0.705882
0.231373 0.00392157 0.701961
0.490196 0 0.698039
0.74902 0.0235294 0.698039
0.898039 0.254902 0.611765
0.0705882 0.227451 0.701961
0.270588 0.235294 0.721569
0.513725 0.231373 0.721569
0.756863 0.266667 0.709804
0.917647 0.364706 0.635294
0.266667 0.498039 0.705882
0.360784 0.505882 0.713725
0.537255 0.501961 0.72549
0.768627 0.52549 0.72549
0.905882 0.537255 0.647059
0.392157 0.721569 0.721569
0.45098 0.729412 0.729412
0.596078 0.737255 0.729412
0.788235 0.768627 0.752941
0.92549 0.745098 0.694118
0.486275 0.945098 0.760784
0.52549 0.94902 0.760784
0.623529 0.945098 0.74902
0.803922 0.945098 0.764706
0.960784 0.964706 0.756863
0.239216 0.160784 0.882353
0.34902 0.164706 0.909804
0.537255 0.176471 0.917647
0.745098 0.227451 0.921569
0.94902 0.341176 0.913725
0.278431 0.294118 0.921569
0.372549 0.301961 0.941176
0.552941 0.309804 0.937255
0.760784 0.345098 0.937255
0.956863 0.423529 0.92549
0.360784 0.529412 0.937255
0.396078 0.517647 0.945098
0.560784 0.513725 0.945098
0.764706 0.541176 0.945098
0.960784 0.576471 0.933333
0.384314 0.74902 0.941176
0.443137 0.752941 0.952941
0.564706 0.741176 0.945098
0.752941 0.733333 0.94902
0.964706 0.764706 0.94902
0.494118 0.964706 0.976471
0.533333 0.964706 0.976471
0.639216 0.964706 0.980392
0.796078 0.972549 0.980392
0.980392 0.980392 0.976471
