resources/LUTs/LUT Colour Grades (cube)/Natural_Film_Cool.cube
#Generated by Picture Instruments - Look Creator
TITLE "Kodak Ektar 25Cool"
LUT_3D_SIZE 9
0 0 0
0.0705882 0.0156863 0.00392157
0.156863 0.0392157 0
0.278431 0.0509804 0
0.407843 0.0745098 0
0.545098 0.121569 0
0.662745 0.172549 0
0.772549 0.227451 0
0.878431 0.282353 0
0.0156863 0.0862745 0.0431373
0.0745098 0.0941176 0.0392157
0.176471 0.113725 0.00784314
0.298039 0.129412 0
0.435294 0.14902 0
0.560784 0.172549 0
0.67451 0.211765 0
0.780392 0.258824 0
0.882353 0.309804 0
0.0156863 0.184314 0.0784314
0.0745098 0.188235 0.0784314
0.160784 0.207843 0.054902
0.309804 0.243137 0.0156863
0.466667 0.254902 0
0.580392 0.262745 0
0.694118 0.290196 0
0.788235 0.317647 0
0.894118 0.364706 0
0.0352941 0.313725 0.109804
0.0980392 0.321569 0.113725
0.172549 0.317647 0.101961
0.298039 0.34902 0.0627451
0.458824 0.384314 0.00784314
0.6 0.392157 0
0.717647 0.4 0
0.811765 0.415686 0
0.901961 0.443137 0
0.0941176 0.447059 0.152941
0.141176 0.45098 0.152941
0.203922 0.439216 0.145098
0.294118 0.447059 0.129412
0.431373 0.478431 0.0784314
0.588235 0.513725 0.00784314
0.709804 0.517647 0
0.827451 0.529412 0
0.921569 0.541176 0
0.172549 0.564706 0.211765
0.196078 0.564706 0.211765
0.25098 0.556863 0.2
0.321569 0.545098 0.188235
0.423529 0.564706 0.168627
0.556863 0.596078 0.133333
0.701961 0.631373 0.0392157
0.815686 0.639216 0.00392157
0.921569 0.65098 0
0.258824 0.686275 0.286275
0.270588 0.678431 0.282353
0.313725 0.670588 0.270588
0.376471 0.662745 0.262745
0.443137 0.65098 0.239216
0.564706 0.682353 0.227451
0.678431 0.705882 0.2
0.807843 0.741176 0.14902
0.921569 0.756863 0.101961
0.364706 0.803922 0.384314
0.368627 0.792157 0.372549
0.392157 0.780392 0.356863
0.443137 0.776471 0.34902
0.505882 0.768627 0.333333
0.588235 0.772549 0.321569
0.698039 0.8 0.313725
0.803922 0.815686 0.294118
0.917647 0.858824 0.270588
0.498039 0.921569 0.513725
0.490196 0.905882 0.494118
0.517647 0.909804 0.494118
0.564706 0.909804 0.494118
0.623529 0.913725 0.494118
0.686275 0.909804 0.490196
0.776471 0.921569 0.498039
0.866667 0.941176 0.505882
0.94902 0.952941 0.505882
0 0.00784314 0.109804
0.0705882 0.00784314 0.105882
0.164706 0.0156863 0.0862745
0.282353 0.0588235 0.0901961
0.407843 0.0784314 0.0627451
0.537255 0.109804 0.0156863
0.658824 0.164706 0.00392157
0.768627 0.219608 0
0.882353 0.282353 0
0 0.0980392 0.117647
0.0745098 0.101961 0.113725
0.172549 0.113725 0.113725
0.294118 0.12549 0.0980392
0.431373 0.145098 0.0666667
0.560784 0.168627 0.0156863
0.67451 0.207843 0.00392157
0.776471 0.254902 0
0.882353 0.305882 0
0.0313725 0.2 0.133333
0.0901961 0.207843 0.137255
0.172549 0.223529 0.12549
0.321569 0.243137 0.105882
0.462745 0.25098 0.0666667
0.576471 0.262745 0.0156863
0.686275 0.286275 0
0.792157 0.321569 0
0.894118 0.364706 0
0.0392157 0.32549 0.152941
0.109804 0.333333 0.160784
0.188235 0.333333 0.156863
0.305882 0.360784 0.133333
0.462745 0.388235 0.0901961
0.607843 0.396078 0.0313725
0.713725 0.396078 0.00392157
0.803922 0.411765 0
0.905882 0.443137 0
0.109804 0.454902 0.196078
0.152941 0.462745 0.2
0.211765 0.447059 0.184314
0.309804 0.454902 0.180392
0.439216 0.486275 0.152941
0.596078 0.517647 0.0980392
0.717647 0.52549 0.027451
0.827451 0.529412 0
0.921569 0.541176 0
0.176471 0.560784 0.243137
0.211765 0.576471 0.247059
0.262745 0.564706 0.239216
0.333333 0.556863 0.227451
0.435294 0.572549 0.215686
0.564706 0.6 0.188235
0.709804 0.631373 0.141176
0.823529 0.643137 0.0823529
0.921569 0.65098 0.00392157
0.25098 0.666667 0.301961
0.282353 0.682353 0.313725
0.32549 0.678431 0.305882
0.380392 0.670588 0.290196
0.454902 0.658824 0.27451
0.564706 0.678431 0.258824
0.682353 0.709804 0.239216
0.811765 0.741176 0.2
0.917647 0.756863 0.172549
0.34902 0.784314 0.384314
0.372549 0.792157 0.392157
0.396078 0.780392 0.380392
0.443137 0.776471 0.368627
0.513725 0.776471 0.360784
0.588235 0.776471 0.345098
0.705882 0.803922 0.341176
0.8 0.819608 0.317647
0.917647 0.854902 0.301961
0.494118 0.913725 0.521569
0.498039 0.913725 0.517647
0.52549 0.913725 0.513725
0.568627 0.913725 0.509804
0.619608 0.909804 0.505882
0.690196 0.913725 0.501961
0.780392 0.929412 0.513725
0.870588 0.945098 0.521569
0.94902 0.952941 0.517647
0 0.0156863 0.223529
0.0392157 0.0117647 0.223529
0.180392 0.00392157 0.211765
0.305882 0 0.172549
0.407843 0.0235294 0.156863
0.529412 0.105882 0.14902
0.65098 0.168627 0.137255
0.768627 0.227451 0.0980392
0.870588 0.278431 0.0235294
0 0.109804 0.223529
0.0392157 0.105882 0.223529
0.188235 0.109804 0.219608
0.305882 0.109804 0.188235
0.423529 0.152941 0.184314
0.54902 0.176471 0.164706
0.666667 0.211765 0.141176
0.772549 0.254902 0.0941176
0.866667 0.298039 0.0156863
0.00392157 0.223529 0.231373
0.0784314 0.231373 0.235294
0.2 0.239216 0.235294
0.321569 0.247059 0.219608
0.45098 0.254902 0.2
0.568627 0.266667 0.176471
0.678431 0.286275 0.145098
0.788235 0.32549 0.109804
0.878431 0.360784 0.0313725
0.054902 0.341176 0.243137
0.129412 0.356863 0.258824
0.223529 0.364706 0.262745
0.337255 0.380392 0.25098
0.482353 0.392157 0.223529
0.607843 0.392157 0.203922
0.713725 0.403922 0.176471
0.807843 0.419608 0.133333
0.901961 0.447059 0.0627451
0.133333 0.470588 0.278431
0.172549 0.47451 0.286275
0.254902 0.482353 0.286275
0.32549 0.470588 0.270588
0.458824 0.498039 0.262745
0.603922 0.52549 0.239216
0.721569 0.52549 0.211765
0.827451 0.533333 0.172549
0.917647 0.545098 0.113725
0.196078 0.576471 0.313725
0.235294 0.592157 0.32549
0.294118 0.588235 0.333333
0.356863 0.576471 0.313725
0.45098 0.580392 0.301961
0.580392 0.611765 0.286275
0.713725 0.643137 0.266667
0.823529 0.647059 0.235294
0.929412 0.658824 0.2
0.266667 0.686275 0.364706
0.294118 0.694118 0.372549
0.341176 0.686275 0.372549
0.403922 0.686275 0.364706
0.462745 0.666667 0.341176
0.568627 0.682353 0.329412
0.690196 0.713725 0.321569
0.815686 0.74902 0.298039
0.92549 0.760784 0.286275
0.360784 0.792157 0.435294
0.384314 0.796078 0.443137
0.419608 0.796078 0.443137
0.458824 0.788235 0.423529
0.521569 0.780392 0.407843
0.6 0.784314 0.4
0.698039 0.796078 0.392157
0.811765 0.827451 0.388235
0.92549 0.858824 0.372549
0.501961 0.913725 0.556863
0.509804 0.921569 0.556863
0.529412 0.917647 0.54902
0.576471 0.921569 0.54902
0.627451 0.921569 0.545098
0.694118 0.913725 0.537255
0.780392 0.92549 0.545098
0.870588 0.945098 0.556863
0.952941 0.956863 0.556863
0 0.0235294 0.388235
0 0.0156863 0.380392
0.160784 0 0.376471
0.329412 0 0.360784
0.462745 0 0.298039
0.556863 0.00784314 0.254902
0.635294 0.160784 0.258824
0.741176 0.231373 0.25098
0.85098 0.278431 0.227451
0 0.113725 0.384314
0 0.109804 0.380392
0.172549 0.113725 0.384314
0.341176 0.0941176 0.372549
0.466667 0.0745098 0.309804
0.564706 0.109804 0.270588
0.654902 0.227451 0.282353
0.764706 0.27451 0.270588
0.870588 0.309804 0.235294
0 0.235294 0.372549
0.00784314 0.243137 0.384314
0.180392 0.239216 0.388235
0.352941 0.25098 0.388235
0.470588 0.25098 0.333333
0.560784 0.282353 0.32549
0.662745 0.301961 0.301961
0.772549 0.333333 0.278431
0.882353 0.364706 0.247059
0.00784314 0.372549 0.388235
0.0862745 0.384314 0.4
0.219608 0.388235 0.4
0.368627 0.407843 0.411765
0.490196 0.407843 0.388235
0.592157 0.403922 0.356863
0.694118 0.411765 0.333333
0.788235 0.419608 0.294118
0.898039 0.45098 0.27451
0.14902 0.490196 0.4
0.196078 0.501961 0.407843
0.282353 0.509804 0.415686
0.384314 0.513725 0.419608
0.486275 0.521569 0.411765
0.619608 0.529412 0.396078
0.729412 0.533333 0.376471
0.819608 0.537255 0.337255
0.913725 0.54902 0.301961
0.223529 0.592157 0.423529
0.262745 0.607843 0.435294
0.32549 0.611765 0.439216
0.403922 0.607843 0.443137
0.470588 0.592157 0.419608
0.592157 0.619608 0.415686
0.721569 0.643137 0.403922
0.827451 0.647059 0.380392
0.921569 0.654902 0.34902
0.278431 0.698039 0.45098
0.305882 0.701961 0.454902
0.360784 0.705882 0.462745
0.431373 0.701961 0.462745
0.490196 0.686275 0.439216
0.576471 0.690196 0.427451
0.698039 0.721569 0.427451
0.815686 0.745098 0.411765
0.921569 0.760784 0.4
0.345098 0.8 0.490196
0.372549 0.807843 0.498039
0.415686 0.803922 0.501961
0.478431 0.8 0.501961
0.533333 0.792157 0.486275
0.6 0.780392 0.466667
0.698039 0.8 0.462745
0.811765 0.827451 0.458824
0.92549 0.858824 0.454902
0.47451 0.92549 0.584314
0.490196 0.929412 0.592157
0.533333 0.92549 0.6
0.580392 0.921569 0.6
0.627451 0.917647 0.592157
0.698039 0.92549 0.592157
0.776471 0.933333 0.592157
0.870588 0.945098 0.596078
0.952941 0.956863 0.603922
0 0.0313725 0.533333
0 0.0235294 0.533333
0.101961 0.0117647 0.533333
0.313725 0 0.529412
0.470588 0 0.501961
0.588235 0.00392157 0.435294
0.670588 0.0431373 0.384314
0.752941 0.145098 0.352941
0.839216 0.298039 0.388235
0 0.117647 0.52549
0 0.117647 0.529412
0.105882 0.113725 0.529412
0.313725 0.0941176 0.533333
0.486275 0.0627451 0.521569
0.607843 0.0980392 0.458824
0.690196 0.152941 0.403922
0.772549 0.207843 0.372549
0.858824 0.341176 0.407843
0 0.247059 0.521569
0 0.247059 0.533333
0.145098 0.243137 0.533333
0.32549 0.243137 0.533333
0.490196 0.247059 0.52549
0.603922 0.258824 0.462745
0.690196 0.278431 0.427451
0.764706 0.329412 0.411765
0.866667 0.392157 0.419608
0 0.376471 0.517647
0.027451 0.384314 0.533333
0.203922 0.392157 0.537255
0.345098 0.392157 0.541176
0.505882 0.403922 0.545098
0.603922 0.407843 0.494118
0.678431 0.411765 0.462745
0.772549 0.435294 0.45098
0.882353 0.454902 0.423529
0.0980392 0.509804 0.533333
0.168627 0.521569 0.545098
0.27451 0.529412 0.552941
0.392157 0.533333 0.556863
0.52549 0.556863 0.568627
0.615686 0.541176 0.545098
0.709804 0.533333 0.509804
0.8 0.537255 0.47451
0.898039 0.545098 0.447059
0.25098 0.619608 0.545098
0.286275 0.627451 0.556863
0.345098 0.627451 0.556863
0.431373 0.631373 0.564706
0.529412 0.635294 0.568627
0.615686 0.639216 0.552941
0.729412 0.654902 0.537255
0.831373 0.654902 0.517647
0.917647 0.654902 0.486275
0.301961 0.717647 0.552941
0.329412 0.72549 0.568627
0.368627 0.717647 0.560784
0.447059 0.72549 0.568627
0.537255 0.721569 0.576471
0.592157 0.701961 0.541176
0.705882 0.729412 0.541176
0.831373 0.756863 0.537255
0.92549 0.764706 0.52549
0.317647 0.811765 0.564706
0.341176 0.815686 0.572549
0.396078 0.815686 0.572549
0.47451 0.815686 0.580392
0.556863 0.807843 0.592157
0.619608 0.796078 0.564706
0.701961 0.803922 0.54902
0.815686 0.827451 0.556863
0.933333 0.866667 0.564706
0.411765 0.933333 0.623529
0.439216 0.933333 0.627451
0.486275 0.933333 0.635294
0.564706 0.933333 0.654902
0.643137 0.929412 0.666667
0.701961 0.929412 0.654902
0.772549 0.92549 0.643137
0.870588 0.94902 0.658824
0.952941 0.964706 0.658824
0 0.0392157 0.65098
0 0.0352941 0.658824
0.027451 0.0156863 0.654902
0.282353 0.00392157 0.643137
0.45098 0 0.639216
0.596078 0 0.623529
0.694118 0.0470588 0.564706
0.780392 0.156863 0.517647
0.866667 0.243137 0.501961
0 0.12549 0.647059
0 0.12549 0.654902
0.0392157 0.117647 0.65098
0.298039 0.113725 0.658824
0.462745 0.0745098 0.654902
0.615686 0.0823529 0.647059
0.713725 0.160784 0.584314
0.796078 0.223529 0.537255
0.890196 0.294118 0.521569
0 0.231373 0.639216
0 0.243137 0.654902
0.0941176 0.243137 0.654902
0.305882 0.247059 0.658824
0.478431 0.254902 0.662745
0.619608 0.258824 0.65098
0.709804 0.286275 0.584314
0.796078 0.317647 0.54902
0.882353 0.356863 0.529412
0 0.376471 0.635294
0.0235294 0.392157 0.654902
0.211765 0.4 0.662745
0.333333 0.388235 0.662745
0.482353 0.396078 0.666667
0.627451 0.411765 0.666667
0.717647 0.415686 0.603922
0.796078 0.427451 0.568627
0.878431 0.439216 0.545098
0.0745098 0.517647 0.654902
0.152941 0.521569 0.654902
0.254902 0.521569 0.654902
0.376471 0.52549 0.662745
0.501961 0.533333 0.67451
0.635294 0.541176 0.666667
0.717647 0.541176 0.623529
0.788235 0.52549 0.592157
0.878431 0.556863 0.588235
0.227451 0.635294 0.662745
0.266667 0.639216 0.670588
0.333333 0.643137 0.670588
0.431373 0.65098 0.678431
0.541176 0.658824 0.682353
0.65098 0.670588 0.686275
0.737255 0.662745 0.670588
0.815686 0.65098 0.635294
0.909804 0.654902 0.611765
0.32549 0.737255 0.678431
0.352941 0.737255 0.678431
0.4 0.741176 0.678431
0.478431 0.745098 0.678431
0.556863 0.741176 0.678431
0.647059 0.741176 0.686275
0.729412 0.74902 0.670588
0.843137 0.764706 0.666667
0.929412 0.764706 0.65098
0.376471 0.847059 0.698039
0.372549 0.827451 0.67451
0.419608 0.835294 0.678431
0.478431 0.831373 0.682353
0.560784 0.835294 0.678431
0.647059 0.819608 0.682353
0.709804 0.807843 0.65098
0.827451 0.839216 0.670588
0.933333 0.862745 0.670588
0.372549 0.956863 0.709804
0.384314 0.945098 0.705882
0.427451 0.94902 0.701961
0.501961 0.945098 0.701961
0.619608 0.945098 0.721569
0.713725 0.941176 0.737255
0.784314 0.941176 0.72549
0.870588 0.94902 0.72549
0.952941 0.968627 0.733333
0 0.0666667 0.756863
0 0.0627451 0.760784
0.0196078 0.0431373 0.752941
0.278431 0.0313725 0.74902
0.435294 0.0117647 0.741176
0.588235 0.0156863 0.74902
0.72549 0.0627451 0.745098
0.788235 0.184314 0.678431
0.890196 0.27451 0.658824
0 0.145098 0.756863
0 0.145098 0.772549
0.0392157 0.141176 0.768627
0.290196 0.133333 0.768627
0.45098 0.113725 0.768627
0.607843 0.129412 0.772549
0.737255 0.160784 0.756863
0.807843 0.243137 0.694118
0.909804 0.317647 0.67451
0 0.243137 0.745098
0 0.247059 0.760784
0.0901961 0.25098 0.768627
0.301961 0.25098 0.768627
0.458824 0.254902 0.768627
0.6 0.262745 0.768627
0.733333 0.286275 0.760784
0.811765 0.337255 0.701961
0.905882 0.384314 0.682353
0.00392157 0.392157 0.752941
0.0470588 0.396078 0.768627
0.152941 0.372549 0.760784
0.329412 0.384314 0.768627
0.47451 0.388235 0.772549
0.611765 0.4 0.768627
0.737255 0.415686 0.760784
0.815686 0.443137 0.709804
0.898039 0.462745 0.686275
0.0705882 0.513725 0.752941
0.145098 0.521569 0.764706
0.254902 0.521569 0.760784
0.380392 0.529412 0.772549
0.486275 0.517647 0.768627
0.619608 0.533333 0.776471
0.741176 0.541176 0.768627
0.815686 0.545098 0.717647
0.894118 0.552941 0.694118
0.207843 0.631373 0.760784
0.243137 0.639216 0.764706
0.313725 0.639216 0.764706
0.403922 0.639216 0.768627
0.513725 0.647059 0.772549
0.631373 0.65098 0.780392
0.752941 0.662745 0.776471
0.823529 0.65098 0.741176
0.894118 0.643137 0.705882
0.301961 0.737255 0.768627
0.32549 0.745098 0.776471
0.380392 0.745098 0.772549
0.458824 0.752941 0.776471
0.552941 0.74902 0.776471
0.65098 0.760784 0.776471
0.768627 0.780392 0.8
0.835294 0.760784 0.768627
0.913725 0.756863 0.741176
0.372549 0.835294 0.772549
0.4 0.847059 0.784314
0.439216 0.839216 0.784314
0.509804 0.85098 0.788235
0.592157 0.847059 0.784314
0.670588 0.843137 0.784314
0.752941 0.843137 0.780392
0.835294 0.847059 0.772549
0.937255 0.866667 0.776471
0.427451 0.952941 0.807843
0.439216 0.956863 0.807843
0.47451 0.952941 0.811765
0.521569 0.952941 0.803922
0.588235 0.952941 0.796078
0.670588 0.952941 0.792157
0.788235 0.94902 0.811765
0.866667 0.94902 0.796078
0.956863 0.968627 0.803922
0 0.113725 0.839216
0 0.113725 0.85098
0.121569 0.109804 0.85098
0.305882 0.0980392 0.847059
0.45098 0.0862745 0.843137
0.584314 0.0862745 0.847059
0.713725 0.137255 0.85098
0.835294 0.211765 0.847059
0.890196 0.301961 0.796078
0 0.168627 0.85098
0 0.176471 0.87451
0.133333 0.172549 0.870588
0.321569 0.168627 0.870588
0.462745 0.164706 0.870588
0.603922 0.180392 0.87451
0.733333 0.211765 0.870588
0.839216 0.25098 0.85098
0.901961 0.337255 0.807843
0 0.258824 0.847059
0 0.266667 0.866667
0.164706 0.270588 0.870588
0.333333 0.270588 0.870588
0.47451 0.278431 0.87451
0.607843 0.290196 0.870588
0.733333 0.309804 0.870588
0.847059 0.341176 0.858824
0.905882 0.4 0.811765
0.00392157 0.376471 0.85098
0.0235294 0.384314 0.870588
0.207843 0.388235 0.870588
0.34902 0.392157 0.870588
0.482353 0.4 0.870588
0.607843 0.407843 0.870588
0.733333 0.423529 0.870588
0.843137 0.443137 0.858824
0.901961 0.482353 0.819608
0.14902 0.52549 0.858824
0.2 0.529412 0.870588
0.282353 0.529412 0.870588
0.352941 0.505882 0.866667
0.486275 0.513725 0.870588
0.611765 0.521569 0.870588
0.737255 0.537255 0.870588
0.843137 0.552941 0.862745
0.913725 0.576471 0.827451
0.196078 0.639216 0.858824
0.231373 0.639216 0.866667
0.298039 0.639216 0.866667
0.392157 0.635294 0.862745
0.505882 0.635294 0.866667
0.615686 0.631373 0.870588
0.745098 0.65098 0.878431
0.85098 0.658824 0.870588
0.92549 0.678431 0.843137
0.278431 0.745098 0.862745
0.305882 0.74902 0.866667
0.356863 0.74902 0.870588
0.439216 0.752941 0.870588
0.529412 0.752941 0.870588
0.631373 0.752941 0.870588
0.741176 0.752941 0.87451
0.854902 0.764706 0.87451
0.933333 0.772549 0.854902
0.364706 0.847059 0.870588
0.384314 0.85098 0.87451
0.431373 0.854902 0.878431
0.501961 0.858824 0.878431
0.576471 0.854902 0.878431
0.666667 0.858824 0.878431
0.768627 0.866667 0.882353
0.87451 0.878431 0.894118
0.945098 0.870588 0.87451
0.423529 0.960784 0.898039
0.439216 0.960784 0.901961
0.478431 0.964706 0.901961
0.541176 0.964706 0.901961
0.615686 0.964706 0.898039
0.705882 0.964706 0.894118
0.780392 0.960784 0.886275
0.870588 0.960784 0.886275
0.964706 0.972549 0.890196
0.0588235 0.184314 0.905882
0.152941 0.196078 0.933333
0.258824 0.196078 0.929412
0.376471 0.196078 0.929412
0.494118 0.203922 0.937255
0.611765 0.219608 0.937255
0.729412 0.247059 0.941176
0.839216 0.301961 0.941176
0.941176 0.360784 0.937255
0.0901961 0.231373 0.937255
0.164706 0.239216 0.964706
0.27451 0.243137 0.960784
0.396078 0.247059 0.960784
0.509804 0.25098 0.960784
0.627451 0.262745 0.956863
0.745098 0.294118 0.960784
0.85098 0.337255 0.956863
0.956863 0.392157 0.952941
0.129412 0.309804 0.941176
0.188235 0.317647 0.960784
0.290196 0.321569 0.960784
0.396078 0.32549 0.960784
0.513725 0.329412 0.960784
0.631373 0.341176 0.956863
0.745098 0.364706 0.960784
0.854902 0.4 0.956863
0.952941 0.443137 0.952941
0.156863 0.411765 0.945098
0.215686 0.419608 0.964706
0.309804 0.423529 0.964706
0.411765 0.423529 0.960784
0.517647 0.431373 0.960784
0.635294 0.439216 0.960784
0.74902 0.458824 0.960784
0.854902 0.482353 0.956863
0.94902 0.509804 0.952941
0.266667 0.54902 0.952941
0.294118 0.54902 0.960784
0.317647 0.533333 0.964706
0.403922 0.52549 0.960784
0.52549 0.533333 0.964706
0.631373 0.541176 0.960784
0.745098 0.556863 0.964706
0.854902 0.572549 0.960784
0.956863 0.592157 0.952941
0.266667 0.65098 0.952941
0.290196 0.654902 0.956863
0.360784 0.662745 0.964706
0.439216 0.654902 0.964706
0.517647 0.639216 0.960784
0.627451 0.635294 0.960784
0.741176 0.643137 0.960784
0.854902 0.666667 0.960784
0.960784 0.686275 0.960784
0.305882 0.764706 0.956863
0.333333 0.764706 0.964706
0.384314 0.768627 0.964706
0.447059 0.764706 0.964706
0.52549 0.756863 0.960784
0.635294 0.752941 0.964706
0.737255 0.74902 0.960784
0.854902 0.764706 0.964706
0.960784 0.776471 0.960784
0.376471 0.870588 0.968627
0.392157 0.87451 0.972549
0.427451 0.870588 0.968627
0.494118 0.87451 0.972549
0.564706 0.866667 0.968627
0.65098 0.866667 0.968627
0.752941 0.862745 0.968627
0.862745 0.866667 0.972549
0.968627 0.87451 0.972549
0.458824 0.968627 0.980392
0.478431 0.972549 0.984314
0.501961 0.972549 0.984314
0.560784 0.972549 0.984314
0.623529 0.968627 0.984314
0.709804 0.976471 0.984314
0.788235 0.972549 0.984314
0.882353 0.976471 0.984314
0.980392 0.980392 0.980392
