resources/LUTs/LUT Colour Grades (cube)/Natural_Film_Cool.cube
#Generated by Picture Instruments - Look Creator
TITLE "Kodak Ektar 25Cool"
LUT_3D_SIZE 5
0 0 0
0.156863 0.0392157 0
0.407843 0.0745098 0
0.662745 0.172549 0
0.878431 0.282353 0
0.0156863 0.184314 0.0784314
0.160784 0.207843 0.054902
0.466667 0.254902 0
0.694118 0.290196 0
0.894118 0.364706 0
0.0941176 0.447059 0.152941
0.203922 0.439216 0.145098
0.431373 0.478431 0.0784314
0.709804 0.517647 0
0.921569 0.541176 0
0.258824 0.686275 0.286275
0.313725 0.670588 0.270588
0.443137 0.65098 0.239216
0.678431 0.705882 0.2
0.921569 0.756863 0.101961
0.498039 0.921569 0.513725
0.517647 0.909804 0.494118
0.623529 0.913725 0.494118
0.776471 0.921569 0.498039
0.94902 0.952941 0.505882
0 0.0156863 0.223529
0.180392 0.00392157 0.211765
0.407843 0.0235294 0.156863
0.65098 0.168627 0.137255
0.870588 0.278431 0.0235294
0.00392157 0.223529 0.231373
0.2 0.239216 0.235294
0.45098 0.254902 0.2
0.678431 0.286275 0.145098
0.878431 0.360784 0.0313725
0.133333 0.470588 0.278431
0.254902 0.482353 0.286275
0.458824 0.498039 0.262745
0.721569 0.52549 0.211765
0.917647 0.545098 0.113725
0.266667 0.686275 0.364706
0.341176 0.686275 0.372549
0.462745 0.666667 0.341176
0.690196 0.713725 0.321569
0.92549 0.760784 0.286275
0.501961 0.913725 0.556863
0.529412 0.917647 0.54902
0.627451 0.921569 0.545098
0.780392 0.92549 0.545098
0.952941 0.956863 0.556863
0 0.0313725 0.533333
0.101961 0.0117647 0.533333
0.470588 0 0.501961
0.670588 0.0431373 0.384314
0.839216 0.298039 0.388235
0 0.247059 0.521569
0.145098 0.243137 0.533333
0.490196 0.247059 0.52549
0.690196 0.278431 0.427451
0.866667 0.392157 0.419608
0.0980392 0.509804 0.533333
0.27451 0.529412 0.552941
0.52549 0.556863 0.568627
0.709804 0.533333 0.509804
0.898039 0.545098 0.447059
0.301961 0.717647 0.552941
0.368627 0.717647 0.560784
0.537255 0.721569 0.576471
0.705882 0.729412 0.541176
0.92549 0.764706 0.52549
0.411765 0.933333 0.623529
0.486275 0.933333 0.635294
0.643137 0.929412 0.666667
0.772549 0.92549 0.643137
0.952941 0.964706 0.658824
0 0.0666667 0.756863
0.0196078 0.0431373 0.752941
0.435294 0.0117647 0.741176
0.72549 0.0627451 0.745098
0.890196 0.27451 0.658824
0 0.243137 0.745098
0.0901961 0.25098 0.768627
0.458824 0.254902 0.768627
0.733333 0.286275 0.760784
0.905882 0.384314 0.682353
0.0705882 0.513725 0.752941
0.254902 0.521569 0.760784
0.486275 0.517647 0.768627
0.741176 0.541176 0.768627
0.894118 0.552941 0.694118
0.301961 0.737255 0.768627
0.380392 0.745098 0.772549
0.552941 0.74902 0.776471
0.768627 0.780392 0.8
0.913725 0.756863 0.741176
0.427451 0.952941 0.807843
0.47451 0.952941 0.811765
0.588235 0.952941 0.796078
0.788235 0.94902 0.811765
0.956863 0.968627 0.803922
0.0588235 0.184314 0.905882
0.258824 0.196078 0.929412
0.494118 0.203922 0.937255
0.729412 0.247059 0.941176
0.941176 0.360784 0.937255
0.129412 0.309804 0.941176
0.290196 0.321569 0.960784
0.513725 0.329412 0.960784
0.745098 0.364706 0.960784
0.952941 0.443137 0.952941
0.266667 0.54902 0.952941
0.317647 0.533333 0.964706
0.52549 0.533333 0.964706
0.745098 0.556863 0.964706
0.956863 0.592157 0.952941
0.305882 0.764706 0.956863
0.384314 0.768627 0.964706
0.52549 0.756863 0.960784
0.737255 0.74902 0.960784
0.960784 0.776471 0.960784
0.458824 0.968627 0.980392
0.501961 0.972549 0.984314
0.623529 0.968627 0.984314
0.788235 0.972549 0.984314
0.980392 0.980392 0.980392
