resources/LUTs/LUT Colour Grades (cube)/Natural_Film_Cool.cube
#Generated by Picture Instruments - Look Creator
TITLE "Kodak Ektar 25Cool"
LUT_3D_SIZE 17
0 0 0
0.027451 0.00392157 0
0.0705882 0.0156863 0.00392157
0.109804 0.0352941 0.00392157
0.156863 0.0392157 0
0.219608 0.0470588 0
0.278431 0.0509804 0
0.34902 0.0705882 0
0.407843 0.0745098 0
0.47451 0.0980392 0
0.545098 0.121569 0
0.603922 0.141176 0
0.662745 0.172549 0
0.721569 0.2 0
0.772549 0.227451 0
0.823529 0.254902 0
0.878431 0.282353 0
0.00392157 0.0431373 0.0235294
0.0352941 0.0470588 0.0156863
0.0705882 0.054902 0.00784314
0.117647 0.0666667 0.00392157
0.160784 0.0705882 0
0.223529 0.0823529 0
0.290196 0.0901961 0
0.356863 0.0980392 0
0.431373 0.117647 0
0.494118 0.12549 0
0.552941 0.141176 0
0.611765 0.160784 0
0.670588 0.184314 0
0.72549 0.211765 0
0.776471 0.239216 0
0.831373 0.27451 0
0.882353 0.294118 0
0.0156863 0.0862745 0.0431373
0.0431373 0.0901961 0.0509804
0.0745098 0.0941176 0.0392157
0.117647 0.105882 0.0235294
0.176471 0.113725 0.00784314
0.231373 0.117647 0
0.298039 0.129412 0
0.360784 0.133333 0
0.435294 0.14902 0
0.498039 0.160784 0
0.560784 0.172549 0
0.619608 0.192157 0
0.67451 0.211765 0
0.729412 0.235294 0
0.780392 0.258824 0
0.827451 0.282353 0
0.882353 0.309804 0
0.0156863 0.129412 0.0627451
0.0431373 0.133333 0.0627451
0.0745098 0.133333 0.0627451
0.117647 0.14902 0.054902
0.172549 0.160784 0.0313725
0.235294 0.168627 0.0117647
0.309804 0.180392 0
0.376471 0.184314 0
0.443137 0.192157 0
0.505882 0.196078 0
0.572549 0.215686 0
0.627451 0.227451 0
0.686275 0.247059 0
0.733333 0.262745 0
0.788235 0.290196 0
0.831373 0.309804 0
0.886275 0.333333 0
0.0156863 0.184314 0.0784314
0.0470588 0.192157 0.0823529
0.0745098 0.188235 0.0784314
0.113725 0.192157 0.0705882
0.160784 0.207843 0.054902
0.231373 0.227451 0.027451
0.309804 0.243137 0.0156863
0.388235 0.25098 0.00392157
0.466667 0.254902 0
0.52549 0.258824 0
0.580392 0.262745 0
0.639216 0.27451 0
0.694118 0.290196 0
0.737255 0.298039 0
0.788235 0.317647 0
0.839216 0.341176 0
0.894118 0.364706 0
0.0235294 0.247059 0.0941176
0.0470588 0.254902 0.0941176
0.0784314 0.247059 0.0901961
0.121569 0.25098 0.0901961
0.164706 0.258824 0.0745098
0.227451 0.278431 0.0666667
0.301961 0.301961 0.027451
0.380392 0.309804 0.00784314
0.458824 0.317647 0
0.537255 0.321569 0
0.596078 0.321569 0
0.65098 0.333333 0
0.701961 0.337255 0
0.74902 0.352941 0
0.8 0.368627 0
0.847059 0.380392 0
0.901961 0.403922 0
0.0352941 0.313725 0.109804
0.0627451 0.321569 0.113725
0.0980392 0.321569 0.113725
0.133333 0.317647 0.105882
0.172549 0.317647 0.101961
0.231373 0.333333 0.0901961
0.298039 0.34902 0.0627451
0.376471 0.372549 0.0196078
0.458824 0.384314 0.00784314
0.529412 0.388235 0
0.6 0.392157 0
0.662745 0.396078 0
0.717647 0.4 0
0.768627 0.407843 0
0.811765 0.415686 0
0.854902 0.427451 0
0.901961 0.443137 0
0.0588235 0.376471 0.129412
0.0901961 0.388235 0.133333
0.113725 0.388235 0.129412
0.14902 0.384314 0.12549
0.188235 0.380392 0.12549
0.235294 0.384314 0.113725
0.298039 0.403922 0.101961
0.360784 0.415686 0.0627451
0.45098 0.443137 0.0235294
0.521569 0.447059 0.00392157
0.592157 0.45098 0
0.654902 0.454902 0
0.717647 0.458824 0
0.776471 0.466667 0
0.823529 0.470588 0
0.862745 0.47451 0
0.913725 0.494118 0
0.0941176 0.447059 0.152941
0.113725 0.447059 0.14902
0.141176 0.45098 0.152941
0.168627 0.447059 0.14902
0.203922 0.439216 0.145098
0.247059 0.439216 0.141176
0.294118 0.447059 0.129412
0.364706 0.466667 0.117647
0.431373 0.478431 0.0784314
0.513725 0.501961 0.0313725
0.588235 0.513725 0.00784314
0.65098 0.517647 0
0.709804 0.517647 0
0.772549 0.52549 0
0.827451 0.529412 0
0.87451 0.533333 0
0.921569 0.541176 0
0.133333 0.505882 0.180392
0.14902 0.509804 0.184314
0.168627 0.505882 0.180392
0.196078 0.505882 0.176471
0.227451 0.498039 0.172549
0.262745 0.494118 0.164706
0.305882 0.494118 0.164706
0.364706 0.509804 0.14902
0.427451 0.521569 0.133333
0.494118 0.537255 0.105882
0.568627 0.552941 0.0627451
0.643137 0.572549 0.0117647
0.709804 0.580392 0.00392157
0.760784 0.576471 0
0.823529 0.588235 0
0.87451 0.588235 0
0.921569 0.596078 0
0.172549 0.564706 0.211765
0.180392 0.568627 0.211765
0.196078 0.564706 0.211765
0.223529 0.560784 0.203922
0.25098 0.556863 0.2
0.286275 0.556863 0.2
0.321569 0.545098 0.188235
0.368627 0.54902 0.180392
0.423529 0.564706 0.168627
0.490196 0.580392 0.156863
0.556863 0.596078 0.133333
0.627451 0.611765 0.0980392
0.701961 0.631373 0.0392157
0.760784 0.635294 0.0156863
0.815686 0.639216 0.00392157
0.870588 0.643137 0
0.921569 0.65098 0
0.207843 0.623529 0.243137
0.215686 0.623529 0.243137
0.235294 0.623529 0.243137
0.254902 0.623529 0.243137
0.282353 0.619608 0.239216
0.309804 0.611765 0.227451
0.345098 0.603922 0.219608
0.380392 0.596078 0.211765
0.431373 0.607843 0.207843
0.494118 0.627451 0.2
0.552941 0.631373 0.180392
0.615686 0.647059 0.160784
0.686275 0.658824 0.133333
0.756863 0.686275 0.0941176
0.811765 0.690196 0.054902
0.866667 0.698039 0.027451
0.921569 0.705882 0.0117647
0.258824 0.686275 0.286275
0.262745 0.678431 0.282353
0.270588 0.678431 0.282353
0.298039 0.682353 0.282353
0.313725 0.670588 0.270588
0.341176 0.666667 0.262745
0.376471 0.662745 0.262745
0.403922 0.654902 0.247059
0.443137 0.65098 0.239216
0.498039 0.662745 0.231373
0.564706 0.682353 0.227451
0.619608 0.694118 0.215686
0.678431 0.705882 0.2
0.737255 0.713725 0.172549
0.807843 0.741176 0.14902
0.870588 0.752941 0.129412
0.921569 0.756863 0.101961
0.305882 0.741176 0.329412
0.309804 0.737255 0.32549
0.313725 0.733333 0.321569
0.333333 0.733333 0.317647
0.34902 0.729412 0.309804
0.376471 0.721569 0.305882
0.407843 0.721569 0.301961
0.443137 0.717647 0.298039
0.470588 0.705882 0.278431
0.517647 0.713725 0.278431
0.568627 0.72549 0.270588
0.623529 0.733333 0.262745
0.686275 0.74902 0.254902
0.741176 0.760784 0.243137
0.8 0.772549 0.223529
0.866667 0.8 0.207843
0.92549 0.811765 0.2
0.364706 0.803922 0.384314
0.356863 0.792157 0.372549
0.368627 0.792157 0.372549
0.376471 0.784314 0.360784
0.392157 0.780392 0.356863
0.419608 0.784314 0.360784
0.443137 0.776471 0.34902
0.47451 0.776471 0.345098
0.505882 0.768627 0.333333
0.541176 0.768627 0.32549
0.588235 0.772549 0.321569
0.635294 0.784314 0.313725
0.698039 0.8 0.313725
0.745098 0.803922 0.301961
0.803922 0.815686 0.294118
0.85098 0.823529 0.270588
0.917647 0.858824 0.270588
0.419608 0.854902 0.435294
0.419608 0.847059 0.427451
0.423529 0.847059 0.427451
0.431373 0.843137 0.419608
0.447059 0.839216 0.411765
0.462745 0.835294 0.407843
0.498039 0.843137 0.411765
0.52549 0.839216 0.407843
0.552941 0.835294 0.403922
0.588235 0.831373 0.392157
0.619608 0.831373 0.384314
0.670588 0.839216 0.384314
0.721569 0.854902 0.388235
0.768627 0.862745 0.384314
0.823529 0.870588 0.380392
0.87451 0.886275 0.372549
0.921569 0.894118 0.368627
0.498039 0.921569 0.513725
0.490196 0.913725 0.501961
0.490196 0.905882 0.494118
0.509804 0.913725 0.498039
0.517647 0.909804 0.494118
0.541176 0.913725 0.494118
0.564706 0.909804 0.494118
0.588235 0.909804 0.494118
0.623529 0.913725 0.494118
0.654902 0.913725 0.494118
0.686275 0.909804 0.490196
0.729412 0.917647 0.490196
0.776471 0.921569 0.498039
0.815686 0.929412 0.498039
0.866667 0.941176 0.505882
0.913725 0.952941 0.509804
0.94902 0.952941 0.505882
0 0.00392157 0.0666667
0.0313725 0.00392157 0.0627451
0.0705882 0.0117647 0.054902
0.109804 0.0313725 0.054902
0.160784 0.0509804 0.0588235
0.215686 0.0509804 0.0470588
0.282353 0.0588235 0.0392157
0.341176 0.0627451 0.0156863
0.407843 0.0784314 0.00392157
0.47451 0.0941176 0
0.541176 0.113725 0
0.6 0.141176 0
0.658824 0.164706 0
0.717647 0.196078 0
0.772549 0.223529 0
0.823529 0.258824 0
0.882353 0.286275 0
0 0.0470588 0.0666667
0.0352941 0.0509804 0.0666667
0.0745098 0.054902 0.0705882
0.113725 0.0627451 0.0627451
0.164706 0.0705882 0.054902
0.223529 0.0823529 0.0509804
0.286275 0.0862745 0.0352941
0.356863 0.101961 0.0235294
0.419608 0.105882 0.00392157
0.494118 0.12549 0
0.552941 0.137255 0
0.615686 0.164706 0
0.670588 0.184314 0
0.721569 0.207843 0
0.776471 0.235294 0
0.823529 0.262745 0
0.882353 0.294118 0
0.0117647 0.0862745 0.0784314
0.0392157 0.0901961 0.0823529
0.0784314 0.101961 0.0823529
0.121569 0.105882 0.0705882
0.176471 0.113725 0.0666667
0.231373 0.117647 0.054902
0.298039 0.129412 0.0470588
0.364706 0.137255 0.0196078
0.431373 0.145098 0.0117647
0.498039 0.156863 0
0.556863 0.168627 0
0.619608 0.192157 0
0.67451 0.207843 0
0.72549 0.231373 0
0.776471 0.254902 0
0.827451 0.282353 0
0.882353 0.309804 0
0.0196078 0.133333 0.0862745
0.0470588 0.141176 0.0901961
0.0745098 0.137255 0.0862745
0.117647 0.152941 0.0862745
0.168627 0.160784 0.0705882
0.243137 0.176471 0.0666667
0.309804 0.176471 0.0392157
0.376471 0.184314 0.0235294
0.447059 0.196078 0.0117647
0.509804 0.2 0.00392157
0.572549 0.215686 0
0.627451 0.227451 0
0.678431 0.243137 0
0.737255 0.266667 0
0.784314 0.286275 0
0.831373 0.305882 0
0.890196 0.333333 0
0.0235294 0.192157 0.101961
0.0470588 0.196078 0.101961
0.0862745 0.2 0.109804
0.121569 0.2 0.0980392
0.164706 0.207843 0.0823529
0.243137 0.235294 0.0745098
0.313725 0.243137 0.0509804
0.392157 0.247059 0.0235294
0.458824 0.25098 0.00784314
0.52549 0.258824 0.00392157
0.580392 0.262745 0
0.635294 0.270588 0
0.690196 0.286275 0
0.737255 0.301961 0
0.792157 0.321569 0
0.839216 0.341176 0
0.890196 0.360784 0
0.0313725 0.258824 0.117647
0.0509804 0.258824 0.113725
0.0901961 0.258824 0.117647
0.12549 0.258824 0.113725
0.168627 0.266667 0.105882
0.231373 0.286275 0.0901961
0.309804 0.301961 0.0627451
0.392157 0.317647 0.0392157
0.462745 0.317647 0.0117647
0.541176 0.321569 0.00392157
0.6 0.32549 0
0.65098 0.329412 0
0.705882 0.341176 0
0.756863 0.352941 0
0.796078 0.364706 0
0.847059 0.384314 0
0.898039 0.4 0
0.0392157 0.317647 0.12549
0.0705882 0.329412 0.133333
0.101961 0.32549 0.129412
0.141176 0.32549 0.129412
0.176471 0.321569 0.121569
0.231373 0.337255 0.109804
0.301961 0.356863 0.0980392
0.384314 0.376471 0.054902
0.462745 0.384314 0.027451
0.529412 0.384314 0.00784314
0.6 0.392157 0
0.666667 0.396078 0
0.717647 0.4 0
0.764706 0.403922 0
0.807843 0.411765 0
0.85098 0.423529 0
0.898039 0.439216 0
0.0705882 0.384314 0.14902
0.0901961 0.392157 0.14902
0.121569 0.392157 0.145098
0.152941 0.384314 0.141176
0.196078 0.388235 0.141176
0.235294 0.388235 0.133333
0.298039 0.407843 0.12549
0.368627 0.423529 0.101961
0.454902 0.447059 0.0588235
0.529412 0.45098 0.027451
0.596078 0.454902 0.00392157
0.658824 0.454902 0.00392157
0.721569 0.462745 0
0.780392 0.466667 0
0.823529 0.47451 0
0.866667 0.478431 0
0.913725 0.494118 0
0.0980392 0.443137 0.168627
0.117647 0.45098 0.168627
0.141176 0.45098 0.164706
0.176471 0.45098 0.168627
0.211765 0.447059 0.164706
0.25098 0.439216 0.156863
0.301961 0.454902 0.14902
0.364706 0.466667 0.133333
0.439216 0.482353 0.113725
0.513725 0.501961 0.0666667
0.588235 0.513725 0.0313725
0.654902 0.517647 0.00784314
0.717647 0.521569 0.00392157
0.772549 0.52549 0
0.827451 0.529412 0
0.878431 0.533333 0
0.921569 0.541176 0
0.133333 0.501961 0.188235
0.152941 0.509804 0.196078
0.164706 0.505882 0.188235
0.196078 0.505882 0.188235
0.235294 0.505882 0.188235
0.270588 0.501961 0.184314
0.309804 0.494118 0.180392
0.368627 0.509804 0.164706
0.427451 0.52549 0.152941
0.494118 0.537255 0.12549
0.572549 0.556863 0.0941176
0.647059 0.576471 0.0470588
0.705882 0.576471 0.0156863
0.764706 0.584314 0.00392157
0.823529 0.588235 0.00392157
0.87451 0.592157 0
0.929412 0.6 0
0.172549 0.560784 0.223529
0.184314 0.564706 0.223529
0.203922 0.568627 0.223529
0.231373 0.568627 0.223529
0.258824 0.564706 0.215686
0.294118 0.560784 0.215686
0.32549 0.54902 0.203922
0.368627 0.54902 0.192157
0.431373 0.572549 0.192157
0.490196 0.580392 0.172549
0.564706 0.596078 0.152941
0.631373 0.611765 0.129412
0.701961 0.631373 0.0745098
0.760784 0.631373 0.0392157
0.815686 0.643137 0.0196078
0.866667 0.643137 0
0.92549 0.654902 0
0.211765 0.615686 0.254902
0.219608 0.627451 0.254902
0.235294 0.623529 0.254902
0.254902 0.623529 0.25098
0.282353 0.615686 0.247059
0.317647 0.615686 0.243137
0.34902 0.607843 0.235294
0.384314 0.603922 0.227451
0.435294 0.607843 0.219608
0.498039 0.627451 0.211765
0.560784 0.635294 0.2
0.623529 0.654902 0.184314
0.686275 0.666667 0.160784
0.756863 0.686275 0.121569
0.815686 0.694118 0.0980392
0.866667 0.698039 0.054902
0.921569 0.705882 0.0313725
0.25098 0.670588 0.282353
0.258824 0.67451 0.286275
0.278431 0.682353 0.294118
0.290196 0.67451 0.286275
0.313725 0.670588 0.278431
0.341176 0.666667 0.27451
0.376471 0.666667 0.270588
0.411765 0.658824 0.262745
0.447059 0.65098 0.25098
0.501961 0.666667 0.243137
0.560784 0.678431 0.239216
0.619608 0.694118 0.231373
0.678431 0.701961 0.211765
0.745098 0.717647 0.2
0.811765 0.741176 0.172549
0.870588 0.752941 0.156863
0.92549 0.760784 0.141176
0.290196 0.721569 0.32549
0.305882 0.729412 0.329412
0.317647 0.733333 0.333333
0.329412 0.729412 0.32549
0.356863 0.729412 0.32549
0.384314 0.72549 0.321569
0.407843 0.721569 0.309804
0.439216 0.713725 0.298039
0.47451 0.713725 0.294118
0.521569 0.713725 0.286275
0.568627 0.721569 0.278431
0.627451 0.733333 0.270588
0.686275 0.74902 0.262745
0.737255 0.756863 0.25098
0.8 0.776471 0.239216
0.862745 0.796078 0.215686
0.921569 0.811765 0.215686
0.34902 0.784314 0.376471
0.360784 0.792157 0.380392
0.364706 0.788235 0.372549
0.376471 0.784314 0.372549
0.396078 0.784314 0.368627
0.419608 0.780392 0.360784
0.443137 0.776471 0.352941
0.478431 0.780392 0.352941
0.505882 0.772549 0.341176
0.541176 0.768627 0.329412
0.584314 0.768627 0.321569
0.639216 0.784314 0.32549
0.698039 0.796078 0.321569
0.74902 0.807843 0.313725
0.807843 0.819608 0.305882
0.858824 0.827451 0.290196
0.917647 0.854902 0.282353
0.411765 0.843137 0.431373
0.415686 0.847059 0.431373
0.423529 0.847059 0.431373
0.431373 0.843137 0.427451
0.45098 0.843137 0.423529
0.470588 0.839216 0.419608
0.498039 0.843137 0.423529
0.52549 0.839216 0.411765
0.552941 0.835294 0.407843
0.588235 0.835294 0.4
0.623529 0.831373 0.396078
0.670588 0.843137 0.392157
0.721569 0.85098 0.392157
0.768627 0.862745 0.392157
0.815686 0.87451 0.384314
0.878431 0.886275 0.384314
0.917647 0.890196 0.372549
0.486275 0.909804 0.509804
0.494118 0.913725 0.509804
0.501961 0.917647 0.509804
0.505882 0.913725 0.505882
0.521569 0.913725 0.501961
0.537255 0.913725 0.498039
0.564706 0.909804 0.498039
0.592157 0.913725 0.501961
0.619608 0.909804 0.494118
0.654902 0.913725 0.498039
0.690196 0.913725 0.498039
0.733333 0.921569 0.501961
0.776471 0.92549 0.501961
0.827451 0.937255 0.509804
0.866667 0.941176 0.509804
0.909804 0.94902 0.509804
0.945098 0.952941 0.509804
0 0.00784314 0.109804
0.0235294 0.00784314 0.105882
0.0705882 0.00784314 0.105882
0.117647 0.00784314 0.0941176
0.164706 0.0156863 0.0862745
0.215686 0.0431373 0.0901961
0.282353 0.0588235 0.0901961
0.341176 0.0666667 0.0784314
0.407843 0.0784314 0.0627451
0.47451 0.0941176 0.0392157
0.537255 0.109804 0.0156863
0.596078 0.133333 0.00392157
0.658824 0.164706 0.00392157
0.721569 0.2 0
0.768627 0.219608 0
0.819608 0.25098 0
0.882353 0.282353 0
0 0.0588235 0.113725
0.0235294 0.054902 0.113725
0.0784314 0.0588235 0.113725
0.117647 0.0588235 0.101961
0.164706 0.0745098 0.101961
0.219608 0.0823529 0.0980392
0.286275 0.0901961 0.0941176
0.352941 0.0980392 0.0823529
0.423529 0.105882 0.0627451
0.490196 0.121569 0.0392157
0.552941 0.137255 0.0156863
0.611765 0.156863 0.00784314
0.662745 0.176471 0
0.721569 0.203922 0
0.776471 0.235294 0
0.827451 0.262745 0
0.882353 0.294118 0
0 0.0980392 0.117647
0.0352941 0.105882 0.121569
0.0745098 0.101961 0.113725
0.12549 0.113725 0.117647
0.172549 0.113725 0.113725
0.227451 0.117647 0.101961
0.294118 0.12549 0.0980392
0.364706 0.137255 0.0862745
0.431373 0.145098 0.0666667
0.498039 0.156863 0.0431373
0.560784 0.168627 0.0156863
0.615686 0.180392 0.00392157
0.67451 0.207843 0.00392157
0.729412 0.231373 0
0.776471 0.254902 0
0.827451 0.278431 0
0.882353 0.305882 0
0.0235294 0.145098 0.12549
0.0470588 0.14902 0.12549
0.0862745 0.152941 0.129412
0.117647 0.156863 0.121569
0.184314 0.168627 0.121569
0.243137 0.168627 0.105882
0.309804 0.180392 0.0980392
0.372549 0.184314 0.0823529
0.447059 0.192157 0.0666667
0.505882 0.2 0.0352941
0.564706 0.207843 0.0117647
0.627451 0.227451 0.00392157
0.678431 0.239216 0.00392157
0.733333 0.258824 0
0.788235 0.286275 0
0.835294 0.309804 0
0.890196 0.329412 0
0.0313725 0.2 0.133333
0.0588235 0.207843 0.137255
0.0901961 0.207843 0.137255
0.121569 0.203922 0.129412
0.172549 0.223529 0.12549
0.25098 0.239216 0.117647
0.321569 0.243137 0.105882
0.396078 0.243137 0.0823529
0.462745 0.25098 0.0666667
0.521569 0.254902 0.0392157
0.576471 0.262745 0.0156863
0.635294 0.27451 0.00392157
0.686275 0.286275 0
0.737255 0.298039 0
0.792157 0.321569 0
0.839216 0.341176 0
0.894118 0.364706 0
0.0313725 0.262745 0.141176
0.0588235 0.27451 0.14902
0.101961 0.27451 0.14902
0.137255 0.270588 0.145098
0.176471 0.270588 0.133333
0.239216 0.290196 0.12549
0.317647 0.309804 0.117647
0.392157 0.309804 0.0941176
0.470588 0.317647 0.0666667
0.545098 0.321569 0.0352941
0.596078 0.32549 0.0196078
0.65098 0.333333 0.00784314
0.705882 0.341176 0.00392157
0.756863 0.356863 0
0.796078 0.364706 0
0.85098 0.384314 0
0.898039 0.4 0
0.0392157 0.32549 0.152941
0.0705882 0.337255 0.156863
0.109804 0.333333 0.160784
0.14902 0.333333 0.156863
0.188235 0.333333 0.156863
0.243137 0.345098 0.14902
0.305882 0.360784 0.133333
0.396078 0.384314 0.113725
0.462745 0.388235 0.0901961
0.533333 0.388235 0.0588235
0.607843 0.396078 0.0313725
0.662745 0.392157 0.00392157
0.713725 0.396078 0.00392157
0.760784 0.403922 0
0.803922 0.411765 0
0.854902 0.427451 0
0.905882 0.443137 0
0.0666667 0.388235 0.168627
0.101961 0.403922 0.180392
0.129412 0.4 0.176471
0.164706 0.396078 0.172549
0.203922 0.396078 0.172549
0.243137 0.392157 0.164706
0.305882 0.407843 0.152941
0.376471 0.423529 0.141176
0.458824 0.447059 0.113725
0.533333 0.454902 0.0901961
0.596078 0.454902 0.0627451
0.662745 0.458824 0.027451
0.721569 0.462745 0.00784314
0.780392 0.466667 0.00392157
0.819608 0.470588 0
0.866667 0.482353 0
0.913725 0.490196 0
0.109804 0.454902 0.196078
0.137255 0.466667 0.203922
0.152941 0.462745 0.2
0.188235 0.458824 0.196078
0.211765 0.447059 0.184314
0.254902 0.447059 0.184314
0.309804 0.454902 0.180392
0.376471 0.470588 0.168627
0.439216 0.486275 0.152941
0.529412 0.509804 0.129412
0.596078 0.517647 0.0980392
0.658824 0.521569 0.0627451
0.717647 0.52549 0.027451
0.776471 0.52549 0.00784314
0.827451 0.529412 0
0.87451 0.529412 0
0.921569 0.541176 0
0.145098 0.505882 0.215686
0.164706 0.521569 0.223529
0.184314 0.517647 0.223529
0.207843 0.513725 0.219608
0.243137 0.513725 0.215686
0.27451 0.501961 0.203922
0.313725 0.498039 0.2
0.368627 0.513725 0.192157
0.435294 0.529412 0.184314
0.498039 0.537255 0.160784
0.576471 0.560784 0.141176
0.654902 0.576471 0.117647
0.713725 0.580392 0.0862745
0.768627 0.584314 0.0509804
0.819608 0.584314 0.00784314
0.87451 0.592157 0.00392157
0.92549 0.596078 0
0.176471 0.560784 0.243137
0.196078 0.576471 0.25098
0.211765 0.576471 0.247059
0.239216 0.572549 0.247059
0.262745 0.564706 0.239216
0.298039 0.564706 0.235294
0.333333 0.556863 0.227451
0.376471 0.552941 0.219608
0.435294 0.572549 0.215686
0.501961 0.584314 0.203922
0.564706 0.6 0.188235
0.635294 0.611765 0.164706
0.709804 0.631373 0.141176
0.760784 0.631373 0.101961
0.823529 0.643137 0.0823529
0.870588 0.647059 0.0352941
0.921569 0.65098 0.00392157
0.219608 0.619608 0.27451
0.227451 0.627451 0.27451
0.243137 0.627451 0.27451
0.262745 0.623529 0.27451
0.290196 0.623529 0.270588
0.321569 0.615686 0.262745
0.352941 0.611765 0.254902
0.392157 0.607843 0.25098
0.443137 0.615686 0.243137
0.498039 0.623529 0.231373
0.556863 0.643137 0.223529
0.619608 0.65098 0.207843
0.690196 0.666667 0.192157
0.760784 0.690196 0.168627
0.811765 0.690196 0.145098
0.87451 0.701961 0.12549
0.921569 0.709804 0.0862745
0.25098 0.666667 0.301961
0.262745 0.67451 0.305882
0.282353 0.682353 0.313725
0.301961 0.682353 0.309804
0.32549 0.678431 0.305882
0.34902 0.670588 0.298039
0.380392 0.670588 0.290196
0.415686 0.662745 0.282353
0.454902 0.658824 0.27451
0.501961 0.666667 0.262745
0.564706 0.678431 0.258824
0.619608 0.694118 0.25098
0.682353 0.709804 0.239216
0.741176 0.721569 0.223529
0.811765 0.741176 0.2
0.866667 0.745098 0.184314
0.917647 0.756863 0.172549
0.298039 0.72549 0.341176
0.313725 0.737255 0.34902
0.321569 0.733333 0.345098
0.337255 0.733333 0.345098
0.356863 0.733333 0.341176
0.384314 0.729412 0.333333
0.411765 0.721569 0.32549
0.439216 0.717647 0.317647
0.47451 0.713725 0.309804
0.521569 0.713725 0.301961
0.568627 0.721569 0.294118
0.623529 0.733333 0.290196
0.678431 0.74902 0.282353
0.737255 0.760784 0.270588
0.803922 0.776471 0.258824
0.866667 0.8 0.247059
0.917647 0.807843 0.239216
0.34902 0.784314 0.384314
0.360784 0.788235 0.388235
0.372549 0.792157 0.392157
0.380392 0.784314 0.384314
0.396078 0.780392 0.380392
0.423529 0.784314 0.380392
0.443137 0.776471 0.368627
0.482353 0.780392 0.368627
0.513725 0.776471 0.360784
0.545098 0.768627 0.345098
0.588235 0.776471 0.345098
0.639216 0.784314 0.341176
0.705882 0.803922 0.341176
0.745098 0.807843 0.32549
0.8 0.819608 0.317647
0.858824 0.831373 0.309804
0.917647 0.854902 0.301961
0.407843 0.843137 0.439216
0.419608 0.85098 0.447059
0.427451 0.847059 0.447059
0.435294 0.847059 0.443137
0.45098 0.843137 0.435294
0.470588 0.839216 0.431373
0.498039 0.843137 0.431373
0.52549 0.839216 0.423529
0.556863 0.835294 0.419608
0.588235 0.835294 0.411765
0.623529 0.831373 0.403922
0.670588 0.843137 0.407843
0.721569 0.854902 0.407843
0.768627 0.862745 0.403922
0.819608 0.87451 0.396078
0.870588 0.878431 0.388235
0.921569 0.894118 0.388235
0.494118 0.913725 0.521569
0.494118 0.913725 0.517647
0.498039 0.913725 0.517647
0.513725 0.913725 0.517647
0.52549 0.913725 0.513725
0.54902 0.917647 0.517647
0.568627 0.913725 0.509804
0.592157 0.913725 0.509804
0.619608 0.909804 0.505882
0.658824 0.913725 0.509804
0.690196 0.913725 0.501961
0.737255 0.92549 0.513725
0.780392 0.929412 0.513725
0.823529 0.937255 0.513725
0.870588 0.945098 0.521569
0.909804 0.94902 0.517647
0.94902 0.952941 0.517647
0 0.0117647 0.156863
0.00784314 0.0117647 0.156863
0.0588235 0.00784314 0.156863
0.117647 0.00392157 0.152941
0.180392 0.00392157 0.141176
0.231373 0.00784314 0.129412
0.282353 0.0117647 0.117647
0.337255 0.054902 0.121569
0.403922 0.0705882 0.117647
0.47451 0.0980392 0.113725
0.533333 0.117647 0.0941176
0.596078 0.141176 0.0705882
0.654902 0.164706 0.0392157
0.709804 0.188235 0.00784314
0.768627 0.219608 0
0.823529 0.25098 0
0.882353 0.282353 0
0 0.054902 0.160784
0.00784314 0.0588235 0.164706
0.0627451 0.054902 0.160784
0.121569 0.054902 0.156863
0.180392 0.0509804 0.145098
0.231373 0.0470588 0.133333
0.282353 0.0784314 0.129412
0.34902 0.0941176 0.129412
0.419608 0.109804 0.12549
0.486275 0.12549 0.113725
0.54902 0.137255 0.0941176
0.607843 0.160784 0.0745098
0.666667 0.184314 0.0431373
0.721569 0.203922 0.0117647
0.772549 0.231373 0
0.827451 0.262745 0
