resources/LUTs/LUT Colour Grades (cube)/Natural_Film_Warm.cube
#Generated by Picture Instruments - Look Creator
TITLE "Kodak Ektar 25Warm"
LUT_3D_SIZE 9
0 0 0
0.0705882 0.0156863 0
0.184314 0.0196078 0
0.321569 0.00784314 0
0.45098 0.0156863 0
0.580392 0.0705882 0
0.690196 0.141176 0
0.788235 0.203922 0
0.886275 0.258824 0
0.0117647 0.0862745 0.0313725
0.0784314 0.0941176 0.0196078
0.207843 0.105882 0
0.345098 0.101961 0
0.478431 0.113725 0
0.596078 0.137255 0
0.701961 0.184314 0
0.796078 0.235294 0
0.894118 0.290196 0
0.0313725 0.184314 0.0470588
0.101961 0.188235 0.0470588
0.203922 0.203922 0.0196078
0.360784 0.227451 0
0.509804 0.235294 0
0.615686 0.243137 0
0.713725 0.270588 0
0.803922 0.298039 0
0.901961 0.345098 0
0.105882 0.309804 0.0745098
0.156863 0.317647 0.0784314
0.227451 0.309804 0.0588235
0.345098 0.337255 0.0117647
0.505882 0.368627 0
0.631373 0.372549 0
0.741176 0.380392 0
0.823529 0.396078 0
0.909804 0.423529 0
0.184314 0.435294 0.121569
0.215686 0.439216 0.121569
0.270588 0.427451 0.105882
0.352941 0.435294 0.0823529
0.478431 0.462745 0.0235294
0.619608 0.494118 0
0.733333 0.498039 0
0.839216 0.513725 0
0.929412 0.52549 0
0.258824 0.552941 0.176471
0.282353 0.54902 0.172549
0.32549 0.541176 0.168627
0.380392 0.529412 0.14902
0.478431 0.545098 0.12549
0.596078 0.576471 0.0627451
0.72549 0.611765 0.00392157
0.831373 0.623529 0
0.929412 0.635294 0
0.337255 0.666667 0.247059
0.352941 0.662745 0.243137
0.384314 0.654902 0.235294
0.439216 0.647059 0.223529
0.494118 0.635294 0.2
0.6 0.662745 0.184314
0.701961 0.690196 0.14902
0.823529 0.72549 0.0627451
0.92549 0.745098 0.0156863
0.431373 0.788235 0.341176
0.431373 0.776471 0.333333
0.454902 0.764706 0.317647
0.498039 0.760784 0.305882
0.552941 0.756863 0.294118
0.623529 0.760784 0.282353
0.721569 0.788235 0.270588
0.815686 0.803922 0.243137
0.929412 0.847059 0.219608
0.545098 0.909804 0.462745
0.541176 0.898039 0.447059
0.560784 0.898039 0.447059
0.6 0.901961 0.447059
0.654902 0.901961 0.447059
0.709804 0.901961 0.439216
0.788235 0.917647 0.447059
0.878431 0.937255 0.454902
0.952941 0.952941 0.454902
0 0.00784314 0.0901961
0.0823529 0.00784314 0.0862745
0.196078 0 0.0666667
0.32549 0.0156863 0.0588235
0.45098 0.0156863 0.0156863
0.572549 0.0509804 0.00392157
0.686275 0.129412 0
0.784314 0.192157 0
0.894118 0.262745 0
0.0117647 0.0980392 0.0941176
0.0901961 0.0980392 0.0941176
0.211765 0.101961 0.0862745
0.341176 0.0980392 0.0588235
0.478431 0.109804 0.0196078
0.596078 0.137255 0
0.698039 0.180392 0
0.796078 0.231373 0
0.890196 0.286275 0
0.0666667 0.2 0.105882
0.129412 0.207843 0.109804
0.219608 0.215686 0.0980392
0.372549 0.227451 0.0627451
0.505882 0.231373 0.0156863
0.611765 0.239216 0
0.709804 0.262745 0
0.807843 0.301961 0
0.901961 0.345098 0
0.12549 0.321569 0.12549
0.176471 0.329412 0.129412
0.247059 0.32549 0.12549
0.360784 0.34902 0.0980392
0.509804 0.368627 0.027451
0.639216 0.376471 0
0.737255 0.376471 0
0.819608 0.392157 0
0.909804 0.423529 0
0.2 0.443137 0.164706
0.235294 0.447059 0.164706
0.282353 0.435294 0.152941
0.368627 0.439216 0.145098
0.490196 0.470588 0.109804
0.627451 0.501961 0.0352941
0.741176 0.505882 0
0.839216 0.513725 0
0.929412 0.52549 0
0.266667 0.545098 0.207843
0.294118 0.560784 0.215686
0.337255 0.54902 0.203922
0.4 0.541176 0.196078
0.486275 0.552941 0.176471
0.6 0.576471 0.137255
0.729412 0.615686 0.0627451
0.835294 0.627451 0.0156863
0.929412 0.635294 0
0.333333 0.65098 0.262745
0.360784 0.666667 0.270588
0.396078 0.662745 0.266667
0.443137 0.65098 0.25098
0.501961 0.639216 0.231373
0.596078 0.662745 0.215686
0.705882 0.690196 0.196078
0.827451 0.729412 0.145098
0.92549 0.745098 0.0901961
0.415686 0.764706 0.345098
0.435294 0.776471 0.34902
0.454902 0.768627 0.337255
0.498039 0.760784 0.32549
0.556863 0.760784 0.317647
0.623529 0.760784 0.301961
0.72549 0.788235 0.298039
0.815686 0.807843 0.27451
0.929412 0.847059 0.25098
0.541176 0.901961 0.47451
0.54902 0.901961 0.470588
0.568627 0.901961 0.466667
0.603922 0.901961 0.466667
0.654902 0.901961 0.458824
0.713725 0.901961 0.458824
0.792157 0.921569 0.462745
0.878431 0.941176 0.470588
0.952941 0.94902 0.466667
0 0.0156863 0.2
0.0862745 0.00392157 0.2
0.223529 0 0.188235
0.352941 0 0.14902
0.454902 0 0.12549
0.564706 0.054902 0.117647
0.678431 0.133333 0.0980392
0.788235 0.203922 0.0352941
0.878431 0.258824 0
0.00784314 0.109804 0.2
0.0941176 0.101961 0.2
0.239216 0.0901961 0.196078
0.356863 0.0627451 0.160784
0.470588 0.117647 0.156863
0.588235 0.145098 0.133333
0.690196 0.184314 0.0980392
0.788235 0.231373 0.0313725
0.87451 0.278431 0
0.0627451 0.219608 0.203922
0.141176 0.231373 0.207843
0.258824 0.235294 0.211765
0.380392 0.231373 0.196078
0.498039 0.235294 0.172549
0.603922 0.247059 0.145098
0.701961 0.266667 0.101961
0.803922 0.305882 0.0431373
0.890196 0.341176 0.00392157
0.156863 0.333333 0.215686
0.207843 0.352941 0.227451
0.290196 0.356863 0.231373
0.4 0.368627 0.223529
0.521569 0.372549 0.192157
0.639216 0.376471 0.168627
0.733333 0.384314 0.137255
0.823529 0.4 0.0745098
0.909804 0.427451 0.00784314
0.227451 0.454902 0.247059
0.254902 0.462745 0.25098
0.321569 0.466667 0.258824
0.396078 0.45098 0.239216
0.509804 0.478431 0.231373
0.635294 0.505882 0.203922
0.745098 0.509804 0.168627
0.843137 0.513725 0.121569
0.92549 0.52549 0.0392157
0.282353 0.560784 0.278431
0.317647 0.576471 0.294118
0.368627 0.572549 0.294118
0.419608 0.560784 0.278431
0.498039 0.564706 0.266667
0.615686 0.592157 0.25098
0.737255 0.623529 0.223529
0.835294 0.627451 0.192157
0.937255 0.643137 0.145098
0.34902 0.670588 0.32549
0.372549 0.67451 0.337255
0.411765 0.670588 0.333333
0.462745 0.666667 0.32549
0.513725 0.65098 0.301961
0.607843 0.666667 0.290196
0.717647 0.701961 0.282353
0.831373 0.733333 0.254902
0.929412 0.74902 0.235294
0.427451 0.776471 0.396078
0.447059 0.784314 0.403922
0.478431 0.784314 0.396078
0.513725 0.772549 0.384314
0.560784 0.764706 0.368627
0.631373 0.772549 0.356863
0.721569 0.788235 0.34902
0.823529 0.815686 0.341176
0.929412 0.85098 0.32549
0.54902 0.905882 0.509804
0.556863 0.909804 0.505882
0.572549 0.905882 0.501961
0.611765 0.909804 0.501961
0.662745 0.913725 0.498039
0.717647 0.909804 0.490196
0.796078 0.921569 0.498039
0.878431 0.941176 0.505882
0.960784 0.956863 0.505882
0 0.0156863 0.352941
0.0431373 0 0.34902
0.227451 0 0.345098
0.384314 0 0.329412
0.505882 0 0.266667
0.588235 0 0.227451
0.662745 0.12549 0.227451
0.760784 0.207843 0.215686
0.858824 0.258824 0.192157
0 0.109804 0.352941
0.0705882 0.101961 0.34902
0.243137 0.0862745 0.352941
0.4 0.0352941 0.341176
0.513725 0.0156863 0.278431
0.6 0.0509804 0.239216
0.686275 0.203922 0.25098
0.784314 0.25098 0.239216
0.882353 0.286275 0.196078
0.0392157 0.231373 0.341176
0.141176 0.239216 0.352941
0.254902 0.231373 0.356863
0.411765 0.231373 0.356863
0.517647 0.231373 0.305882
0.6 0.266667 0.294118
0.690196 0.282353 0.266667
0.788235 0.313725 0.243137
0.890196 0.345098 0.207843
0.156863 0.364706 0.352941
0.211765 0.376471 0.368627
0.298039 0.376471 0.368627
0.427451 0.392157 0.372549
0.537255 0.392157 0.356863
0.627451 0.384314 0.32549
0.721569 0.396078 0.298039
0.803922 0.4 0.262745
0.905882 0.435294 0.235294
0.254902 0.47451 0.364706
0.290196 0.486275 0.372549
0.356863 0.490196 0.384314
0.443137 0.494118 0.388235
0.537255 0.501961 0.372549
0.647059 0.513725 0.356863
0.752941 0.517647 0.337255
0.835294 0.517647 0.301961
0.917647 0.529412 0.262745
0.313725 0.576471 0.384314
0.345098 0.588235 0.396078
0.4 0.596078 0.403922
0.462745 0.588235 0.4
0.521569 0.576471 0.380392
0.627451 0.603922 0.376471
0.741176 0.627451 0.360784
0.843137 0.635294 0.337255
0.933333 0.639216 0.305882
0.364706 0.678431 0.411765
0.384314 0.686275 0.419608
0.427451 0.686275 0.419608
0.486275 0.682353 0.423529
0.541176 0.666667 0.4
0.619608 0.670588 0.388235
0.72549 0.705882 0.388235
0.831373 0.733333 0.368627
0.929412 0.74902 0.356863
0.419608 0.784314 0.447059
0.439216 0.792157 0.454902
0.47451 0.792157 0.458824
0.529412 0.784314 0.462745
0.572549 0.776471 0.447059
0.635294 0.768627 0.423529
0.721569 0.788235 0.419608
0.827451 0.811765 0.419608
0.933333 0.85098 0.407843
0.52549 0.917647 0.541176
0.541176 0.917647 0.545098
0.576471 0.917647 0.54902
0.619608 0.913725 0.556863
0.662745 0.909804 0.541176
0.721569 0.917647 0.541176
0.796078 0.92549 0.541176
0.878431 0.941176 0.54902
0.960784 0.956863 0.552941
0 0.0117647 0.498039
0.0235294 0.00784314 0.494118
0.223529 0 0.494118
0.376471 0 0.486275
0.517647 0 0.466667
0.619608 0 0.403922
0.698039 0.0117647 0.34902
0.768627 0.105882 0.321569
0.85098 0.278431 0.34902
0 0.109804 0.490196
0.0431373 0.105882 0.490196
0.231373 0.0823529 0.490196
0.384314 0.0352941 0.494118
0.537255 0.0156863 0.482353
0.643137 0.0431373 0.419608
0.713725 0.109804 0.364706
0.788235 0.180392 0.337255
0.87451 0.321569 0.372549
0.054902 0.239216 0.482353
0.133333 0.235294 0.498039
0.254902 0.231373 0.498039
0.392157 0.227451 0.498039
0.537255 0.223529 0.486275
0.639216 0.235294 0.423529
0.713725 0.258824 0.388235
0.784314 0.309804 0.376471
0.878431 0.372549 0.384314
0.156863 0.364706 0.482353
0.207843 0.372549 0.494118
0.301961 0.380392 0.498039
0.415686 0.376471 0.505882
0.552941 0.388235 0.505882
0.639216 0.388235 0.454902
0.705882 0.392157 0.427451
0.792157 0.419608 0.411765
0.894118 0.435294 0.388235
0.247059 0.494118 0.494118
0.286275 0.505882 0.505882
0.356863 0.513725 0.509804
0.454902 0.517647 0.513725
0.572549 0.533333 0.52549
0.65098 0.521569 0.494118
0.733333 0.517647 0.466667
0.815686 0.513725 0.435294
0.909804 0.529412 0.407843
0.345098 0.6 0.505882
0.372549 0.611765 0.513725
0.419608 0.611765 0.517647
0.490196 0.615686 0.521569
0.572549 0.619608 0.52549
0.647059 0.619608 0.509804
0.752941 0.635294 0.494118
0.847059 0.639216 0.478431
0.92549 0.639216 0.443137
0.384314 0.698039 0.509804
0.407843 0.709804 0.521569
0.439216 0.705882 0.521569
0.501961 0.705882 0.517647
0.580392 0.701961 0.529412
0.631373 0.682353 0.498039
0.733333 0.717647 0.501961
0.843137 0.745098 0.494118
0.937255 0.752941 0.482353
0.396078 0.796078 0.517647
0.419608 0.8 0.521569
0.462745 0.803922 0.529412
0.52549 0.8 0.537255
0.596078 0.796078 0.537255
0.654902 0.780392 0.517647
0.72549 0.788235 0.505882
0.827451 0.815686 0.509804
0.941176 0.858824 0.517647
0.478431 0.92549 0.572549
0.498039 0.92549 0.580392
0.537255 0.92549 0.584314
0.607843 0.92549 0.603922
0.670588 0.921569 0.615686
0.72549 0.921569 0.603922
0.792157 0.921569 0.592157
0.882353 0.945098 0.603922
0.960784 0.960784 0.607843
0 0.0117647 0.607843
0.0235294 0.00784314 0.615686
0.219608 0 0.607843
0.360784 0 0.6
0.501961 0 0.596078
0.631373 0 0.584314
0.717647 0.0196078 0.52549
0.796078 0.121569 0.478431
0.87451 0.223529 0.462745
0 0.109804 0.6
0.0509804 0.105882 0.611765
0.223529 0.0823529 0.607843
0.376471 0.0588235 0.615686
0.517647 0.0156863 0.611765
0.65098 0.0352941 0.603922
0.737255 0.12549 0.541176
0.815686 0.2 0.494118
0.901961 0.270588 0.482353
0.0196078 0.223529 0.596078
0.117647 0.231373 0.611765
0.25098 0.227451 0.611765
0.384314 0.227451 0.611765
0.529412 0.231373 0.623529
0.654902 0.239216 0.603922
0.737255 0.266667 0.54902
0.815686 0.298039 0.505882
0.894118 0.341176 0.490196
0.172549 0.364706 0.592157
0.231373 0.376471 0.611765
0.317647 0.380392 0.615686
0.411765 0.372549 0.619608
0.537255 0.380392 0.623529
0.662745 0.392157 0.615686
0.741176 0.4 0.564706
0.815686 0.407843 0.52549
0.890196 0.419608 0.501961
0.258824 0.498039 0.611765
0.290196 0.505882 0.611765
0.356863 0.505882 0.607843
0.447059 0.509804 0.615686
0.54902 0.513725 0.627451
0.662745 0.521569 0.623529
0.745098 0.521569 0.580392
0.803922 0.505882 0.545098
0.894118 0.541176 0.545098
0.337255 0.619608 0.615686
0.364706 0.623529 0.619608
0.411765 0.623529 0.623529
0.494118 0.635294 0.635294
0.584314 0.639216 0.639216
0.686275 0.654902 0.643137
0.760784 0.647059 0.623529
0.831373 0.639216 0.584314
0.921569 0.639216 0.564706
0.411765 0.721569 0.635294
0.431373 0.721569 0.631373
0.470588 0.721569 0.627451
0.533333 0.729412 0.631373
0.596078 0.721569 0.627451
0.678431 0.72549 0.635294
0.752941 0.733333 0.619608
0.854902 0.752941 0.623529
0.937255 0.752941 0.6
0.45098 0.835294 0.65098
0.447059 0.815686 0.627451
0.482353 0.823529 0.635294
0.533333 0.823529 0.631373
0.6 0.819608 0.627451
0.678431 0.807843 0.631373
0.733333 0.796078 0.603922
0.839216 0.827451 0.615686
0.945098 0.858824 0.623529
0.447059 0.945098 0.658824
0.454902 0.937255 0.654902
0.490196 0.941176 0.65098
0.552941 0.937255 0.65098
0.65098 0.937255 0.670588
0.737255 0.933333 0.686275
0.8 0.933333 0.67451
0.878431 0.945098 0.67451
0.960784 0.960784 0.682353
0.00784314 0.0235294 0.705882
0.0745098 0.0117647 0.709804
0.231373 0.00392157 0.701961
0.364706 0.00392157 0.701961
0.490196 0 0.698039
0.627451 0 0.705882
0.74902 0.0235294 0.698039
0.807843 0.156863 0.631373
0.898039 0.254902 0.611765
0.0235294 0.121569 0.709804
0.113725 0.121569 0.72549
0.247059 0.109804 0.721569
0.380392 0.0862745 0.721569
0.509804 0.0627451 0.721569
0.647059 0.0745098 0.72549
0.760784 0.121569 0.713725
0.823529 0.219608 0.65098
0.917647 0.298039 0.631373
0.0705882 0.227451 0.701961
0.14902 0.231373 0.713725
0.270588 0.235294 0.721569
0.392157 0.235294 0.721569
0.513725 0.231373 0.721569
0.639216 0.243137 0.721569
0.756863 0.266667 0.709804
0.827451 0.317647 0.654902
0.917647 0.364706 0.635294
0.223529 0.376471 0.709804
0.258824 0.384314 0.72549
0.294118 0.356863 0.713725
0.411765 0.368627 0.72549
0.529412 0.372549 0.721569
0.647059 0.384314 0.72549
0.760784 0.4 0.717647
0.831373 0.423529 0.662745
0.909804 0.443137 0.639216
0.266667 0.498039 0.705882
0.301961 0.505882 0.717647
0.360784 0.505882 0.713725
0.45098 0.509804 0.72549
0.537255 0.501961 0.72549
0.658824 0.513725 0.729412
0.768627 0.52549 0.72549
0.831373 0.529412 0.670588
0.905882 0.537255 0.647059
0.329412 0.615686 0.713725
0.356863 0.619608 0.721569
0.403922 0.623529 0.721569
0.470588 0.619608 0.721569
0.564706 0.627451 0.72549
0.666667 0.635294 0.729412
0.772549 0.647059 0.733333
0.839216 0.635294 0.686275
0.905882 0.627451 0.662745
0.392157 0.721569 0.721569
0.411765 0.729412 0.72549
0.45098 0.729412 0.729412
0.517647 0.733333 0.729412
0.596078 0.737255 0.729412
0.686275 0.745098 0.733333
0.788235 0.768627 0.752941
0.847059 0.74902 0.721569
0.92549 0.745098 0.694118
0.447059 0.823529 0.729412
0.470588 0.835294 0.741176
0.498039 0.831373 0.737255
0.560784 0.835294 0.741176
0.627451 0.835294 0.745098
0.698039 0.831373 0.733333
0.776471 0.831373 0.733333
0.854902 0.839216 0.72549
0.94902 0.858824 0.729412
0.486275 0.945098 0.760784
0.498039 0.94902 0.764706
0.52549 0.94902 0.760784
0.564706 0.945098 0.756863
0.623529 0.945098 0.74902
0.698039 0.945098 0.741176
0.803922 0.945098 0.764706
0.878431 0.945098 0.74902
0.960784 0.964706 0.756863
0.109804 0.0745098 0.796078
0.176471 0.0666667 0.807843
0.278431 0.0588235 0.807843
0.388235 0.0392157 0.803922
0.505882 0.0352941 0.807843
0.619608 0.0431373 0.807843
0.737255 0.0980392 0.807843
0.847059 0.184314 0.803922
0.898039 0.282353 0.745098
0.12549 0.14902 0.807843
0.2 0.152941 0.831373
0.294118 0.145098 0.831373
0.403922 0.137255 0.831373
0.517647 0.129412 0.827451
0.643137 0.14902 0.831373
0.760784 0.188235 0.831373
0.854902 0.227451 0.811765
0.913725 0.317647 0.760784
0.164706 0.243137 0.807843
0.215686 0.25098 0.827451
0.305882 0.25098 0.827451
0.419608 0.254902 0.831373
0.529412 0.258824 0.835294
0.643137 0.266667 0.827451
0.756863 0.290196 0.827451
0.858824 0.321569 0.815686
0.917647 0.384314 0.764706
0.207843 0.360784 0.811765
0.25098 0.368627 0.827451
0.329412 0.372549 0.827451
0.423529 0.372549 0.827451
0.533333 0.380392 0.827451
0.647059 0.388235 0.831373
0.756863 0.407843 0.827451
0.858824 0.423529 0.815686
0.917647 0.462745 0.772549
0.298039 0.505882 0.819608
0.329412 0.513725 0.827451
0.380392 0.509804 0.827451
0.431373 0.486275 0.827451
0.541176 0.494118 0.831373
0.65098 0.501961 0.831373
0.760784 0.521569 0.831373
0.862745 0.533333 0.823529
0.921569 0.560784 0.780392
0.32549 0.619608 0.819608
0.345098 0.619608 0.823529
0.392157 0.619608 0.827451
0.458824 0.615686 0.819608
0.552941 0.619608 0.823529
0.65098 0.615686 0.827451
0.764706 0.639216 0.835294
0.862745 0.643137 0.827451
0.933333 0.658824 0.796078
0.376471 0.729412 0.823529
0.396078 0.733333 0.831373
0.435294 0.733333 0.827451
0.501961 0.737255 0.831373
0.572549 0.733333 0.831373
0.666667 0.737255 0.831373
0.760784 0.741176 0.831373
0.866667 0.752941 0.839216
0.941176 0.760784 0.807843
0.431373 0.835294 0.831373
0.45098 0.839216 0.831373
0.490196 0.843137 0.843137
0.54902 0.847059 0.843137
0.607843 0.843137 0.843137
0.694118 0.847059 0.843137
0.780392 0.854902 0.847059
0.886275 0.870588 0.858824
0.952941 0.866667 0.835294
0.478431 0.952941 0.866667
0.490196 0.956863 0.866667
0.529412 0.956863 0.866667
0.580392 0.956863 0.866667
0.643137 0.956863 0.866667
0.721569 0.956863 0.862745
0.796078 0.956863 0.854902
0.878431 0.952941 0.85098
0.972549 0.972549 0.858824
0.239216 0.160784 0.882353
0.286275 0.172549 0.913725
0.34902 0.164706 0.909804
0.435294 0.168627 0.913725
0.537255 0.176471 0.917647
0.639216 0.192157 0.917647
0.745098 0.227451 0.921569
0.85098 0.282353 0.917647
0.94902 0.341176 0.913725
0.258824 0.211765 0.917647
0.298039 0.219608 0.941176
0.368627 0.219608 0.941176
0.454902 0.219608 0.941176
0.552941 0.227451 0.941176
0.65098 0.239216 0.937255
0.760784 0.27451 0.941176
0.866667 0.317647 0.933333
0.960784 0.372549 0.929412
0.278431 0.294118 0.921569
0.309804 0.298039 0.941176
0.372549 0.301961 0.941176
0.454902 0.305882 0.941176
0.552941 0.309804 0.937255
0.654902 0.321569 0.937255
0.760784 0.345098 0.937255
0.866667 0.384314 0.937255
0.956863 0.423529 0.92549
0.294118 0.392157 0.92549
0.32549 0.403922 0.945098
0.384314 0.403922 0.945098
0.470588 0.403922 0.941176
0.556863 0.407843 0.941176
0.658824 0.419608 0.937255
0.764706 0.443137 0.941176
0.862745 0.466667 0.937255
0.956863 0.494118 0.929412
0.360784 0.529412 0.937255
0.376471 0.529412 0.941176
0.396078 0.517647 0.945098
0.458824 0.505882 0.941176
0.560784 0.513725 0.945098
0.662745 0.521569 0.941176
0.764706 0.541176 0.945098
0.862745 0.556863 0.941176
0.960784 0.576471 0.933333
0.356863 0.635294 0.933333
0.372549 0.635294 0.941176
0.427451 0.643137 0.945098
0.490196 0.635294 0.945098
0.556863 0.623529 0.945098
0.654902 0.619608 0.945098
0.756863 0.631373 0.941176
0.862745 0.65098 0.945098
0.964706 0.670588 0.945098
0.384314 0.74902 0.941176
0.4 0.752941 0.94902
0.443137 0.752941 0.952941
0.494118 0.74902 0.94902
0.564706 0.741176 0.945098
0.658824 0.741176 0.94902
0.752941 0.733333 0.94902
0.862745 0.752941 0.94902
0.964706 0.764706 0.94902
0.435294 0.858824 0.952941
0.447059 0.862745 0.956863
0.478431 0.858824 0.952941
0.533333 0.862745 0.956863
0.596078 0.858824 0.956863
0.670588 0.854902 0.952941
0.760784 0.854902 0.956863
0.866667 0.858824 0.960784
0.972549 0.870588 0.956863
0.494118 0.964706 0.976471
0.513725 0.968627 0.980392
0.533333 0.964706 0.976471
0.584314 0.968627 0.980392
0.639216 0.964706 0.980392
0.721569 0.972549 0.980392
0.796078 0.972549 0.980392
0.886275 0.972549 0.980392
0.980392 0.980392 0.976471
