resources/LUTs/LUT Colour Grades (cube)/Natural_Film_Warm.cube
#Generated by Picture Instruments - Look Creator
TITLE "Kodak Ektar 25Warm"
LUT_3D_SIZE 17
0 0 0
0.0235294 0.00392157 0
0.0705882 0.0156863 0
0.121569 0.027451 0
0.184314 0.0196078 0
0.254902 0.0156863 0
0.321569 0.00784314 0
0.396078 0.0156863 0
0.45098 0.0156863 0
0.513725 0.027451 0
0.580392 0.0705882 0
0.631373 0.0980392 0
0.690196 0.141176 0
0.741176 0.172549 0
0.788235 0.203922 0
0.839216 0.235294 0
0.886275 0.258824 0
0.00392157 0.0431373 0.0117647
0.0352941 0.0470588 0.00784314
0.0745098 0.054902 0.00392157
0.133333 0.0627451 0
0.192157 0.0470588 0
0.266667 0.0470588 0
0.337255 0.0392157 0
0.403922 0.0392157 0
0.47451 0.0627451 0
0.533333 0.0705882 0
0.588235 0.0980392 0
0.643137 0.121569 0
0.694118 0.152941 0
0.745098 0.184314 0
0.792157 0.211765 0
0.847059 0.25098 0
0.894118 0.270588 0
0.0117647 0.0862745 0.0313725
0.0431373 0.0901961 0.0313725
0.0784314 0.0941176 0.0196078
0.137255 0.101961 0.00392157
0.207843 0.105882 0
0.27451 0.0980392 0
0.345098 0.101961 0
0.411765 0.0980392 0
0.478431 0.113725 0
0.541176 0.12549 0
0.596078 0.137255 0
0.65098 0.160784 0
0.701961 0.184314 0
0.74902 0.207843 0
0.796078 0.235294 0
0.839216 0.262745 0
0.894118 0.290196 0
0.0235294 0.129412 0.0431373
0.0509804 0.133333 0.0431373
0.0862745 0.133333 0.0392157
0.133333 0.145098 0.027451
0.203922 0.156863 0.00392157
0.278431 0.156863 0
0.360784 0.160784 0
0.427451 0.160784 0
0.490196 0.168627 0
0.545098 0.172549 0
0.607843 0.192157 0
0.654902 0.2 0
0.709804 0.223529 0
0.74902 0.239216 0
0.803922 0.266667 0
0.843137 0.290196 0
0.894118 0.313725 0
0.0313725 0.184314 0.0470588
0.0705882 0.192157 0.054902
0.101961 0.188235 0.0470588
0.141176 0.192157 0.0392157
0.203922 0.203922 0.0196078
0.278431 0.215686 0.00392157
0.360784 0.227451 0
0.435294 0.231373 0
0.509804 0.235294 0
0.560784 0.235294 0
0.615686 0.243137 0
0.666667 0.25098 0
0.713725 0.270588 0
0.756863 0.278431 0
0.803922 0.298039 0
0.85098 0.321569 0
0.901961 0.345098 0
0.0627451 0.247059 0.0588235
0.0941176 0.25098 0.0627451
0.117647 0.247059 0.0509804
0.160784 0.247059 0.054902
0.211765 0.254902 0.0352941
0.27451 0.270588 0.0156863
0.356863 0.290196 0.00392157
0.431373 0.294118 0
0.505882 0.298039 0
0.572549 0.301961 0
0.627451 0.301961 0
0.678431 0.313725 0
0.72549 0.321569 0
0.768627 0.329412 0
0.815686 0.34902 0
0.858824 0.364706 0
0.909804 0.384314 0
0.105882 0.309804 0.0745098
0.12549 0.317647 0.0784314
0.156863 0.317647 0.0784314
0.188235 0.309804 0.0666667
0.227451 0.309804 0.0588235
0.282353 0.321569 0.0392157
0.345098 0.337255 0.0117647
0.427451 0.356863 0
0.505882 0.368627 0
0.572549 0.368627 0
0.631373 0.372549 0
0.690196 0.376471 0
0.741176 0.380392 0
0.784314 0.392157 0
0.823529 0.396078 0
0.866667 0.411765 0
0.909804 0.423529 0
0.141176 0.368627 0.0941176
0.164706 0.380392 0.0980392
0.180392 0.380392 0.0941176
0.211765 0.372549 0.0862745
0.25098 0.372549 0.0862745
0.290196 0.372549 0.0705882
0.352941 0.392157 0.0470588
0.415686 0.4 0.0156863
0.498039 0.423529 0.00392157
0.560784 0.427451 0
0.623529 0.435294 0
0.682353 0.439216 0
0.737255 0.443137 0
0.792157 0.45098 0
0.835294 0.45098 0
0.870588 0.458824 0
0.921569 0.47451 0
0.184314 0.435294 0.121569
0.196078 0.435294 0.117647
0.215686 0.439216 0.121569
0.243137 0.435294 0.113725
0.270588 0.427451 0.105882
0.309804 0.423529 0.105882
0.352941 0.435294 0.0823529
0.419608 0.45098 0.0588235
0.478431 0.462745 0.0235294
0.556863 0.482353 0.00392157
0.619608 0.494118 0
0.678431 0.498039 0
0.733333 0.498039 0
0.788235 0.505882 0
0.839216 0.513725 0
0.882353 0.513725 0
0.929412 0.52549 0
0.223529 0.490196 0.145098
0.235294 0.498039 0.14902
0.247059 0.494118 0.145098
0.270588 0.490196 0.141176
0.294118 0.486275 0.133333
0.329412 0.482353 0.129412
0.364706 0.478431 0.12549
0.423529 0.490196 0.105882
0.47451 0.505882 0.0823529
0.537255 0.521569 0.0431373
0.603922 0.537255 0.0117647
0.670588 0.552941 0
0.733333 0.560784 0
0.780392 0.560784 0
0.835294 0.572549 0
0.882353 0.572549 0
0.929412 0.580392 0
0.258824 0.552941 0.176471
0.270588 0.552941 0.176471
0.282353 0.54902 0.172549
0.298039 0.54902 0.168627
0.32549 0.541176 0.168627
0.356863 0.541176 0.164706
0.380392 0.529412 0.14902
0.423529 0.533333 0.141176
0.478431 0.545098 0.12549
0.533333 0.560784 0.105882
0.596078 0.576471 0.0627451
0.658824 0.592157 0.027451
0.72549 0.611765 0.00392157
0.776471 0.619608 0
0.831373 0.623529 0
0.878431 0.627451 0
0.929412 0.635294 0
0.298039 0.607843 0.207843
0.301961 0.607843 0.207843
0.313725 0.607843 0.207843
0.337255 0.607843 0.207843
0.356863 0.603922 0.2
0.376471 0.592157 0.192157
0.403922 0.588235 0.180392
0.435294 0.580392 0.172549
0.486275 0.592157 0.164706
0.541176 0.607843 0.156863
0.588235 0.611765 0.129412
0.647059 0.631373 0.101961
0.705882 0.647059 0.0509804
0.776471 0.670588 0.0156863
0.823529 0.67451 0.00392157
0.87451 0.682353 0
0.929412 0.694118 0
0.337255 0.666667 0.247059
0.341176 0.662745 0.247059
0.352941 0.662745 0.243137
0.368627 0.666667 0.243137
0.384314 0.654902 0.235294
0.407843 0.65098 0.227451
0.439216 0.647059 0.223529
0.458824 0.635294 0.207843
0.494118 0.635294 0.2
0.537255 0.643137 0.188235
0.6 0.662745 0.184314
0.65098 0.678431 0.168627
0.701961 0.690196 0.14902
0.756863 0.698039 0.105882
0.823529 0.72549 0.0627451
0.878431 0.741176 0.0431373
0.92549 0.745098 0.0156863
0.380392 0.72549 0.286275
0.380392 0.717647 0.282353
0.388235 0.717647 0.278431
0.403922 0.717647 0.282353
0.415686 0.713725 0.27451
0.435294 0.701961 0.262745
0.466667 0.705882 0.262745
0.494118 0.701961 0.254902
0.517647 0.690196 0.239216
0.560784 0.698039 0.235294
0.607843 0.705882 0.227451
0.654902 0.721569 0.219608
0.705882 0.733333 0.207843
0.756863 0.74902 0.192157
0.815686 0.760784 0.172549
0.878431 0.788235 0.145098
0.929412 0.8 0.129412
0.431373 0.788235 0.341176
0.423529 0.772549 0.329412
0.431373 0.776471 0.333333
0.439216 0.768627 0.321569
0.454902 0.764706 0.317647
0.478431 0.764706 0.313725
0.498039 0.760784 0.305882
0.52549 0.760784 0.305882
0.552941 0.756863 0.294118
0.580392 0.752941 0.282353
0.623529 0.760784 0.282353
0.666667 0.768627 0.270588
0.721569 0.788235 0.270588
0.764706 0.792157 0.254902
0.815686 0.803922 0.243137
0.858824 0.815686 0.223529
0.929412 0.847059 0.219608
0.478431 0.843137 0.392157
0.47451 0.835294 0.384314
0.482353 0.835294 0.384314
0.486275 0.827451 0.376471
0.498039 0.827451 0.372549
0.513725 0.819608 0.364706
0.541176 0.827451 0.368627
0.564706 0.827451 0.360784
0.592157 0.823529 0.356863
0.619608 0.819608 0.34902
0.65098 0.815686 0.341176
0.694118 0.827451 0.341176
0.741176 0.839216 0.341176
0.784314 0.85098 0.337255
0.835294 0.866667 0.333333
0.882353 0.878431 0.32549
0.929412 0.886275 0.317647
0.545098 0.909804 0.462745
0.537255 0.905882 0.454902
0.541176 0.898039 0.447059
0.552941 0.901961 0.454902
0.560784 0.898039 0.447059
0.584314 0.901961 0.45098
0.6 0.901961 0.447059
0.623529 0.898039 0.443137
0.654902 0.901961 0.447059
0.682353 0.901961 0.447059
0.709804 0.901961 0.439216
0.752941 0.909804 0.447059
0.788235 0.917647 0.447059
0.831373 0.921569 0.45098
0.878431 0.937255 0.454902
0.921569 0.94902 0.458824
0.952941 0.952941 0.454902
0 0 0.0509804
0.0313725 0.00392157 0.0470588
0.0745098 0.0117647 0.0392157
0.121569 0.0235294 0.0392157
0.192157 0.027451 0.0352941
0.254902 0.0117647 0.0235294
0.32549 0.0156863 0.00784314
0.388235 0.0117647 0
0.454902 0.0156863 0
0.513725 0.0313725 0
0.576471 0.0666667 0
0.631373 0.0941176 0
0.686275 0.129412 0
0.737255 0.164706 0
0.788235 0.203922 0
0.839216 0.235294 0
0.894118 0.266667 0
0 0.0470588 0.0509804
0.0352941 0.0509804 0.054902
0.0745098 0.054902 0.0470588
0.133333 0.0588235 0.0470588
0.192157 0.0509804 0.0352941
0.262745 0.0431373 0.0235294
0.333333 0.0352941 0.00392157
0.407843 0.0431373 0
0.466667 0.0470588 0
0.533333 0.0745098 0
0.588235 0.0901961 0
0.647059 0.12549 0
0.694118 0.152941 0
0.741176 0.180392 0
0.792157 0.215686 0
0.835294 0.239216 0
0.890196 0.270588 0
0.0156863 0.0901961 0.0588235
0.0470588 0.0901961 0.0588235
0.0862745 0.0980392 0.0588235
0.137255 0.0980392 0.0470588
0.207843 0.101961 0.0431373
0.27451 0.0980392 0.0235294
0.34902 0.101961 0.00784314
0.411765 0.101961 0
0.478431 0.109804 0
0.537255 0.117647 0
0.592157 0.133333 0
0.65098 0.160784 0
0.701961 0.180392 0
0.745098 0.207843 0
0.792157 0.231373 0
0.839216 0.262745 0
0.894118 0.290196 0
0.027451 0.133333 0.0666667
0.0627451 0.141176 0.0705882
0.0901961 0.137255 0.0627451
0.141176 0.14902 0.0588235
0.207843 0.152941 0.0352941
0.290196 0.160784 0.0235294
0.360784 0.160784 0.00784314
0.427451 0.160784 0
0.494118 0.172549 0
0.54902 0.176471 0
0.607843 0.192157 0
0.654902 0.203922 0
0.705882 0.219608 0
0.756863 0.243137 0
0.8 0.262745 0
0.843137 0.286275 0
0.898039 0.313725 0
0.0431373 0.192157 0.0745098
0.0784314 0.196078 0.0745098
0.113725 0.2 0.0823529
0.152941 0.2 0.0705882
0.207843 0.203922 0.0470588
0.290196 0.223529 0.027451
0.364706 0.227451 0.0156863
0.439216 0.231373 0.00392157
0.505882 0.231373 0
0.564706 0.239216 0
0.611765 0.239216 0
0.662745 0.25098 0
0.713725 0.266667 0
0.760784 0.282353 0
0.807843 0.301961 0
0.85098 0.321569 0
0.898039 0.341176 0
0.0823529 0.254902 0.0862745
0.101961 0.258824 0.0823529
0.133333 0.254902 0.0862745
0.168627 0.254902 0.0823529
0.223529 0.258824 0.0666667
0.282353 0.27451 0.0470588
0.364706 0.290196 0.0156863
0.443137 0.301961 0.00392157
0.509804 0.301961 0
0.576471 0.301961 0
0.631373 0.305882 0
0.678431 0.309804 0
0.729412 0.321569 0
0.772549 0.333333 0
0.811765 0.345098 0
0.858824 0.364706 0
0.901961 0.380392 0
0.113725 0.313725 0.0980392
0.137255 0.32549 0.101961
0.164706 0.321569 0.0980392
0.2 0.317647 0.0941176
0.231373 0.309804 0.0823529
0.286275 0.32549 0.0705882
0.356863 0.341176 0.0431373
0.435294 0.360784 0.00784314
0.505882 0.368627 0.00392157
0.568627 0.364706 0
0.631373 0.372549 0
0.694118 0.376471 0
0.741176 0.380392 0
0.780392 0.388235 0
0.819608 0.396078 0
0.862745 0.407843 0
0.905882 0.419608 0
0.156863 0.376471 0.117647
0.168627 0.384314 0.117647
0.188235 0.384314 0.113725
0.215686 0.376471 0.105882
0.258824 0.376471 0.109804
0.298039 0.376471 0.0980392
0.356863 0.392157 0.0784314
0.423529 0.407843 0.0431373
0.501961 0.427451 0.00784314
0.568627 0.435294 0
0.631373 0.439216 0
0.682353 0.435294 0
0.741176 0.443137 0
0.796078 0.447059 0
0.835294 0.454902 0
0.87451 0.462745 0
0.921569 0.47451 0
0.188235 0.431373 0.133333
0.203922 0.439216 0.137255
0.215686 0.439216 0.133333
0.25098 0.439216 0.133333
0.278431 0.435294 0.129412
0.313725 0.427451 0.121569
0.364706 0.439216 0.109804
0.419608 0.45098 0.0862745
0.482353 0.466667 0.0509804
0.556863 0.482353 0.0117647
0.619608 0.494118 0.00392157
0.682353 0.498039 0
0.737255 0.505882 0
0.788235 0.505882 0
0.839216 0.513725 0
0.886275 0.517647 0
0.929412 0.52549 0
0.223529 0.486275 0.160784
0.239216 0.498039 0.160784
0.247059 0.490196 0.156863
0.270588 0.490196 0.152941
0.301961 0.490196 0.152941
0.333333 0.482353 0.145098
0.372549 0.482353 0.141176
0.427451 0.494118 0.12549
0.478431 0.505882 0.105882
0.541176 0.517647 0.0666667
0.607843 0.537255 0.0313725
0.67451 0.556863 0.00784314
0.729412 0.556863 0
0.784314 0.564706 0
0.835294 0.572549 0
0.882353 0.572549 0
0.933333 0.584314 0
0.258824 0.545098 0.188235
0.270588 0.54902 0.188235
0.286275 0.552941 0.188235
0.305882 0.552941 0.188235
0.329412 0.545098 0.184314
0.360784 0.545098 0.180392
0.388235 0.533333 0.164706
0.423529 0.529412 0.152941
0.486275 0.54902 0.14902
0.537255 0.560784 0.12549
0.596078 0.580392 0.0980392
0.662745 0.596078 0.0588235
0.72549 0.611765 0.0117647
0.776471 0.615686 0.00392157
0.831373 0.623529 0
0.87451 0.627451 0
0.933333 0.639216 0
0.298039 0.6 0.215686
0.305882 0.607843 0.215686
0.313725 0.603922 0.215686
0.333333 0.603922 0.215686
0.356863 0.6 0.211765
0.380392 0.596078 0.203922
0.411765 0.592157 0.2
0.443137 0.584314 0.188235
0.486275 0.592157 0.176471
0.541176 0.607843 0.168627
0.592157 0.619608 0.152941
0.654902 0.635294 0.133333
0.709804 0.65098 0.0941176
0.776471 0.670588 0.0392157
0.827451 0.678431 0.0196078
0.878431 0.682353 0.00784314
0.929412 0.694118 0
0.329412 0.65098 0.247059
0.341176 0.658824 0.25098
0.356863 0.666667 0.254902
0.360784 0.654902 0.247059
0.384314 0.654902 0.239216
0.407843 0.65098 0.239216
0.439216 0.647059 0.231373
0.462745 0.643137 0.219608
0.494118 0.635294 0.211765
0.545098 0.647059 0.203922
0.592157 0.662745 0.196078
0.65098 0.67451 0.184314
0.701961 0.686275 0.164706
0.764706 0.705882 0.141176
0.827451 0.729412 0.0980392
0.882353 0.741176 0.0745098
0.929412 0.74902 0.0509804
0.368627 0.705882 0.282353
0.380392 0.717647 0.290196
0.388235 0.717647 0.290196
0.403922 0.713725 0.286275
0.423529 0.713725 0.286275
0.443137 0.713725 0.282353
0.466667 0.701961 0.270588
0.490196 0.698039 0.258824
0.521569 0.694118 0.254902
0.560784 0.698039 0.247059
0.607843 0.705882 0.239216
0.658824 0.721569 0.231373
0.705882 0.733333 0.219608
0.756863 0.741176 0.203922
0.811765 0.760784 0.188235
0.87451 0.780392 0.152941
0.929412 0.8 0.152941
0.415686 0.768627 0.333333
0.427451 0.776471 0.337255
0.427451 0.768627 0.333333
0.439216 0.768627 0.329412
0.458824 0.768627 0.32549
0.47451 0.764706 0.317647
0.494118 0.760784 0.313725
0.529412 0.760784 0.313725
0.552941 0.752941 0.298039
0.580392 0.74902 0.294118
0.619608 0.756863 0.282353
0.666667 0.768627 0.278431
0.717647 0.784314 0.27451
0.764706 0.796078 0.270588
0.819608 0.807843 0.254902
0.862745 0.819608 0.239216
0.92549 0.847059 0.231373
0.466667 0.831373 0.388235
0.470588 0.835294 0.388235
0.478431 0.831373 0.388235
0.486275 0.831373 0.384314
0.501961 0.831373 0.384314
0.517647 0.827451 0.376471
0.545098 0.831373 0.376471
0.564706 0.823529 0.368627
0.588235 0.819608 0.360784
0.623529 0.823529 0.356863
0.658824 0.819608 0.34902
0.698039 0.831373 0.352941
0.741176 0.839216 0.34902
0.788235 0.854902 0.345098
0.831373 0.858824 0.337255
0.886275 0.878431 0.337255
0.92549 0.886275 0.32549
0.533333 0.898039 0.462745
0.541176 0.901961 0.462745
0.54902 0.905882 0.462745
0.552941 0.901961 0.458824
0.564706 0.901961 0.454902
0.580392 0.901961 0.454902
0.603922 0.901961 0.45098
0.627451 0.901961 0.454902
0.647059 0.898039 0.447059
0.682353 0.901961 0.45098
0.717647 0.905882 0.45098
0.756863 0.913725 0.454902
0.792157 0.917647 0.454902
0.839216 0.929412 0.462745
0.87451 0.937255 0.458824
0.917647 0.945098 0.462745
0.94902 0.94902 0.458824
0 0.00784314 0.0901961
0.027451 0.00784314 0.0862745
0.0823529 0.00784314 0.0862745
0.137255 0 0.0745098
0.196078 0 0.0666667
0.254902 0.00784314 0.0627451
0.32549 0.0156863 0.0588235
0.388235 0.0156863 0.0431373
0.45098 0.0156863 0.0156863
0.513725 0.0313725 0.00784314
0.572549 0.0509804 0.00392157
0.627451 0.0862745 0
0.686275 0.129412 0
0.741176 0.168627 0
0.784314 0.192157 0
0.835294 0.227451 0
0.894118 0.262745 0
0 0.0588235 0.0941176
0.0352941 0.054902 0.0941176
0.0901961 0.054902 0.0901961
0.141176 0.0509804 0.0823529
0.196078 0.054902 0.0823529
0.262745 0.0431373 0.0705882
0.333333 0.0431373 0.0627451
0.4 0.0431373 0.0431373
0.466667 0.0509804 0.0235294
0.529412 0.0627451 0.00392157
0.588235 0.0862745 0
0.643137 0.117647 0
0.690196 0.145098 0
0.741176 0.180392 0
0.792157 0.215686 0
0.839216 0.243137 0
0.890196 0.27451 0
0.0117647 0.0980392 0.0941176
0.0509804 0.101961 0.101961
0.0901961 0.0980392 0.0941176
0.14902 0.105882 0.0941176
0.211765 0.101961 0.0862745
0.270588 0.0980392 0.0705882
0.341176 0.0980392 0.0588235
0.411765 0.105882 0.0431373
0.478431 0.109804 0.0196078
0.541176 0.121569 0.00784314
0.596078 0.137255 0
0.643137 0.14902 0
0.698039 0.180392 0
0.74902 0.207843 0
0.796078 0.231373 0
0.839216 0.258824 0
0.890196 0.286275 0
0.0431373 0.145098 0.101961
0.0745098 0.145098 0.101961
0.109804 0.14902 0.105882
0.14902 0.152941 0.0980392
0.227451 0.164706 0.0941176
0.294118 0.156863 0.0745098
0.360784 0.160784 0.0627451
0.419608 0.160784 0.0313725
0.490196 0.168627 0.0156863
0.54902 0.176471 0.00392157
0.6 0.184314 0
0.654902 0.203922 0
0.701961 0.215686 0
0.752941 0.239216 0
0.803922 0.266667 0
0.847059 0.290196 0
0.898039 0.313725 0
0.0666667 0.2 0.105882
0.0941176 0.207843 0.113725
0.129412 0.207843 0.109804
0.160784 0.2 0.101961
0.219608 0.215686 0.0980392
0.298039 0.227451 0.0862745
0.372549 0.227451 0.0627451
0.443137 0.227451 0.027451
0.505882 0.231373 0.0156863
0.560784 0.235294 0.00784314
0.611765 0.239216 0
0.662745 0.254902 0
0.709804 0.262745 0
0.756863 0.278431 0
0.807843 0.301961 0
0.847059 0.317647 0
0.901961 0.345098 0
0.0941176 0.258824 0.117647
0.121569 0.270588 0.121569
0.14902 0.266667 0.117647
0.188235 0.266667 0.117647
0.227451 0.262745 0.105882
0.290196 0.278431 0.0941176
0.372549 0.298039 0.0705882
0.439216 0.294118 0.0352941
0.509804 0.298039 0.0156863
0.580392 0.301961 0.00784314
0.627451 0.305882 0.00392157
0.678431 0.313725 0
0.72549 0.321569 0
0.772549 0.337255 0
0.811765 0.345098 0
0.858824 0.364706 0
0.905882 0.380392 0
0.12549 0.321569 0.12549
0.145098 0.329412 0.129412
0.176471 0.329412 0.129412
0.207843 0.32549 0.129412
0.247059 0.32549 0.12549
0.298039 0.333333 0.113725
0.360784 0.34902 0.0980392
0.443137 0.368627 0.0627451
0.509804 0.368627 0.027451
0.572549 0.368627 0.00784314
0.639216 0.376471 0
0.690196 0.372549 0
0.737255 0.376471 0
0.776471 0.384314 0
0.819608 0.392157 0
0.866667 0.411765 0
0.909804 0.423529 0
0.156863 0.380392 0.137255
0.184314 0.392157 0.14902
0.2 0.388235 0.145098
0.231373 0.384314 0.141176
0.266667 0.384314 0.141176
0.305882 0.380392 0.133333
0.364706 0.392157 0.117647
0.431373 0.407843 0.0980392
0.505882 0.427451 0.054902
0.568627 0.435294 0.0235294
0.631373 0.439216 0.0117647
0.686275 0.439216 0
0.745098 0.443137 0
0.796078 0.45098 0
0.831373 0.45098 0
0.87451 0.462745 0
0.921569 0.47451 0
0.2 0.443137 0.164706
0.219608 0.454902 0.172549
0.235294 0.447059 0.164706
0.262745 0.447059 0.164706
0.282353 0.435294 0.152941
0.321569 0.431373 0.14902
0.368627 0.439216 0.145098
0.427451 0.454902 0.133333
0.490196 0.470588 0.109804
0.564706 0.494118 0.0705882
0.627451 0.501961 0.0352941
0.682353 0.501961 0.0156863
0.741176 0.505882 0
0.788235 0.509804 0
0.839216 0.513725 0
0.882353 0.513725 0
0.929412 0.52549 0
0.231373 0.494118 0.184314
0.25098 0.505882 0.192157
0.262745 0.501961 0.188235
0.286275 0.498039 0.184314
0.313725 0.498039 0.180392
0.341176 0.486275 0.172549
0.376471 0.482353 0.164706
0.423529 0.494118 0.156863
0.482353 0.509804 0.145098
0.537255 0.517647 0.113725
0.611765 0.541176 0.0823529
0.678431 0.560784 0.0431373
0.733333 0.560784 0.0196078
0.788235 0.568627 0.00392157
0.831373 0.564706 0
0.882353 0.572549 0
0.933333 0.580392 0
0.266667 0.545098 0.207843
0.282353 0.560784 0.215686
0.294118 0.560784 0.215686
0.313725 0.556863 0.215686
0.337255 0.54902 0.203922
0.364706 0.545098 0.2
0.4 0.541176 0.196078
0.435294 0.537255 0.184314
0.486275 0.552941 0.176471
0.541176 0.568627 0.164706
0.6 0.576471 0.137255
0.662745 0.596078 0.109804
0.729412 0.615686 0.0627451
0.776471 0.615686 0.0235294
0.835294 0.627451 0.0156863
0.878431 0.631373 0
0.929412 0.635294 0
0.301961 0.603922 0.239216
0.313725 0.607843 0.239216
0.321569 0.607843 0.239216
0.341176 0.607843 0.235294
0.364706 0.603922 0.231373
0.388235 0.6 0.227451
0.415686 0.592157 0.219608
0.45098 0.592157 0.215686
0.494118 0.596078 0.203922
0.537255 0.607843 0.192157
0.596078 0.623529 0.184314
0.65098 0.635294 0.160784
0.709804 0.65098 0.141176
0.776471 0.67451 0.101961
0.823529 0.67451 0.0588235
0.882353 0.686275 0.0392157
0.929412 0.694118 0.0156863
0.333333 0.65098 0.262745
0.345098 0.658824 0.266667
0.360784 0.666667 0.270588
0.372549 0.666667 0.270588
0.396078 0.662745 0.266667
0.415686 0.654902 0.258824
0.443137 0.65098 0.25098
0.466667 0.643137 0.243137
0.501961 0.639216 0.231373
0.545098 0.647059 0.223529
0.596078 0.662745 0.215686
0.654902 0.67451 0.207843
0.705882 0.690196 0.196078
0.764706 0.705882 0.176471
0.827451 0.729412 0.145098
0.870588 0.733333 0.113725
0.92549 0.745098 0.0901961
0.372549 0.709804 0.301961
0.384314 0.717647 0.309804
0.392157 0.717647 0.305882
0.407843 0.717647 0.305882
0.423529 0.713725 0.301961
0.447059 0.709804 0.294118
0.466667 0.705882 0.286275
0.494118 0.698039 0.27451
0.52549 0.694118 0.270588
0.560784 0.694118 0.258824
0.603922 0.705882 0.254902
0.654902 0.717647 0.247059
0.709804 0.733333 0.239216
0.756863 0.745098 0.223529
0.811765 0.760784 0.211765
0.878431 0.788235 0.192157
0.92549 0.796078 0.180392
0.415686 0.764706 0.345098
0.427451 0.772549 0.34902
0.435294 0.776471 0.34902
0.443137 0.768627 0.341176
0.454902 0.768627 0.337255
0.482353 0.768627 0.341176
0.498039 0.760784 0.32549
0.533333 0.764706 0.32549
0.556863 0.760784 0.317647
0.584314 0.752941 0.305882
0.623529 0.760784 0.301961
0.670588 0.768627 0.298039
0.72549 0.788235 0.298039
0.764706 0.792157 0.282353
0.815686 0.807843 0.27451
0.870588 0.819608 0.262745
0.929412 0.847059 0.25098
0.466667 0.827451 0.396078
0.478431 0.835294 0.403922
0.482353 0.831373 0.4
0.490196 0.831373 0.396078
0.501961 0.827451 0.392157
0.521569 0.827451 0.388235
0.545098 0.827451 0.384314
0.564706 0.827451 0.380392
0.596078 0.823529 0.376471
0.623529 0.819608 0.368627
0.65098 0.819608 0.360784
0.698039 0.831373 0.360784
0.745098 0.847059 0.364706
0.788235 0.85098 0.356863
0.835294 0.862745 0.352941
0.878431 0.870588 0.341176
0.92549 0.886275 0.341176
0.541176 0.901961 0.47451
0.541176 0.905882 0.470588
0.54902 0.901961 0.470588
0.556863 0.905882 0.470588
0.568627 0.901961 0.466667
0.588235 0.909804 0.470588
0.603922 0.901961 0.466667
0.627451 0.901961 0.462745
0.654902 0.901961 0.458824
0.686275 0.905882 0.462745
0.713725 0.901961 0.458824
0.756863 0.913725 0.462745
0.792157 0.921569 0.462745
0.835294 0.929412 0.466667
0.878431 0.941176 0.470588
0.917647 0.945098 0.466667
0.952941 0.94902 0.466667
0 0.0117647 0.137255
0.027451 0.0117647 0.137255
0.0862745 0.00392157 0.137255
0.145098 0 0.129412
0.219608 0 0.117647
0.27451 0 0.101961
0.329412 0 0.0901961
0.384314 0.00392157 0.0941176
0.45098 0.0196078 0.0823529
0.513725 0.0431373 0.0745098
0.572549 0.0588235 0.0392157
0.627451 0.0941176 0.0156863
0.682353 0.129412 0.00392157
0.733333 0.156863 0
0.784314 0.196078 0
0.835294 0.231373 0
0.894118 0.262745 0
0 0.054902 0.137255
0.027451 0.054902 0.141176
0.0862745 0.0509804 0.137255
0.152941 0.0352941 0.133333
0.219608 0.0196078 0.121569
0.27451 0.0117647 0.109804
0.329412 0.0235294 0.105882
0.4 0.0352941 0.101961
0.466667 0.0509804 0.0901961
0.529412 0.0784314 0.0745098
0.584314 0.0941176 0.0431373
0.639216 0.121569 0.0156863
0.694118 0.152941 0.00392157
0.741176 0.180392 0
0.784314 0.207843 0
0.839216 0.243137 0
