resources/LUTs/LUT Colour Grades (cube)/Old_Film_Warm.cube
#Generated by Picture Instruments - Look Creator
TITLE "Agfa RSX200 II Warm"
LUT_3D_SIZE 9
0 0 0
0.0941176 0.00784314 0
0.192157 0.0470588 0
0.286275 0.0509804 0
0.403922 0.0705882 0
0.521569 0.0823529 0
0.635294 0.0980392 0
0.752941 0.141176 0
0.858824 0.168627 0
0.0666667 0.12549 0.0509804
0.117647 0.121569 0.0431373
0.219608 0.12549 0.0117647
0.317647 0.129412 0
0.435294 0.133333 0
0.545098 0.133333 0
0.65098 0.145098 0
0.760784 0.172549 0
0.870588 0.207843 0
0.117647 0.227451 0.0901961
0.164706 0.227451 0.0823529
0.235294 0.223529 0.0862745
0.360784 0.239216 0.054902
0.482353 0.239216 0.0196078
0.588235 0.239216 0.00784314
0.690196 0.247059 0.00392157
0.780392 0.254902 0
0.886275 0.27451 0
0.180392 0.345098 0.12549
0.223529 0.352941 0.129412
0.294118 0.352941 0.12549
0.368627 0.34902 0.12549
0.501961 0.368627 0.0941176
0.647059 0.372549 0.027451
0.72549 0.360784 0.0156863
0.819608 0.364706 0.00392157
0.909804 0.372549 0
0.254902 0.47451 0.164706
0.294118 0.490196 0.172549
0.352941 0.482353 0.172549
0.427451 0.478431 0.168627
0.513725 0.482353 0.172549
0.631373 0.494118 0.14902
0.756863 0.501961 0.105882
0.858824 0.494118 0.0470588
0.937255 0.494118 0.0196078
0.341176 0.603922 0.215686
0.368627 0.607843 0.219608
0.419608 0.607843 0.219608
0.47451 0.596078 0.203922
0.560784 0.6 0.215686
0.647059 0.607843 0.227451
0.745098 0.611765 0.219608
0.866667 0.627451 0.207843
0.960784 0.623529 0.172549
0.443137 0.729412 0.286275
0.454902 0.72549 0.278431
0.486275 0.721569 0.27451
0.541176 0.713725 0.262745
0.607843 0.713725 0.262745
0.686275 0.717647 0.278431
0.764706 0.721569 0.294118
0.858824 0.729412 0.313725
0.952941 0.741176 0.317647
0.545098 0.847059 0.364706
0.545098 0.835294 0.356863
0.576471 0.835294 0.356863
0.619608 0.835294 0.34902
0.666667 0.823529 0.333333
0.733333 0.827451 0.345098
0.811765 0.835294 0.372549
0.894118 0.847059 0.407843
0.952941 0.847059 0.443137
0.686275 0.964706 0.509804
0.678431 0.956863 0.494118
0.701961 0.956863 0.498039
0.741176 0.956863 0.501961
0.780392 0.956863 0.494118
0.835294 0.956863 0.494118
0.894118 0.960784 0.521569
0.952941 0.964706 0.564706
0.984314 0.964706 0.592157
0.00784314 0.0196078 0.101961
0.101961 0.0196078 0.101961
0.188235 0.0352941 0.0901961
0.286275 0.0588235 0.0862745
0.4 0.0627451 0.0666667
0.513725 0.0666667 0.0352941
0.627451 0.0784314 0.0117647
0.74902 0.121569 0.00392157
0.862745 0.156863 0
0.0509804 0.121569 0.117647
0.117647 0.12549 0.121569
0.196078 0.121569 0.109804
0.309804 0.12549 0.0980392
0.427451 0.12549 0.0745098
0.537255 0.121569 0.0431373
0.654902 0.14902 0.0117647
0.756863 0.160784 0.00392157
0.858824 0.180392 0
0.101961 0.227451 0.141176
0.156863 0.231373 0.145098
0.239216 0.235294 0.14902
0.356863 0.235294 0.121569
0.478431 0.235294 0.101961
0.576471 0.231373 0.0588235
0.682353 0.239216 0.0313725
0.780392 0.25098 0.00392157
0.870588 0.258824 0
0.172549 0.352941 0.168627
0.215686 0.356863 0.168627
0.294118 0.356863 0.172549
0.372549 0.356863 0.172549
0.509804 0.372549 0.152941
0.643137 0.376471 0.113725
0.721569 0.360784 0.0666667
0.807843 0.356863 0.027451
0.901961 0.360784 0.00392157
0.258824 0.486275 0.207843
0.298039 0.501961 0.215686
0.356863 0.490196 0.207843
0.427451 0.478431 0.196078
0.517647 0.486275 0.203922
0.643137 0.501961 0.192157
0.768627 0.509804 0.168627
0.858824 0.498039 0.117647
0.937255 0.490196 0.0666667
0.341176 0.603922 0.247059
0.360784 0.607843 0.243137
0.407843 0.6 0.239216
0.486275 0.603922 0.239216
0.560784 0.603922 0.239216
0.647059 0.607843 0.25098
0.752941 0.619608 0.25098
0.858824 0.623529 0.231373
0.964706 0.627451 0.215686
0.435294 0.721569 0.301961
0.454902 0.72549 0.305882
0.490196 0.721569 0.298039
0.541176 0.713725 0.290196
0.611765 0.713725 0.286275
0.686275 0.717647 0.298039
0.772549 0.729412 0.317647
0.862745 0.737255 0.341176
0.952941 0.745098 0.337255
0.533333 0.835294 0.372549
0.552941 0.839216 0.376471
0.568627 0.835294 0.368627
0.623529 0.839216 0.368627
0.67451 0.831373 0.352941
0.741176 0.831373 0.364706
0.815686 0.843137 0.392157
0.890196 0.843137 0.419608
0.956863 0.85098 0.458824
0.670588 0.956863 0.505882
0.678431 0.952941 0.505882
0.698039 0.952941 0.505882
0.733333 0.956863 0.501961
0.772549 0.956863 0.498039
0.835294 0.960784 0.501961
0.898039 0.960784 0.537255
0.956863 0.968627 0.572549
0.988235 0.972549 0.607843
0.0313725 0.0352941 0.172549
0.101961 0.0352941 0.180392
0.184314 0.0431373 0.180392
0.286275 0.0470588 0.176471
0.388235 0.00392157 0.141176
0.498039 0.0470588 0.141176
0.615686 0.0627451 0.133333
0.733333 0.0784314 0.0862745
0.843137 0.105882 0.0352941
0.0588235 0.133333 0.196078
0.117647 0.129412 0.196078
0.203922 0.129412 0.203922
0.301961 0.121569 0.188235
0.407843 0.0941176 0.160784
0.517647 0.105882 0.152941
0.631373 0.117647 0.133333
0.741176 0.129412 0.0901961
0.847059 0.156863 0.0313725
0.101961 0.227451 0.215686
0.152941 0.235294 0.227451
0.25098 0.254902 0.235294
0.341176 0.231373 0.211765
0.454902 0.227451 0.196078
0.564706 0.231373 0.184314
0.666667 0.231373 0.152941
0.768627 0.239216 0.117647
0.866667 0.247059 0.054902
0.164706 0.360784 0.247059
0.207843 0.372549 0.25098
0.294118 0.376471 0.254902
0.388235 0.368627 0.25098
0.513725 0.372549 0.231373
0.623529 0.368627 0.215686
0.713725 0.360784 0.188235
0.807843 0.364706 0.156863
0.898039 0.360784 0.109804
0.243137 0.494118 0.266667
0.266667 0.494118 0.262745
0.356863 0.505882 0.278431
0.423529 0.482353 0.258824
0.521569 0.498039 0.27451
0.643137 0.509804 0.262745
0.760784 0.505882 0.243137
0.847059 0.494118 0.215686
0.929412 0.490196 0.184314
0.333333 0.615686 0.298039
0.372549 0.623529 0.309804
0.411765 0.611765 0.298039
0.486275 0.607843 0.294118
0.564706 0.607843 0.298039
0.658824 0.623529 0.313725
0.760784 0.631373 0.313725
0.862745 0.627451 0.294118
0.956863 0.627451 0.282353
0.443137 0.733333 0.352941
0.458824 0.733333 0.352941
0.490196 0.729412 0.34902
0.541176 0.721569 0.337255
0.619608 0.721569 0.337255
0.690196 0.717647 0.341176
0.768627 0.72549 0.360784
0.858824 0.737255 0.380392
0.960784 0.752941 0.388235
0.537255 0.839216 0.415686
0.556863 0.843137 0.419608
0.580392 0.843137 0.419608
0.619608 0.839216 0.407843
0.67451 0.831373 0.392157
0.737255 0.831373 0.4
0.815686 0.843137 0.427451
0.890196 0.843137 0.45098
0.956863 0.854902 0.486275
0.67451 0.956863 0.537255
0.682353 0.956863 0.533333
0.698039 0.956863 0.529412
0.733333 0.960784 0.533333
0.780392 0.960784 0.529412
0.831373 0.960784 0.521569
0.898039 0.960784 0.552941
0.952941 0.968627 0.592157
0.988235 0.968627 0.619608
0.0392157 0.054902 0.270588
0.113725 0.0627451 0.278431
0.207843 0.0470588 0.282353
0.309804 0.0392157 0.282353
0.423529 0.0705882 0.278431
0.529412 0.027451 0.25098
0.607843 0.00392157 0.203922
0.698039 0.0470588 0.2
0.815686 0.0588235 0.172549
0.0431373 0.129412 0.282353
0.12549 0.137255 0.286275
0.215686 0.129412 0.286275
0.321569 0.129412 0.290196
0.45098 0.160784 0.298039
0.541176 0.0784314 0.258824
0.631373 0.0313725 0.219608
0.72549 0.0980392 0.215686
0.843137 0.117647 0.184314
0.105882 0.227451 0.298039
0.152941 0.235294 0.305882
0.243137 0.239216 0.309804
0.34902 0.243137 0.309804
0.458824 0.25098 0.305882
0.54902 0.203922 0.266667
0.635294 0.215686 0.247059
0.741176 0.215686 0.223529
0.858824 0.227451 0.2
0.164706 0.352941 0.329412
0.211765 0.372549 0.341176
0.282353 0.372549 0.341176
0.396078 0.384314 0.34902
0.498039 0.376471 0.333333
0.596078 0.364706 0.313725
0.690196 0.352941 0.286275
0.784314 0.352941 0.258824
0.890196 0.356863 0.235294
0.25098 0.505882 0.364706
0.282353 0.513725 0.364706
0.345098 0.517647 0.364706
0.439216 0.509804 0.360784
0.529412 0.505882 0.364706
0.654902 0.521569 0.360784
0.752941 0.513725 0.341176
0.831373 0.498039 0.313725
0.917647 0.494118 0.282353
0.337255 0.623529 0.380392
0.360784 0.631373 0.384314
0.407843 0.631373 0.380392
0.486275 0.619608 0.380392
0.572549 0.619608 0.376471
0.662745 0.627451 0.392157
0.760784 0.635294 0.392157
0.866667 0.635294 0.380392
0.952941 0.635294 0.364706
0.415686 0.737255 0.407843
0.439216 0.741176 0.411765
0.486275 0.737255 0.419608
0.54902 0.733333 0.415686
0.603922 0.717647 0.396078
0.694118 0.729412 0.411765
0.764706 0.729412 0.423529
0.862745 0.745098 0.443137
0.960784 0.756863 0.447059
0.517647 0.847059 0.454902
0.54902 0.85098 0.470588
0.580392 0.847059 0.47451
0.627451 0.85098 0.478431
0.67451 0.835294 0.454902
0.741176 0.835294 0.45098
0.819608 0.847059 0.47451
0.886275 0.847059 0.494118
0.956863 0.858824 0.529412
0.67451 0.960784 0.576471
0.690196 0.964706 0.588235
0.698039 0.964706 0.576471
0.729412 0.960784 0.572549
0.776471 0.964706 0.568627
0.823529 0.956863 0.552941
0.905882 0.968627 0.592157
0.952941 0.972549 0.611765
0.988235 0.972549 0.65098
0.0470588 0.0823529 0.368627
0.12549 0.0823529 0.372549
0.215686 0.0705882 0.372549
0.321569 0.0313725 0.372549
0.431373 0.0352941 0.376471
0.541176 0.0941176 0.368627
0.654902 0.0823529 0.360784
0.729412 0.0156863 0.313725
0.831373 0 0.270588
0.0705882 0.145098 0.368627
0.133333 0.145098 0.376471
0.227451 0.145098 0.388235
0.333333 0.129412 0.388235
0.454902 0.12549 0.396078
0.564706 0.168627 0.388235
0.666667 0.14902 0.368627
0.752941 0.0588235 0.32549
0.843137 0.00784314 0.27451
0.105882 0.231373 0.380392
0.152941 0.235294 0.396078
0.25098 0.25098 0.403922
0.356863 0.247059 0.407843
0.47451 0.25098 0.411765
0.584314 0.286275 0.407843
0.678431 0.254902 0.376471
0.752941 0.184314 0.32549
0.843137 0.172549 0.294118
0.176471 0.345098 0.407843
0.207843 0.34902 0.411765
0.290196 0.364706 0.423529
0.392157 0.376471 0.431373
0.509804 0.392157 0.439216
0.607843 0.407843 0.431373
0.678431 0.352941 0.384314
0.745098 0.329412 0.337255
0.866667 0.329412 0.321569
0.25098 0.490196 0.443137
0.294118 0.505882 0.454902
0.352941 0.509804 0.466667
0.439216 0.513725 0.466667
0.54902 0.533333 0.47451
0.631373 0.513725 0.45098
0.717647 0.494118 0.419608
0.803922 0.482353 0.392157
0.905882 0.47451 0.364706
0.341176 0.635294 0.482353
0.368627 0.643137 0.486275
0.415686 0.643137 0.486275
0.494118 0.643137 0.482353
0.584314 0.643137 0.486275
0.67451 0.643137 0.490196
0.780392 0.654902 0.494118
0.866667 0.643137 0.470588
0.937255 0.623529 0.435294
0.415686 0.745098 0.490196
0.435294 0.752941 0.494118
0.47451 0.752941 0.498039
0.537255 0.752941 0.498039
0.627451 0.74902 0.509804
0.694118 0.733333 0.494118
0.776471 0.741176 0.509804
0.866667 0.74902 0.513725
0.956863 0.764706 0.52549
0.482353 0.85098 0.505882
0.513725 0.866667 0.521569
0.541176 0.854902 0.521569
0.603922 0.858824 0.529412
0.67451 0.847059 0.537255
0.737255 0.843137 0.517647
0.823529 0.858824 0.545098
0.894118 0.858824 0.564706
0.956863 0.858824 0.580392
0.619608 0.968627 0.596078
0.639216 0.972549 0.603922
0.662745 0.964706 0.607843
0.717647 0.960784 0.627451
0.772549 0.968627 0.627451
0.819608 0.960784 0.615686
0.890196 0.968627 0.623529
0.94902 0.972549 0.654902
0.988235 0.972549 0.682353
0.0705882 0.105882 0.458824
0.141176 0.105882 0.466667
0.231373 0.0980392 0.470588
0.333333 0.0705882 0.47451
0.443137 0.0235294 0.47451
0.560784 0.0470588 0.482353
0.662745 0.152941 0.47451
0.776471 0.227451 0.478431
0.858824 0.168627 0.447059
0.0980392 0.160784 0.462745
0.14902 0.156863 0.466667
0.247059 0.160784 0.486275
0.341176 0.141176 0.482353
0.462745 0.109804 0.490196
0.576471 0.117647 0.498039
0.682353 0.211765 0.490196
0.784314 0.266667 0.486275
0.878431 0.215686 0.458824
0.0862745 0.227451 0.470588
0.168627 0.243137 0.486275
0.258824 0.25098 0.490196
0.352941 0.243137 0.490196
0.478431 0.243137 0.505882
0.592157 0.254902 0.509804
0.690196 0.317647 0.505882
0.788235 0.329412 0.494118
0.870588 0.278431 0.45098
0.168627 0.337255 0.478431
0.211765 0.34902 0.494118
0.27451 0.352941 0.498039
0.396078 0.376471 0.517647
0.501961 0.376471 0.521569
0.611765 0.392157 0.529412
0.717647 0.447059 0.541176
0.796078 0.415686 0.501961
0.882353 0.356863 0.454902
0.254902 0.47451 0.52549
0.282353 0.478431 0.52549
0.333333 0.482353 0.52549
0.419608 0.490196 0.529412
0.541176 0.521569 0.54902
0.65098 0.533333 0.564706
0.733333 0.552941 0.560784
0.792157 0.478431 0.490196
0.878431 0.443137 0.443137
0.34902 0.627451 0.572549
0.360784 0.619608 0.564706
0.411765 0.623529 0.568627
0.482353 0.631373 0.572549
0.572549 0.639216 0.576471
0.686275 0.662745 0.6
0.74902 0.635294 0.564706
0.831373 0.615686 0.533333
0.921569 0.603922 0.501961
0.423529 0.760784 0.603922
0.439216 0.756863 0.6
0.478431 0.760784 0.603922
0.541176 0.764706 0.603922
0.623529 0.768627 0.607843
0.698039 0.756863 0.596078
0.780392 0.760784 0.611765
0.882353 0.772549 0.615686
0.960784 0.772549 0.603922
0.501961 0.878431 0.627451
0.513725 0.87451 0.619608
0.537255 0.870588 0.615686
0.584314 0.866667 0.615686
0.65098 0.866667 0.611765
0.737255 0.858824 0.619608
0.811765 0.85098 0.611765
0.901961 0.866667 0.643137
0.968627 0.87451 0.654902
0.584314 0.976471 0.658824
0.596078 0.980392 0.658824
0.615686 0.976471 0.65098
0.662745 0.976471 0.654902
0.745098 0.976471 0.682353
0.819608 0.972549 0.690196
0.882353 0.968627 0.678431
0.952941 0.976471 0.705882
0.988235 0.980392 0.733333
0.109804 0.129412 0.564706
0.172549 0.133333 0.576471
0.247059 0.121569 0.576471
0.345098 0.0980392 0.572549
0.447059 0.0470588 0.568627
0.576471 0.027451 0.588235
0.682353 0.0627451 0.596078
0.768627 0.227451 0.576471
0.878431 0.352941 0.596078
0.12549 0.176471 0.568627
0.180392 0.180392 0.584314
0.266667 0.180392 0.592157
0.352941 0.160784 0.588235
0.478431 0.145098 0.603922
0.588235 0.0980392 0.603922
0.709804 0.156863 0.619608
0.788235 0.278431 0.596078
0.890196 0.384314 0.607843
0.133333 0.243137 0.572549
0.2 0.262745 0.592157
0.27451 0.262745 0.592157
0.368627 0.254902 0.596078
0.478431 0.247059 0.6
0.6 0.247059 0.619608
0.709804 0.278431 0.623529
0.792157 0.360784 0.6
0.894118 0.447059 0.619608
0.152941 0.333333 0.576471
0.2 0.34902 0.596078
0.262745 0.341176 0.596078
0.396078 0.372549 0.607843
0.505882 0.384314 0.623529
0.615686 0.380392 0.627451
0.721569 0.403922 0.635294
0.807843 0.47451 0.627451
0.898039 0.505882 0.627451
0.239216 0.462745 0.603922
0.262745 0.466667 0.611765
0.321569 0.470588 0.611765
0.4 0.47451 0.615686
0.52549 0.501961 0.635294
0.635294 0.513725 0.643137
0.741176 0.537255 0.654902
0.827451 0.588235 0.65098
0.905882 0.568627 0.631373
0.317647 0.592157 0.631373
0.345098 0.603922 0.647059
0.380392 0.6 0.643137
0.45098 0.6 0.643137
0.545098 0.611765 0.65098
0.662745 0.643137 0.666667
0.760784 0.654902 0.67451
0.847059 0.686275 0.678431
0.913725 0.615686 0.615686
0.392157 0.717647 0.658824
0.427451 0.741176 0.682353
0.462745 0.737255 0.686275
0.52549 0.741176 0.682353
0.607843 0.74902 0.694118
0.694118 0.760784 0.698039
0.796078 0.784314 0.717647
0.866667 0.760784 0.686275
0.941176 0.733333 0.647059
0.494118 0.87451 0.721569
0.505882 0.87451 0.729412
0.537255 0.87451 0.721569
0.580392 0.870588 0.717647
0.658824 0.878431 0.72549
0.72549 0.87451 0.713725
0.807843 0.866667 0.713725
0.890196 0.870588 0.721569
0.976471 0.886275 0.741176
0.580392 0.980392 0.760784
0.584314 0.976471 0.752941
0.607843 0.976471 0.752941
0.647059 0.976471 0.74902
0.701961 0.980392 0.745098
0.768627 0.980392 0.737255
0.866667 0.980392 0.756863
0.937255 0.976471 0.752941
0.988235 0.980392 0.772549
0.180392 0.172549 0.682353
0.211765 0.168627 0.686275
0.290196 0.168627 0.694118
0.372549 0.14902 0.690196
0.47451 0.12549 0.694118
0.588235 0.0941176 0.709804
0.709804 0.0705882 0.717647
0.807843 0.152941 0.721569
0.878431 0.317647 0.694118
0.196078 0.215686 0.698039
0.223529 0.211765 0.709804
0.298039 0.211765 0.713725
0.384314 0.196078 0.713725
0.486275 0.176471 0.713725
0.603922 0.168627 0.72549
0.72549 0.14902 0.737255
0.831373 0.227451 0.741176
0.882353 0.345098 0.698039
0.2 0.278431 0.694118
0.243137 0.286275 0.709804
0.305882 0.286275 0.713725
0.4 0.286275 0.721569
0.501961 0.278431 0.721569
0.607843 0.270588 0.729412
0.72549 0.270588 0.737255
0.835294 0.32549 0.74902
0.894118 0.423529 0.709804
0.12549 0.333333 0.690196
0.188235 0.34902 0.713725
0.321569 0.384314 0.72549
0.407843 0.384314 0.721569
0.513725 0.384314 0.729412
0.619608 0.392157 0.733333
0.733333 0.396078 0.745098
0.839216 0.435294 0.752941
0.901961 0.513725 0.72549
0.207843 0.458824 0.709804
0.239216 0.466667 0.721569
0.298039 0.466667 0.729412
0.380392 0.462745 0.72549
0.521569 0.498039 0.733333
0.635294 0.513725 0.74902
0.745098 0.521569 0.752941
0.839216 0.545098 0.756863
0.913725 0.611765 0.745098
0.290196 0.588235 0.737255
0.309804 0.592157 0.745098
0.356863 0.592157 0.745098
0.419608 0.588235 0.741176
0.509804 0.584314 0.741176
0.643137 0.619608 0.752941
0.752941 0.639216 0.760784
0.862745 0.670588 0.784314
0.929412 0.717647 0.772549
0.372549 0.717647 0.764706
0.396078 0.72549 0.768627
0.427451 0.721569 0.772549
0.486275 0.721569 0.764706
0.564706 0.72549 0.772549
0.658824 0.729412 0.776471
0.764706 0.752941 0.780392
0.87451 0.776471 0.792157
0.952941 0.807843 0.803922
0.466667 0.843137 0.796078
0.490196 0.858824 0.803922
0.513725 0.85098 0.8
0.560784 0.85098 0.8
0.631373 0.858824 0.803922
0.717647 0.866667 0.815686
0.8 0.870588 0.815686
0.909804 0.898039 0.839216
0.968627 0.870588 0.8
0.560784 0.980392 0.854902
0.568627 0.976471 0.854902
0.592157 0.984314 0.85098
0.635294 0.980392 0.85098
0.701961 0.984314 0.858824
0.760784 0.980392 0.839216
0.839216 0.984314 0.843137
0.929412 0.984314 0.843137
0.988235 0.984314 0.85098
0.282353 0.258824 0.807843
0.317647 0.270588 0.831373
0.360784 0.258824 0.823529
0.435294 0.254902 0.827451
0.517647 0.239216 0.827451
0.619608 0.231373 0.835294
0.733333 0.227451 0.847059
0.843137 0.231373 0.85098
0.929412 0.298039 0.847059
0.298039 0.298039 0.839216
0.321569 0.298039 0.847059
0.384314 0.301961 0.85098
0.458824 0.294118 0.854902
0.537255 0.282353 0.854902
0.635294 0.270588 0.854902
0.745098 0.266667 0.858824
0.85098 0.270588 0.858824
0.937255 0.333333 0.854902
0.313725 0.356863 0.835294
0.341176 0.360784 0.85098
0.388235 0.360784 0.85098
0.458824 0.360784 0.854902
0.54902 0.356863 0.858824
0.643137 0.34902 0.858824
0.745098 0.345098 0.862745
0.854902 0.352941 0.866667
0.945098 0.403922 0.862745
0.278431 0.411765 0.843137
0.329412 0.431373 0.858824
0.411765 0.454902 0.862745
0.482353 0.454902 0.862745
0.556863 0.45098 0.858824
0.65098 0.447059 0.866667
0.745098 0.439216 0.862745
0.854902 0.439216 0.866667
0.941176 0.482353 0.862745
0.203922 0.478431 0.85098
0.239216 0.482353 0.862745
0.32549 0.494118 0.862745
0.454902 0.521569 0.862745
0.560784 0.541176 0.862745
0.658824 0.545098 0.866667
0.760784 0.54902 0.878431
0.862745 0.54902 0.878431
0.94902 0.584314 0.87451
0.294118 0.603922 0.866667
0.321569 0.615686 0.878431
0.360784 0.611765 0.87451
0.419608 0.6 0.87451
0.513725 0.603922 0.870588
0.658824 0.643137 0.87451
0.768627 0.65098 0.882353
0.866667 0.65098 0.878431
0.952941 0.678431 0.878431
0.384314 0.737255 0.894118
0.396078 0.741176 0.894118
0.431373 0.737255 0.894118
0.486275 0.737255 0.894118
0.552941 0.729412 0.890196
0.635294 0.721569 0.886275
0.772549 0.756863 0.890196
0.882353 0.764706 0.898039
0.964706 0.788235 0.894118
0.466667 0.862745 0.913725
0.478431 0.858824 0.913725
0.509804 0.862745 0.913725
0.556863 0.866667 0.917647
0.615686 0.858824 0.909804
0.682353 0.858824 0.909804
0.768627 0.854902 0.909804
0.882353 0.870588 0.909804
0.976471 0.894118 0.913725
0.556863 0.972549 0.937255
0.568627 0.972549 0.941176
0.596078 0.972549 0.945098
0.631373 0.976471 0.941176
0.686275 0.976471 0.937255
0.756863 0.980392 0.941176
0.827451 0.984314 0.937255
0.901961 0.984314 0.929412
0.988235 0.988235 0.933333
