resources/LUTs/LUT Colour Grades (cube)/Old_Film_Cool.cube
#Generated by Picture Instruments - Look Creator
TITLE "Agfa RSX50 IICool"
LUT_3D_SIZE 5
0 0 0
0.152941 0.0313725 0.0156863
0.356863 0.00392157 0.00784314
0.611765 0 0
0.854902 0 0
0.0862745 0.258824 0.109804
0.211765 0.25098 0.0941176
0.427451 0.235294 0.00392157
0.658824 0.203922 0
0.878431 0.129412 0
0.235294 0.560784 0.231373
0.32549 0.541176 0.207843
0.513725 0.52549 0.188235
0.72549 0.505882 0.0901961
0.921569 0.490196 0
0.454902 0.796078 0.411765
0.494118 0.776471 0.388235
0.611765 0.756863 0.345098
0.776471 0.756863 0.34902
0.933333 0.74902 0.32549
0.741176 0.972549 0.682353
0.741176 0.964706 0.662745
0.803922 0.964706 0.65098
0.905882 0.968627 0.662745
0.980392 0.972549 0.694118
0.0117647 0.0117647 0.207843
0.152941 0.0196078 0.188235
0.364706 0 0.156863
0.615686 0 0.105882
0.854902 0 0.00392157
0.0313725 0.239216 0.262745
0.207843 0.258824 0.266667
0.423529 0.227451 0.211765
0.658824 0.184314 0.137255
0.878431 0.14902 0
0.219608 0.564706 0.356863
0.333333 0.564706 0.345098
0.52549 0.537255 0.321569
0.729412 0.505882 0.25098
0.921569 0.486275 0.0862745
0.439216 0.780392 0.470588
0.498039 0.784314 0.466667
0.623529 0.764706 0.423529
0.792157 0.768627 0.439216
0.945098 0.768627 0.423529
0.733333 0.968627 0.701961
0.745098 0.964706 0.690196
0.807843 0.968627 0.686275
0.909804 0.972549 0.694118
0.984314 0.976471 0.721569
0 0 0.462745
0.172549 0 0.45098
0.392157 0 0.427451
0.631373 0 0.392157
0.858824 0 0.298039
0 0.192157 0.482353
0.2 0.211765 0.498039
0.443137 0.203922 0.478431
0.678431 0.2 0.439216
0.890196 0 0.32549
0.180392 0.521569 0.560784
0.305882 0.537255 0.568627
0.545098 0.564706 0.576471
0.72549 0.513725 0.505882
0.917647 0.458824 0.396078
0.447059 0.8 0.639216
0.494118 0.796078 0.635294
0.627451 0.776471 0.615686
0.784314 0.772549 0.603922
0.945098 0.764706 0.560784
0.709804 0.976471 0.768627
0.741176 0.976471 0.776471
0.811765 0.980392 0.772549
0.901961 0.972549 0.74902
0.984314 0.980392 0.772549
0.00392157 0 0.701961
0.196078 0 0.698039
0.439216 0 0.670588
0.666667 0 0.666667
0.866667 0 0.639216
0.0431373 0.133333 0.705882
0.219608 0.113725 0.713725
0.470588 0.0196078 0.713725
0.709804 0 0.709804
0.898039 0.211765 0.678431
0.00784314 0.415686 0.729412
0.192157 0.427451 0.745098
0.509804 0.466667 0.745098
0.741176 0.486275 0.737255
0.905882 0.529412 0.717647
0.407843 0.74902 0.788235
0.470588 0.760784 0.796078
0.615686 0.772549 0.796078
0.803922 0.8 0.811765
0.929412 0.745098 0.737255
0.694118 0.984314 0.886275
0.717647 0.984314 0.886275
0.776471 0.984314 0.87451
0.878431 0.984314 0.854902
0.984314 0.980392 0.854902
0.156863 0 0.886275
0.298039 0 0.905882
0.498039 0 0.898039
0.729412 0 0.898039
0.909804 0 0.890196
0.235294 0 0.917647
0.341176 0 0.941176
0.537255 0 0.937255
0.764706 0 0.929412
0.945098 0 0.917647
0.172549 0.34902 0.933333
0.317647 0.356863 0.94902
0.52549 0.329412 0.941176
0.760784 0.278431 0.933333
0.94902 0.235294 0.92549
0.278431 0.698039 0.956863
0.345098 0.701961 0.968627
0.482353 0.67451 0.960784
0.764706 0.690196 0.94902
0.94902 0.705882 0.941176
0.670588 0.964706 0.984314
0.694118 0.968627 0.984314
0.752941 0.972549 0.984314
0.85098 0.976471 0.984314
0.984314 0.984314 0.980392
