resources/LUTs/LUT Colour Grades (cube)/Old_Film_Cool.cube
#Generated by Picture Instruments - Look Creator
TITLE "Agfa RSX50 IICool"
LUT_3D_SIZE 17
0 0 0
0.0470588 0 0
0.0862745 0.00784314 0.00784314
0.117647 0.0235294 0.0117647
0.152941 0.0313725 0.0156863
0.196078 0.0313725 0.0156863
0.247059 0.0235294 0.0156863
0.301961 0.0196078 0.0156863
0.356863 0.00392157 0.00784314
0.423529 0 0.00784314
0.482353 0 0.00784314
0.545098 0 0.00392157
0.611765 0 0
0.670588 0 0.00392157
0.741176 0 0
0.796078 0 0.00392157
0.854902 0 0
0.027451 0.0784314 0.0352941
0.0666667 0.0823529 0.0313725
0.0941176 0.0823529 0.0117647
0.121569 0.0823529 0
0.160784 0.0862745 0.00392157
0.2 0.0784314 0.00392157
0.254902 0.0745098 0.00784314
0.309804 0.054902 0.00392157
0.372549 0.0352941 0.00392157
0.439216 0.0235294 0.00784314
0.501961 0 0
0.568627 0.00392157 0.00392157
0.631373 0 0.00392157
0.690196 0 0
0.756863 0 0
0.811765 0 0.00392157
0.866667 0 0
0.0470588 0.137255 0.0588235
0.0823529 0.137255 0.0627451
0.105882 0.133333 0.054902
0.129412 0.129412 0.0431373
0.176471 0.133333 0.0156863
0.215686 0.129412 0
0.27451 0.137255 0
0.329412 0.12549 0
0.384314 0.109804 0
0.443137 0.0784314 0
0.509804 0.0509804 0
0.576471 0.027451 0.00392157
0.635294 0.0156863 0
0.701961 0 0
0.760784 0 0
0.811765 0 0
0.862745 0 0
0.0705882 0.2 0.0901961
0.0980392 0.2 0.0862745
0.12549 0.192157 0.0823529
0.152941 0.188235 0.0745098
0.188235 0.184314 0.0705882
0.227451 0.176471 0.0352941
0.290196 0.184314 0.0156863
0.34902 0.184314 0.00392157
0.396078 0.168627 0
0.462745 0.164706 0
0.529412 0.156863 0
0.584314 0.12549 0
0.643137 0.0980392 0
0.701961 0.0588235 0
0.764706 0.0470588 0
0.815686 0.0196078 0
0.870588 0.00784314 0
0.0862745 0.258824 0.109804
0.113725 0.262745 0.109804
0.137255 0.258824 0.0980392
0.172549 0.254902 0.0980392
0.211765 0.25098 0.0941176
0.25098 0.243137 0.0941176
0.301961 0.239216 0.0588235
0.360784 0.235294 0.0235294
0.427451 0.235294 0.00392157
0.482353 0.231373 0
0.541176 0.223529 0
0.6 0.215686 0
0.658824 0.203922 0
0.721569 0.192157 0
0.780392 0.176471 0
0.827451 0.14902 0
0.878431 0.129412 0
0.105882 0.32549 0.129412
0.129412 0.329412 0.129412
0.160784 0.329412 0.12549
0.203922 0.329412 0.12549
0.235294 0.32549 0.117647
0.282353 0.321569 0.117647
0.317647 0.305882 0.113725
0.380392 0.305882 0.0823529
0.443137 0.305882 0.0431373
0.505882 0.298039 0.00784314
0.556863 0.286275 0
0.615686 0.282353 0
0.678431 0.282353 0
0.729412 0.27451 0
0.784314 0.266667 0
0.835294 0.254902 0
0.886275 0.243137 0
0.14902 0.407843 0.164706
0.164706 0.411765 0.160784
0.192157 0.407843 0.156863
0.227451 0.403922 0.152941
0.266667 0.4 0.145098
0.313725 0.396078 0.141176
0.360784 0.396078 0.141176
0.403922 0.380392 0.141176
0.462745 0.376471 0.109804
0.521569 0.372549 0.0666667
0.580392 0.364706 0.0156863
0.643137 0.360784 0
0.698039 0.356863 0
0.745098 0.345098 0
0.796078 0.345098 0
0.843137 0.337255 0
0.894118 0.337255 0
0.184314 0.478431 0.192157
0.207843 0.490196 0.196078
0.219608 0.478431 0.188235
0.258824 0.478431 0.184314
0.301961 0.47451 0.176471
0.34902 0.47451 0.176471
0.384314 0.466667 0.164706
0.439216 0.462745 0.160784
0.482353 0.45098 0.164706
0.537255 0.443137 0.137255
0.6 0.443137 0.0980392
0.654902 0.435294 0.0352941
0.705882 0.427451 0.00392157
0.760784 0.423529 0
0.815686 0.423529 0
0.858824 0.415686 0
0.909804 0.415686 0
0.235294 0.560784 0.231373
0.247059 0.556863 0.227451
0.266667 0.556863 0.223529
0.286275 0.541176 0.211765
0.32549 0.541176 0.207843
0.368627 0.533333 0.2
0.427451 0.541176 0.203922
0.47451 0.533333 0.2
0.513725 0.52549 0.188235
0.552941 0.513725 0.188235
0.611765 0.509804 0.172549
0.662745 0.505882 0.133333
0.72549 0.505882 0.0901961
0.772549 0.498039 0.0196078
0.819608 0.486275 0
0.870588 0.486275 0
0.921569 0.490196 0
0.286275 0.627451 0.27451
0.290196 0.623529 0.266667
0.317647 0.627451 0.270588
0.337255 0.619608 0.262745
0.364706 0.611765 0.25098
0.403922 0.6 0.235294
0.454902 0.607843 0.239216
0.494118 0.6 0.235294
0.545098 0.6 0.231373
0.592157 0.596078 0.227451
0.627451 0.580392 0.227451
0.678431 0.572549 0.211765
0.733333 0.572549 0.180392
0.776471 0.564706 0.133333
0.831373 0.560784 0.0627451
0.878431 0.560784 0.00784314
0.92549 0.560784 0
0.337255 0.686275 0.309804
0.345098 0.682353 0.309804
0.360784 0.682353 0.309804
0.376471 0.67451 0.301961
0.403922 0.670588 0.290196
0.443137 0.666667 0.286275
0.482353 0.662745 0.27451
0.517647 0.654902 0.262745
0.568627 0.654902 0.262745
0.615686 0.654902 0.266667
0.662745 0.654902 0.266667
0.694118 0.635294 0.258824
0.733333 0.631373 0.254902
0.788235 0.631373 0.227451
0.835294 0.627451 0.192157
0.886275 0.627451 0.145098
0.933333 0.627451 0.0666667
0.396078 0.741176 0.360784
0.4 0.737255 0.356863
0.403922 0.733333 0.34902
0.423529 0.729412 0.341176
0.45098 0.729412 0.341176
0.47451 0.721569 0.329412
0.513725 0.717647 0.321569
0.54902 0.709804 0.305882
0.588235 0.709804 0.301961
0.635294 0.705882 0.305882
0.682353 0.709804 0.305882
0.721569 0.705882 0.301961
0.760784 0.698039 0.305882
0.788235 0.682353 0.301961
0.839216 0.686275 0.278431
0.890196 0.690196 0.254902
0.929412 0.690196 0.219608
0.454902 0.796078 0.411765
0.45098 0.788235 0.403922
0.462745 0.788235 0.403922
0.482353 0.792157 0.4
0.494118 0.776471 0.388235
0.513725 0.772549 0.376471
0.552941 0.772549 0.372549
0.576471 0.760784 0.352941
0.611765 0.756863 0.345098
0.654902 0.760784 0.352941
0.698039 0.756863 0.34902
0.733333 0.752941 0.34902
0.776471 0.756863 0.34902
0.811765 0.74902 0.34902
0.839216 0.737255 0.356863
0.894118 0.745098 0.345098
0.933333 0.74902 0.32549
0.517647 0.843137 0.466667
0.509804 0.831373 0.458824
0.517647 0.831373 0.45098
0.529412 0.827451 0.447059
0.54902 0.831373 0.443137
0.560784 0.819608 0.431373
0.588235 0.815686 0.423529
0.611765 0.811765 0.411765
0.643137 0.803922 0.392157
0.678431 0.8 0.392157
0.72549 0.807843 0.403922
0.760784 0.807843 0.403922
0.796078 0.807843 0.403922
0.839216 0.807843 0.407843
0.870588 0.8 0.407843
0.898039 0.8 0.427451
0.937255 0.803922 0.427451
0.584314 0.886275 0.529412
0.580392 0.878431 0.521569
0.580392 0.878431 0.517647
0.588235 0.878431 0.513725
0.6 0.870588 0.501961
0.615686 0.87451 0.494118
0.643137 0.866667 0.490196
0.658824 0.862745 0.478431
0.686275 0.858824 0.466667
0.72549 0.862745 0.462745
0.756863 0.858824 0.462745
0.792157 0.862745 0.470588
0.823529 0.854902 0.470588
0.858824 0.858824 0.47451
0.886275 0.854902 0.470588
0.921569 0.858824 0.482353
0.945098 0.858824 0.505882
0.662745 0.933333 0.603922
0.647059 0.921569 0.584314
0.647059 0.917647 0.580392
0.65098 0.913725 0.572549
0.658824 0.909804 0.572549
0.682353 0.917647 0.572549
0.698039 0.913725 0.564706
0.713725 0.909804 0.552941
0.741176 0.909804 0.54902
0.764706 0.901961 0.533333
0.796078 0.909804 0.545098
0.827451 0.909804 0.54902
0.862745 0.913725 0.560784
0.886275 0.909804 0.564706
0.913725 0.913725 0.568627
0.945098 0.913725 0.580392
0.968627 0.917647 0.584314
0.741176 0.972549 0.682353
0.733333 0.968627 0.67451
0.729412 0.968627 0.666667
0.733333 0.968627 0.662745
0.741176 0.964706 0.662745
0.760784 0.968627 0.662745
0.772549 0.968627 0.658824
0.784314 0.964706 0.654902
0.803922 0.964706 0.65098
0.831373 0.964706 0.65098
0.854902 0.968627 0.65098
0.882353 0.968627 0.654902
0.905882 0.968627 0.662745
0.921569 0.968627 0.666667
0.94902 0.972549 0.678431
0.968627 0.972549 0.690196
0.980392 0.972549 0.694118
0 0.00392157 0.0784314
0.0431373 0 0.0588235
0.0784314 0.00784314 0.054902
0.121569 0.0156863 0.0470588
0.156863 0.0509804 0.0470588
0.2 0.0588235 0.0352941
0.25098 0.0588235 0.0156863
0.305882 0.0509804 0.00784314
0.364706 0.0352941 0.00392157
0.423529 0.00784314 0.00392157
0.482353 0.00392157 0.00392157
0.552941 0 0.00392157
0.611765 0 0
0.678431 0 0
0.737255 0 0
0.796078 0 0
0.858824 0 0
0.0117647 0.0823529 0.0862745
0.054902 0.0823529 0.0823529
0.0862745 0.0823529 0.0705882
0.12549 0.0862745 0.0705882
0.160784 0.0862745 0.0588235
0.207843 0.0941176 0.0470588
0.266667 0.101961 0.0352941
0.313725 0.0862745 0.00784314
0.376471 0.0705882 0
0.439216 0.0470588 0.00392157
0.505882 0.0156863 0.00392157
0.568627 0.00392157 0.00392157
0.627451 0 0
0.690196 0 0
0.756863 0 0
0.807843 0 0
0.866667 0 0
0.0392157 0.137255 0.101961
0.0745098 0.137255 0.0980392
0.101961 0.133333 0.0901961
0.129412 0.129412 0.0823529
0.176471 0.129412 0.0745098
0.219608 0.129412 0.0627451
0.27451 0.137255 0.0509804
0.32549 0.129412 0.027451
0.388235 0.121569 0.00392157
0.447059 0.105882 0
0.509804 0.0705882 0
0.572549 0.0431373 0.00392157
0.635294 0.0235294 0
0.698039 0.00392157 0
0.74902 0 0
0.815686 0 0
0.862745 0 0
0.0588235 0.2 0.121569
0.0862745 0.2 0.113725
0.121569 0.192157 0.113725
0.152941 0.188235 0.105882
0.188235 0.184314 0.101961
0.235294 0.184314 0.0823529
0.290196 0.184314 0.0705882
0.345098 0.176471 0.0431373
0.407843 0.176471 0.0196078
0.458824 0.160784 0.00392157
0.517647 0.14902 0
0.588235 0.14902 0
0.643137 0.113725 0
0.701961 0.0745098 0
0.764706 0.0509804 0
0.815686 0.0196078 0
0.87451 0.0117647 0
0.0784314 0.258824 0.137255
0.105882 0.262745 0.133333
0.137255 0.258824 0.129412
0.172549 0.254902 0.12549
0.215686 0.25098 0.12549
0.25098 0.243137 0.117647
0.309804 0.247059 0.0980392
0.368627 0.239216 0.0666667
0.427451 0.235294 0.0392157
0.486275 0.227451 0.0156863
0.541176 0.219608 0
0.6 0.211765 0
0.658824 0.211765 0
0.717647 0.192157 0
0.772549 0.176471 0
0.823529 0.152941 0
0.882353 0.141176 0
0.109804 0.329412 0.156863
0.129412 0.333333 0.156863
0.160784 0.333333 0.152941
0.2 0.329412 0.14902
0.243137 0.329412 0.145098
0.282353 0.317647 0.137255
0.32549 0.309804 0.137255
0.384314 0.309804 0.109804
0.447059 0.305882 0.0784314
0.509804 0.301961 0.0352941
0.568627 0.294118 0.0156863
0.619608 0.282353 0
0.67451 0.278431 0
0.72549 0.270588 0
0.784314 0.266667 0
0.835294 0.254902 0
0.890196 0.247059 0
0.141176 0.403922 0.176471
0.156863 0.407843 0.172549
0.192157 0.411765 0.184314
0.231373 0.407843 0.176471
0.266667 0.4 0.164706
0.313725 0.396078 0.164706
0.360784 0.392157 0.160784
0.396078 0.376471 0.156863
0.462745 0.380392 0.133333
0.521569 0.368627 0.0901961
0.588235 0.368627 0.0509804
0.635294 0.352941 0.00784314
0.694118 0.34902 0
0.752941 0.352941 0
0.8 0.345098 0
0.843137 0.337255 0
0.901961 0.337255 0
0.188235 0.486275 0.215686
0.2 0.486275 0.211765
0.227451 0.486275 0.211765
0.254902 0.478431 0.2
0.298039 0.47451 0.192157
0.345098 0.470588 0.188235
0.388235 0.470588 0.188235
0.447059 0.470588 0.188235
0.478431 0.443137 0.172549
0.545098 0.45098 0.160784
0.6 0.443137 0.12549
0.654902 0.435294 0.0705882
0.713725 0.431373 0.027451
0.768627 0.427451 0
0.807843 0.415686 0
0.858824 0.411765 0
0.909804 0.415686 0
0.231373 0.556863 0.247059
0.243137 0.560784 0.247059
0.266667 0.560784 0.243137
0.298039 0.556863 0.239216
0.337255 0.552941 0.231373
0.372549 0.537255 0.215686
0.423529 0.537255 0.215686
0.470588 0.541176 0.215686
0.521569 0.537255 0.211765
0.552941 0.513725 0.203922
0.615686 0.517647 0.192157
0.662745 0.501961 0.14902
0.72549 0.505882 0.113725
0.776471 0.498039 0.0431373
0.823529 0.494118 0.00392157
0.870588 0.486275 0
0.913725 0.486275 0
0.278431 0.615686 0.27451
0.298039 0.627451 0.286275
0.309804 0.623529 0.278431
0.341176 0.627451 0.278431
0.376471 0.623529 0.27451
0.415686 0.611765 0.262745
0.447059 0.6 0.247059
0.494118 0.596078 0.243137
0.545098 0.596078 0.243137
0.596078 0.596078 0.239216
0.619608 0.572549 0.235294
0.682353 0.576471 0.231373
0.733333 0.572549 0.2
0.780392 0.568627 0.156863
0.831373 0.560784 0.0980392
0.878431 0.556863 0.0117647
0.929412 0.560784 0
0.333333 0.678431 0.317647
0.345098 0.686275 0.321569
0.356863 0.682353 0.317647
0.380392 0.678431 0.309804
0.407843 0.678431 0.305882
0.447059 0.670588 0.298039
0.482353 0.658824 0.286275
0.517647 0.65098 0.278431
0.560784 0.654902 0.278431
0.615686 0.654902 0.27451
0.658824 0.647059 0.270588
0.694118 0.639216 0.270588
0.737255 0.635294 0.270588
0.788235 0.631373 0.243137
0.835294 0.627451 0.203922
0.882353 0.623529 0.156863
0.929412 0.627451 0.0980392
0.384314 0.733333 0.360784
0.396078 0.737255 0.364706
0.4 0.729412 0.356863
0.427451 0.733333 0.356863
0.45098 0.729412 0.34902
0.478431 0.72549 0.341176
0.513725 0.717647 0.329412
0.552941 0.709804 0.317647
0.592157 0.709804 0.317647
0.639216 0.709804 0.317647
0.678431 0.709804 0.317647
0.721569 0.705882 0.317647
0.752941 0.690196 0.309804
0.792157 0.690196 0.317647
0.847059 0.694118 0.294118
0.890196 0.690196 0.262745
0.929412 0.690196 0.231373
0.439216 0.776471 0.403922
0.447059 0.784314 0.407843
0.462745 0.788235 0.411765
0.470588 0.776471 0.4
0.490196 0.776471 0.392157
0.517647 0.776471 0.392157
0.552941 0.772549 0.380392
0.584314 0.768627 0.368627
0.619608 0.764706 0.360784
0.65098 0.752941 0.352941
0.698039 0.756863 0.360784
0.737255 0.756863 0.360784
0.776471 0.756863 0.360784
0.807843 0.74902 0.356863
0.843137 0.741176 0.368627
0.898039 0.752941 0.360784
0.933333 0.752941 0.337255
0.494118 0.823529 0.454902
0.505882 0.831373 0.458824
0.521569 0.835294 0.462745
0.52549 0.827451 0.454902
0.541176 0.823529 0.447059
0.564706 0.823529 0.439216
0.584314 0.811765 0.427451
0.623529 0.819608 0.427451
0.647059 0.807843 0.403922
0.686275 0.807843 0.403922
0.713725 0.8 0.403922
0.760784 0.807843 0.411765
0.8 0.807843 0.411765
0.835294 0.803922 0.415686
0.866667 0.803922 0.419608
0.898039 0.8 0.435294
0.937255 0.803922 0.435294
0.560784 0.870588 0.509804
0.576471 0.878431 0.521569
0.576471 0.87451 0.517647
0.584314 0.870588 0.513725
0.6 0.870588 0.509804
0.611765 0.862745 0.494118
0.631373 0.866667 0.494118
0.666667 0.866667 0.486275
0.686275 0.858824 0.47451
0.721569 0.858824 0.466667
0.756863 0.858824 0.470588
0.788235 0.858824 0.470588
0.823529 0.858824 0.478431
0.854902 0.858824 0.478431
0.890196 0.854902 0.482353
0.92549 0.858824 0.490196
0.941176 0.854902 0.513725
0.635294 0.913725 0.580392
0.647059 0.921569 0.592157
0.643137 0.917647 0.580392
0.654902 0.921569 0.584314
0.662745 0.913725 0.576471
0.686275 0.921569 0.580392
0.694118 0.913725 0.568627
0.717647 0.913725 0.564706
0.737255 0.905882 0.552941
0.768627 0.905882 0.545098
0.796078 0.909804 0.545098
0.831373 0.913725 0.556863
0.858824 0.913725 0.568627
0.886275 0.909804 0.564706
0.917647 0.917647 0.580392
0.945098 0.913725 0.584314
0.968627 0.917647 0.588235
0.729412 0.968627 0.678431
0.72549 0.964706 0.670588
0.737255 0.968627 0.67451
0.737255 0.968627 0.670588
0.74902 0.968627 0.67451
0.760784 0.968627 0.670588
0.772549 0.964706 0.662745
0.792157 0.972549 0.666667
0.811765 0.964706 0.662745
0.835294 0.968627 0.662745
0.858824 0.968627 0.654902
0.886275 0.972549 0.662745
0.905882 0.972549 0.666667
0.929412 0.968627 0.67451
0.94902 0.972549 0.678431
0.972549 0.972549 0.694118
0.984314 0.972549 0.701961
0 0.00784314 0.113725
0.0509804 0 0.113725
0.0745098 0 0.0980392
0.105882 0.0313725 0.0980392
0.152941 0.0352941 0.0980392
0.203922 0.027451 0.0862745
0.25098 0.0509804 0.0823529
0.305882 0.0431373 0.0745098
0.364706 0.0313725 0.054902
0.423529 0.0156863 0.027451
0.486275 0.0117647 0.0117647
0.54902 0 0
0.615686 0 0
0.678431 0 0.00392157
0.745098 0 0
0.796078 0 0
0.854902 0 0
0.00392157 0.0705882 0.12549
0.054902 0.0745098 0.121569
0.0862745 0.0823529 0.117647
0.117647 0.0823529 0.113725
0.164706 0.0862745 0.109804
0.203922 0.0823529 0.101961
0.254902 0.0823529 0.0901961
0.313725 0.0745098 0.0784314
0.372549 0.0509804 0.054902
0.439216 0.0392157 0.0313725
0.505882 0.027451 0.0117647
0.564706 0.00784314 0
0.627451 0 0
0.694118 0 0.00392157
0.752941 0 0
0.803922 0 0.00392157
0.862745 0 0.00392157
0.027451 0.129412 0.137255
0.054902 0.129412 0.137255
0.0941176 0.133333 0.137255
0.137255 0.137255 0.129412
0.172549 0.129412 0.121569
0.219608 0.129412 0.109804
0.266667 0.12549 0.0980392
0.329412 0.12549 0.0862745
0.388235 0.109804 0.0666667
0.447059 0.0941176 0.0392157
0.513725 0.0745098 0.0117647
0.576471 0.0588235 0.00392157
0.635294 0.0392157 0
0.698039 0.0117647 0
0.752941 0 0
0.811765 0 0
0.866667 0 0
0.0470588 0.196078 0.160784
0.0745098 0.196078 0.156863
0.113725 0.196078 0.14902
0.145098 0.184314 0.141176
0.188235 0.184314 0.137255
0.243137 0.192157 0.129412
0.286275 0.176471 0.113725
0.341176 0.172549 0.0941176
0.407843 0.172549 0.0862745
0.462745 0.156863 0.0470588
0.52549 0.145098 0.0196078
0.592157 0.145098 0.00784314
0.647059 0.121569 0
0.709804 0.101961 0
0.760784 0.0588235 0
0.815686 0.027451 0
0.870588 0.0156863 0
0.0666667 0.254902 0.168627
0.0941176 0.262745 0.168627
0.129412 0.258824 0.164706
0.168627 0.254902 0.156863
0.215686 0.254902 0.160784
0.25098 0.243137 0.14902
0.309804 0.243137 0.133333
0.364706 0.235294 0.109804
0.431373 0.235294 0.0980392
0.486275 0.223529 0.0666667
0.541176 0.215686 0.0352941
0.603922 0.211765 0.0117647
0.654902 0.196078 0.00392157
0.713725 0.192157 0
0.768627 0.180392 0
0.827451 0.164706 0
0.882353 0.137255 0
0.0941176 0.329412 0.188235
0.12549 0.341176 0.192157
0.156863 0.337255 0.188235
0.196078 0.333333 0.184314
0.243137 0.329412 0.176471
0.286275 0.32549 0.176471
0.329412 0.313725 0.168627
0.384314 0.309804 0.145098
0.454902 0.309804 0.129412
0.509804 0.298039 0.0901961
0.564706 0.286275 0.0588235
0.615686 0.278431 0.0196078
0.67451 0.27451 0.00392157
0.729412 0.266667 0
0.788235 0.266667 0
0.835294 0.254902 0
0.890196 0.25098 0
0.137255 0.407843 0.211765
0.160784 0.419608 0.215686
0.188235 0.411765 0.211765
0.223529 0.407843 0.203922
0.270588 0.407843 0.2
0.317647 0.403922 0.196078
0.360784 0.396078 0.188235
0.407843 0.384314 0.188235
0.466667 0.380392 0.164706
0.52549 0.372549 0.137255
0.584314 0.364706 0.0941176
0.643137 0.356863 0.0509804
0.690196 0.345098 0.0117647
0.745098 0.341176 0.00392157
0.8 0.341176 0
0.847059 0.337255 0
0.898039 0.337255 0
0.176471 0.486275 0.239216
0.203922 0.498039 0.247059
0.219608 0.490196 0.239216
0.254902 0.486275 0.231373
0.298039 0.478431 0.223529
0.352941 0.478431 0.219608
0.396078 0.470588 0.215686
0.439216 0.466667 0.207843
0.486275 0.454902 0.207843
0.541176 0.447059 0.184314
0.596078 0.439216 0.156863
0.654902 0.435294 0.117647
0.717647 0.435294 0.0666667
0.760784 0.415686 0.00784314
0.811765 0.415686 0
0.862745 0.415686 0
0.909804 0.415686 0
0.223529 0.54902 0.262745
0.247059 0.568627 0.27451
0.266667 0.560784 0.270588
0.298039 0.560784 0.266667
0.333333 0.552941 0.254902
0.376471 0.545098 0.247059
0.419608 0.541176 0.243137
0.470588 0.537255 0.239216
0.521569 0.533333 0.235294
0.556863 0.517647 0.235294
0.615686 0.513725 0.219608
0.662745 0.501961 0.180392
0.72549 0.505882 0.152941
0.780392 0.501961 0.0980392
0.827451 0.494118 0.0196078
0.87451 0.490196 0
0.917647 0.490196 0
0.282353 0.623529 0.305882
0.294118 0.627451 0.301961
0.309804 0.623529 0.301961
0.329412 0.615686 0.294118
0.364706 0.615686 0.286275
0.407843 0.611765 0.282353
0.454902 0.607843 0.27451
0.501961 0.6 0.270588
0.54902 0.603922 0.270588
0.603922 0.6 0.270588
0.631373 0.580392 0.266667
0.682353 0.576471 0.25098
0.729412 0.572549 0.223529
0.780392 0.568627 0.184314
0.831373 0.560784 0.137255
0.882353 0.560784 0.054902
0.933333 0.560784 0.00392157
0.32549 0.67451 0.333333
0.345098 0.682353 0.341176
0.352941 0.678431 0.333333
0.380392 0.678431 0.333333
0.407843 0.678431 0.329412
0.435294 0.666667 0.313725
0.478431 0.662745 0.305882
0.52549 0.662745 0.301961
0.564706 0.654902 0.298039
0.611765 0.654902 0.294118
0.654902 0.65098 0.290196
0.698039 0.643137 0.298039
0.741176 0.635294 0.290196
0.788235 0.635294 0.262745
0.839216 0.631373 0.231373
0.886275 0.627451 0.188235
0.929412 0.627451 0.129412
0.376471 0.72549 0.372549
0.396078 0.733333 0.376471
0.403922 0.733333 0.372549
0.423529 0.733333 0.372549
0.454902 0.733333 0.372549
0.478431 0.72549 0.356863
0.517647 0.72549 0.352941
0.54902 0.709804 0.333333
0.592157 0.709804 0.333333
0.635294 0.713725 0.337255
0.678431 0.705882 0.329412
0.721569 0.701961 0.329412
0.752941 0.694118 0.329412
0.788235 0.686275 0.329412
0.839216 0.686275 0.305882
0.890196 0.690196 0.282353
0.933333 0.694118 0.254902
0.439216 0.776471 0.415686
0.447059 0.784314 0.419608
0.454902 0.780392 0.415686
0.478431 0.788235 0.423529
0.490196 0.780392 0.411765
0.517647 0.772549 0.4
0.54902 0.768627 0.392157
0.580392 0.764706 0.380392
0.623529 0.764706 0.376471
0.654902 0.756863 0.372549
0.698039 0.760784 0.372549
0.737255 0.756863 0.376471
0.780392 0.756863 0.376471
0.815686 0.752941 0.376471
0.847059 0.745098 0.388235
0.890196 0.74902 0.372549
0.929412 0.74902 0.34902
0.494118 0.819608 0.462745
0.505882 0.831373 0.470588
0.509804 0.823529 0.462745
0.529412 0.827451 0.466667
0.54902 0.827451 0.462745
0.564706 0.823529 0.454902
0.588235 0.819608 0.447059
0.615686 0.815686 0.431373
0.65098 0.807843 0.423529
0.682353 0.807843 0.415686
0.72549 0.811765 0.419608
0.760784 0.807843 0.423529
0.8 0.807843 0.423529
0.835294 0.803922 0.423529
0.866667 0.803922 0.431373
0.898039 0.8 0.443137
0.937255 0.807843 0.447059
0.564706 0.87451 0.52549
0.568627 0.878431 0.529412
0.576471 0.87451 0.52549
0.588235 0.87451 0.521569
0.603922 0.878431 0.521569
0.615686 0.870588 0.513725
0.635294 0.866667 0.505882
0.670588 0.870588 0.505882
0.690196 0.862745 0.486275
0.72549 0.858824 0.478431
0.760784 0.862745 0.482353
0.788235 0.854902 0.478431
0.831373 0.858824 0.486275
0.858824 0.862745 0.498039
0.886275 0.862745 0.498039
0.921569 0.862745 0.501961
0.941176 0.858824 0.517647
0.635294 0.917647 0.596078
0.643137 0.917647 0.6
0.65098 0.921569 0.596078
0.654902 0.921569 0.592157
0.666667 0.917647 0.588235
0.682353 0.913725 0.584314
0.701961 0.917647 0.584314
0.721569 0.917647 0.576471
0.741176 0.909804 0.560784
0.764706 0.905882 0.552941
0.796078 0.909804 0.552941
0.831373 0.909804 0.560784
0.862745 0.917647 0.572549
0.894118 0.917647 0.584314
0.917647 0.913725 0.588235
0.94902 0.921569 0.592157
0.968627 0.921569 0.596078
0.729412 0.968627 0.682353
0.733333 0.968627 0.682353
0.741176 0.972549 0.686275
0.737255 0.968627 0.678431
0.74902 0.964706 0.67451
0.764706 0.972549 0.678431
0.772549 0.968627 0.670588
0.792157 0.968627 0.666667
0.811765 0.968627 0.666667
0.831373 0.964706 0.662745
0.858824 0.968627 0.662745
0.886275 0.968627 0.670588
0.898039 0.968627 0.666667
0.929412 0.972549 0.682353
0.94902 0.972549 0.686275
0.972549 0.976471 0.701961
0.984314 0.976471 0.701961
0.00392157 0.00784314 0.152941
0.0431373 0.00392157 0.152941
0.0823529 0 0.14902
0.113725 0.0117647 0.145098
0.14902 0.0470588 0.141176
0.192157 0.0352941 0.137255
0.25098 0.0196078 0.129412
0.301961 0 0.105882
0.364706 0.0117647 0.109804
0.431373 0.00392157 0.101961
0.490196 0 0.0784314
0.54902 0 0.0392157
0.611765 0 0.0117647
0.690196 0 0.00392157
0.745098 0 0
0.803922 0 0
0.866667 0 0
0.0196078 0.0705882 0.172549
0.0509804 0.0745098 0.164706
0.0901961 0.0745098 0.160784
0.121569 0.0784314 0.156863
0.14902 0.0862745 0.14902
0.203922 0.0784314 0.145098
0.258824 0.0588235 0.137255
0.317647 0.0470588 0.12549
0.380392 0.0392157 0.117647
0.447059 0.0235294 0.105882
0.505882 0.0117647 0.0823529
0.572549 0.00784314 0.0588235
0.631373 0.00392157 0.0156863
0.694118 0 0
0.756863 0 0
0.811765 0 0
