resources/LUTs/LUT Colour Grades (cube)/Old_Film_Cool.cube
#Generated by Picture Instruments - Look Creator
TITLE "Agfa RSX50 IICool"
LUT_3D_SIZE 9
0 0 0
0.0862745 0.00784314 0.00784314
0.152941 0.0313725 0.0156863
0.247059 0.0235294 0.0156863
0.356863 0.00392157 0.00784314
0.482353 0 0.00784314
0.611765 0 0
0.741176 0 0
0.854902 0 0
0.0470588 0.137255 0.0588235
0.105882 0.133333 0.054902
0.176471 0.133333 0.0156863
0.27451 0.137255 0
0.384314 0.109804 0
0.509804 0.0509804 0
0.635294 0.0156863 0
0.760784 0 0
0.862745 0 0
0.0862745 0.258824 0.109804
0.137255 0.258824 0.0980392
0.211765 0.25098 0.0941176
0.301961 0.239216 0.0588235
0.427451 0.235294 0.00392157
0.541176 0.223529 0
0.658824 0.203922 0
0.780392 0.176471 0
0.878431 0.129412 0
0.14902 0.407843 0.164706
0.192157 0.407843 0.156863
0.266667 0.4 0.145098
0.360784 0.396078 0.141176
0.462745 0.376471 0.109804
0.580392 0.364706 0.0156863
0.698039 0.356863 0
0.796078 0.345098 0
0.894118 0.337255 0
0.235294 0.560784 0.231373
0.266667 0.556863 0.223529
0.32549 0.541176 0.207843
0.427451 0.541176 0.203922
0.513725 0.52549 0.188235
0.611765 0.509804 0.172549
0.72549 0.505882 0.0901961
0.819608 0.486275 0
0.921569 0.490196 0
0.337255 0.686275 0.309804
0.360784 0.682353 0.309804
0.403922 0.670588 0.290196
0.482353 0.662745 0.27451
0.568627 0.654902 0.262745
0.662745 0.654902 0.266667
0.733333 0.631373 0.254902
0.835294 0.627451 0.192157
0.933333 0.627451 0.0666667
0.454902 0.796078 0.411765
0.462745 0.788235 0.403922
0.494118 0.776471 0.388235
0.552941 0.772549 0.372549
0.611765 0.756863 0.345098
0.698039 0.756863 0.34902
0.776471 0.756863 0.34902
0.839216 0.737255 0.356863
0.933333 0.74902 0.32549
0.584314 0.886275 0.529412
0.580392 0.878431 0.517647
0.6 0.870588 0.501961
0.643137 0.866667 0.490196
0.686275 0.858824 0.466667
0.756863 0.858824 0.462745
0.823529 0.854902 0.470588
0.886275 0.854902 0.470588
0.945098 0.858824 0.505882
0.741176 0.972549 0.682353
0.729412 0.968627 0.666667
0.741176 0.964706 0.662745
0.772549 0.968627 0.658824
0.803922 0.964706 0.65098
0.854902 0.968627 0.65098
0.905882 0.968627 0.662745
0.94902 0.972549 0.678431
0.980392 0.972549 0.694118
0 0.00784314 0.113725
0.0745098 0 0.0980392
0.152941 0.0352941 0.0980392
0.25098 0.0509804 0.0823529
0.364706 0.0313725 0.054902
0.486275 0.0117647 0.0117647
0.615686 0 0
0.745098 0 0
0.854902 0 0
0.027451 0.129412 0.137255
0.0941176 0.133333 0.137255
0.172549 0.129412 0.121569
0.266667 0.12549 0.0980392
0.388235 0.109804 0.0666667
0.513725 0.0745098 0.0117647
0.635294 0.0392157 0
0.752941 0 0
0.866667 0 0
0.0666667 0.254902 0.168627
0.129412 0.258824 0.164706
0.215686 0.254902 0.160784
0.309804 0.243137 0.133333
0.431373 0.235294 0.0980392
0.541176 0.215686 0.0352941
0.654902 0.196078 0.00392157
0.768627 0.180392 0
0.882353 0.137255 0
0.137255 0.407843 0.211765
0.188235 0.411765 0.211765
0.270588 0.407843 0.2
0.360784 0.396078 0.188235
0.466667 0.380392 0.164706
0.584314 0.364706 0.0941176
0.690196 0.345098 0.0117647
0.8 0.341176 0
0.898039 0.337255 0
0.223529 0.54902 0.262745
0.266667 0.560784 0.270588
0.333333 0.552941 0.254902
0.419608 0.541176 0.243137
0.521569 0.533333 0.235294
0.615686 0.513725 0.219608
0.72549 0.505882 0.152941
0.827451 0.494118 0.0196078
0.917647 0.490196 0
0.32549 0.67451 0.333333
0.352941 0.678431 0.333333
0.407843 0.678431 0.329412
0.478431 0.662745 0.305882
0.564706 0.654902 0.298039
0.654902 0.65098 0.290196
0.741176 0.635294 0.290196
0.839216 0.631373 0.231373
0.929412 0.627451 0.129412
0.439216 0.776471 0.415686
0.454902 0.780392 0.415686
0.490196 0.780392 0.411765
0.54902 0.768627 0.392157
0.623529 0.764706 0.376471
0.698039 0.760784 0.372549
0.780392 0.756863 0.376471
0.847059 0.745098 0.388235
0.929412 0.74902 0.34902
0.564706 0.87451 0.52549
0.576471 0.87451 0.52549
0.603922 0.878431 0.521569
0.635294 0.866667 0.505882
0.690196 0.862745 0.486275
0.760784 0.862745 0.482353
0.831373 0.858824 0.486275
0.886275 0.862745 0.498039
0.941176 0.858824 0.517647
0.729412 0.968627 0.682353
0.741176 0.972549 0.686275
0.74902 0.964706 0.67451
0.772549 0.968627 0.670588
0.811765 0.968627 0.666667
0.858824 0.968627 0.662745
0.898039 0.968627 0.666667
0.94902 0.972549 0.686275
0.984314 0.976471 0.701961
0.0117647 0.0117647 0.207843
0.0823529 0 0.2
0.152941 0.0196078 0.188235
0.239216 0.027451 0.176471
0.364706 0 0.156863
0.490196 0 0.133333
0.615686 0 0.105882
0.745098 0 0.0196078
0.854902 0 0.00392157
0.00784314 0.109804 0.231373
0.0901961 0.12549 0.231373
0.172549 0.12549 0.219608
0.266667 0.121569 0.203922
0.392157 0.054902 0.172549
0.513725 0.0313725 0.152941
0.631373 0.00392157 0.109804
0.756863 0 0.0196078
0.870588 0 0
0.0313725 0.239216 0.262745
0.105882 0.247059 0.266667
0.207843 0.258824 0.266667
0.313725 0.243137 0.239216
0.423529 0.227451 0.211765
0.541176 0.203922 0.176471
0.658824 0.184314 0.137255
0.772549 0.156863 0.0470588
0.878431 0.14902 0
0.117647 0.411765 0.317647
0.168627 0.415686 0.317647
0.258824 0.415686 0.298039
0.364706 0.4 0.286275
0.478431 0.388235 0.262745
0.584314 0.364706 0.215686
0.694118 0.345098 0.172549
0.796078 0.329412 0.0980392
0.898039 0.32549 0.00392157
0.219608 0.564706 0.356863
0.254902 0.568627 0.352941
0.333333 0.564706 0.345098
0.423529 0.545098 0.321569
0.52549 0.537255 0.321569
0.623529 0.521569 0.301961
0.729412 0.505882 0.25098
0.823529 0.486275 0.176471
0.921569 0.486275 0.0862745
0.329412 0.686275 0.407843
0.360784 0.690196 0.411765
0.407843 0.682353 0.4
0.486275 0.67451 0.384314
0.572549 0.658824 0.368627
0.658824 0.65098 0.360784
0.752941 0.647059 0.364706
0.843137 0.639216 0.309804
0.933333 0.635294 0.239216
0.439216 0.780392 0.470588
0.462745 0.784314 0.470588
0.498039 0.784314 0.466667
0.552941 0.780392 0.454902
0.623529 0.764706 0.423529
0.701961 0.760784 0.427451
0.792157 0.768627 0.439216
0.85098 0.752941 0.443137
0.945098 0.768627 0.423529
0.572549 0.87451 0.564706
0.584314 0.87451 0.564706
0.607843 0.878431 0.564706
0.647059 0.870588 0.552941
0.694118 0.866667 0.529412
0.760784 0.862745 0.521569
0.827451 0.866667 0.529412
0.886275 0.858824 0.537255
0.94902 0.866667 0.568627
0.733333 0.968627 0.701961
0.733333 0.968627 0.698039
0.745098 0.964706 0.690196
0.776471 0.972549 0.698039
0.807843 0.968627 0.686275
0.858824 0.968627 0.682353
0.909804 0.972549 0.694118
0.956863 0.976471 0.713725
0.984314 0.976471 0.721569
0 0.00392157 0.333333
0.054902 0 0.32549
0.168627 0.00392157 0.317647
0.262745 0 0.309804
0.368627 0.00392157 0.286275
0.498039 0 0.262745
0.615686 0 0.223529
0.729412 0 0.188235
0.85098 0 0.137255
0.00392157 0.105882 0.34902
0.0627451 0.105882 0.345098
0.180392 0.101961 0.341176
0.282353 0.0901961 0.329412
0.396078 0.101961 0.313725
0.533333 0.0117647 0.286275
0.643137 0 0.235294
0.760784 0 0.215686
0.878431 0 0.145098
0 0.215686 0.372549
0.0313725 0.219608 0.380392
0.203922 0.235294 0.376471
0.317647 0.239216 0.364706
0.427451 0.243137 0.345098
0.54902 0.196078 0.305882
0.662745 0.176471 0.282353
0.772549 0.117647 0.235294
0.890196 0.0470588 0.164706
0.054902 0.376471 0.411765
0.141176 0.392157 0.427451
0.243137 0.403922 0.427451
0.372549 0.415686 0.423529
0.482353 0.4 0.396078
0.592157 0.380392 0.364706
0.694118 0.34902 0.317647
0.796078 0.321569 0.266667
0.901961 0.301961 0.2
0.203922 0.560784 0.478431
0.247059 0.568627 0.478431
0.321569 0.568627 0.466667
0.431373 0.564706 0.458824
0.533333 0.54902 0.443137
0.635294 0.537255 0.419608
0.729412 0.509804 0.368627
0.819608 0.486275 0.317647
0.913725 0.47451 0.254902
0.333333 0.690196 0.509804
0.364706 0.698039 0.513725
0.411765 0.694118 0.505882
0.490196 0.686275 0.494118
0.572549 0.666667 0.466667
0.670588 0.662745 0.470588
0.74902 0.647059 0.454902
0.839216 0.635294 0.403922
0.933333 0.631373 0.337255
0.435294 0.784314 0.545098
0.462745 0.792157 0.54902
0.509804 0.788235 0.552941
0.552941 0.784314 0.533333
0.619608 0.772549 0.513725
0.698039 0.760784 0.501961
0.784314 0.764706 0.509804
0.843137 0.74902 0.505882
0.933333 0.756863 0.47451
0.564706 0.87451 0.615686
0.588235 0.882353 0.627451
0.603922 0.87451 0.611765
0.639216 0.870588 0.603922
0.698039 0.878431 0.596078
0.752941 0.862745 0.572549
0.827451 0.866667 0.580392
0.890196 0.862745 0.584314
0.941176 0.858824 0.603922
0.729412 0.972549 0.737255
0.741176 0.972549 0.737255
0.752941 0.972549 0.737255
0.768627 0.968627 0.721569
0.811765 0.972549 0.72549
0.85098 0.972549 0.709804
0.905882 0.972549 0.717647
0.94902 0.972549 0.729412
0.984314 0.976471 0.737255
0 0 0.462745
0.0352941 0 0.458824
0.172549 0 0.45098
0.290196 0 0.447059
0.392157 0 0.427451
0.494118 0 0.396078
0.631373 0 0.392157
0.741176 0 0.34902
0.858824 0 0.298039
0.00392157 0.0784314 0.466667
0.0431373 0.0705882 0.466667
0.172549 0.0470588 0.458824
0.294118 0.0117647 0.454902
0.411765 0.00392157 0.45098
0.521569 0.0117647 0.423529
0.662745 0.00392157 0.415686
0.772549 0 0.368627
0.886275 0 0.309804
0 0.192157 0.482353
0.0509804 0.211765 0.494118
0.2 0.211765 0.498039
0.333333 0.211765 0.494118
0.443137 0.203922 0.478431
0.552941 0.231373 0.462745
0.678431 0.2 0.439216
0.784314 0.0745098 0.388235
0.890196 0 0.32549
0 0.333333 0.505882
0.0509804 0.345098 0.521569
0.196078 0.352941 0.521569
0.360784 0.376471 0.52549
0.486275 0.384314 0.521569
0.592157 0.403922 0.505882
0.690196 0.352941 0.458824
0.788235 0.313725 0.415686
0.898039 0.266667 0.356863
0.180392 0.521569 0.560784
0.227451 0.533333 0.568627
0.305882 0.537255 0.568627
0.415686 0.545098 0.572549
0.545098 0.564706 0.576471
0.639216 0.541176 0.552941
0.72549 0.513725 0.505882
0.811765 0.478431 0.45098
0.917647 0.458824 0.396078
0.333333 0.694118 0.623529
0.360784 0.698039 0.623529
0.415686 0.698039 0.619608
0.490196 0.698039 0.607843
0.584314 0.682353 0.596078
0.670588 0.666667 0.584314
0.760784 0.662745 0.560784
0.847059 0.639216 0.509804
0.92549 0.619608 0.454902
0.447059 0.8 0.639216
0.462745 0.796078 0.643137
0.494118 0.796078 0.635294
0.552941 0.792157 0.631373
0.627451 0.776471 0.615686
0.698039 0.764706 0.588235
0.784314 0.772549 0.603922
0.847059 0.756863 0.592157
0.945098 0.764706 0.560784
0.54902 0.890196 0.678431
0.560784 0.886275 0.67451
0.6 0.890196 0.682353
0.647059 0.886275 0.682353
0.698039 0.882353 0.670588
0.756863 0.870588 0.643137
0.819608 0.862745 0.639216
0.886275 0.866667 0.647059
0.945098 0.866667 0.666667
0.709804 0.976471 0.768627
0.721569 0.980392 0.772549
0.741176 0.976471 0.776471
0.776471 0.976471 0.776471
0.811765 0.980392 0.772549
0.85098 0.976471 0.756863
0.901961 0.972549 0.74902
0.94902 0.980392 0.760784
0.984314 0.980392 0.772549
0.00392157 0 0.580392
0.027451 0 0.576471
0.184314 0 0.576471
0.301961 0 0.568627
0.419608 0 0.556863
0.52549 0 0.545098
0.623529 0 0.513725
0.756863 0 0.521569
0.870588 0 0.498039
0.00392157 0.0235294 0.580392
0.0588235 0.0196078 0.592157
0.180392 0.00392157 0.580392
0.309804 0 0.584314
0.439216 0 0.580392
0.54902 0 0.568627
0.65098 0 0.537255
0.784314 0.00784314 0.545098
0.894118 0 0.513725
0.00784314 0.176471 0.592157
0.0588235 0.180392 0.603922
0.196078 0.172549 0.6
0.329412 0.168627 0.603922
0.458824 0.145098 0.596078
0.572549 0.129412 0.592157
0.670588 0.188235 0.560784
0.788235 0.207843 0.556863
0.894118 0.0705882 0.52549
0 0.286275 0.603922
0.00784314 0.301961 0.623529
0.223529 0.333333 0.627451
0.356863 0.341176 0.631373
0.494118 0.345098 0.627451
0.607843 0.356863 0.627451
0.698039 0.388235 0.603922
0.803922 0.372549 0.580392
0.901961 0.298039 0.537255
0.101961 0.47451 0.647059
0.160784 0.478431 0.65098
0.254902 0.486275 0.65098
0.364706 0.490196 0.65098
0.52549 0.521569 0.658824
0.639216 0.533333 0.654902
0.72549 0.54902 0.639216
0.811765 0.494118 0.592157
0.909804 0.443137 0.545098
0.309804 0.65098 0.690196
0.341176 0.654902 0.694118
0.392157 0.654902 0.690196
0.47451 0.666667 0.694118
0.580392 0.678431 0.698039
0.690196 0.694118 0.709804
0.756863 0.658824 0.670588
0.835294 0.635294 0.623529
0.92549 0.615686 0.584314
0.466667 0.815686 0.760784
0.470588 0.803922 0.745098
0.505882 0.8 0.737255
0.556863 0.796078 0.733333
0.631373 0.792157 0.721569
0.713725 0.788235 0.709804
0.788235 0.776471 0.701961
0.858824 0.772549 0.682353
0.937255 0.756863 0.639216
0.572549 0.905882 0.776471
0.576471 0.894118 0.764706
0.596078 0.890196 0.760784
0.635294 0.890196 0.756863
0.698039 0.894118 0.74902
0.756863 0.882353 0.737255
0.823529 0.870588 0.713725
0.882353 0.866667 0.721569
0.952941 0.87451 0.737255
0.698039 0.984314 0.827451
0.698039 0.980392 0.819608
0.717647 0.984314 0.819608
0.74902 0.984314 0.819608
0.796078 0.980392 0.819608
0.843137 0.980392 0.815686
0.890196 0.976471 0.796078
0.94902 0.984314 0.807843
0.988235 0.984314 0.815686
0.00392157 0 0.701961
0.0509804 0 0.709804
0.196078 0 0.698039
0.321569 0 0.686275
0.439216 0 0.670588
0.560784 0 0.666667
0.666667 0 0.666667
0.741176 0 0.623529
0.866667 0 0.639216
0.0509804 0 0.705882
0.105882 0 0.705882
0.219608 0 0.705882
0.337255 0 0.705882
0.462745 0 0.705882
0.584314 0 0.694118
0.698039 0 0.698039
0.776471 0 0.654902
0.890196 0 0.662745
0.0431373 0.133333 0.705882
0.0901961 0.12549 0.713725
0.219608 0.113725 0.713725
0.345098 0.0784314 0.717647
0.470588 0.0196078 0.713725
0.6 0.00784314 0.709804
0.709804 0 0.709804
0.784314 0.0941176 0.670588
0.898039 0.211765 0.678431
0.0196078 0.278431 0.709804
0.129412 0.298039 0.733333
0.239216 0.294118 0.729412
0.364706 0.294118 0.733333
0.486275 0.286275 0.72549
0.615686 0.286275 0.72549
0.721569 0.294118 0.72549
0.796078 0.352941 0.694118
0.898039 0.392157 0.694118
0.00784314 0.415686 0.729412
0.0431373 0.431373 0.745098
0.192157 0.427451 0.745098
0.364706 0.454902 0.74902
0.509804 0.466667 0.745098
0.639216 0.478431 0.74902
0.741176 0.486275 0.737255
0.815686 0.529412 0.721569
0.905882 0.529412 0.717647
0.227451 0.592157 0.752941
0.266667 0.6 0.764706
0.32549 0.607843 0.768627
0.403922 0.603922 0.760784
0.513725 0.615686 0.764706
0.666667 0.647059 0.772549
0.764706 0.662745 0.768627
0.85098 0.690196 0.772549
0.917647 0.635294 0.721569
0.407843 0.74902 0.788235
0.427451 0.756863 0.792157
0.470588 0.760784 0.796078
0.537255 0.764706 0.8
0.615686 0.772549 0.796078
0.701961 0.776471 0.8
0.803922 0.8 0.811765
0.854902 0.768627 0.776471
0.929412 0.745098 0.737255
0.552941 0.890196 0.839216
0.568627 0.894118 0.847059
0.596078 0.890196 0.839216
0.647059 0.898039 0.843137
0.690196 0.890196 0.831373
0.752941 0.886275 0.823529
0.819608 0.878431 0.803922
0.890196 0.878431 0.803922
0.94902 0.870588 0.792157
0.694118 0.984314 0.886275
0.698039 0.984314 0.886275
0.717647 0.984314 0.886275
0.741176 0.984314 0.878431
0.776471 0.984314 0.87451
0.819608 0.984314 0.862745
0.878431 0.984314 0.854902
0.933333 0.980392 0.839216
0.984314 0.980392 0.854902
0.0352941 0 0.8
0.0980392 0 0.811765
0.227451 0 0.807843
0.345098 0 0.8
0.466667 0 0.792157
0.588235 0 0.788235
0.705882 0 0.788235
0.8 0 0.788235
0.847059 0 0.733333
0.105882 0 0.811765
0.172549 0 0.831373
0.266667 0 0.831373
0.376471 0 0.827451
0.498039 0 0.827451
0.619608 0 0.823529
0.737255 0 0.819608
0.835294 0 0.819608
0.870588 0 0.752941
0.141176 0.0196078 0.811765
0.196078 0.00784314 0.831373
0.282353 0.00392157 0.835294
0.384314 0 0.831373
0.498039 0 0.827451
0.619608 0 0.823529
0.737255 0 0.819608
0.835294 0 0.819608
0.878431 0 0.764706
0.133333 0.243137 0.819608
0.184314 0.243137 0.835294
0.282353 0.243137 0.839216
0.384314 0.223529 0.835294
0.509804 0.215686 0.839216
0.627451 0.184314 0.835294
0.74902 0.152941 0.827451
0.839216 0.141176 0.823529
0.886275 0.262745 0.780392
0 0.356863 0.823529
0.0235294 0.372549 0.843137
0.243137 0.396078 0.847059
0.384314 0.407843 0.843137
0.509804 0.407843 0.839216
0.631373 0.403922 0.839216
0.74902 0.403922 0.831373
0.85098 0.423529 0.835294
0.901961 0.486275 0.803922
0.0823529 0.545098 0.843137
0.12549 0.54902 0.85098
0.223529 0.545098 0.85098
0.32549 0.537255 0.847059
0.490196 0.560784 0.854902
0.639216 0.580392 0.843137
0.760784 0.596078 0.847059
0.858824 0.619608 0.85098
0.921569 0.662745 0.831373
0.341176 0.717647 0.866667
0.364706 0.72549 0.870588
0.403922 0.72549 0.870588
0.466667 0.721569 0.866667
0.545098 0.717647 0.862745
0.635294 0.717647 0.85098
0.772549 0.745098 0.866667
0.866667 0.764706 0.862745
0.933333 0.792157 0.862745
0.513725 0.85098 0.886275
0.533333 0.858824 0.890196
0.564706 0.862745 0.894118
0.6 0.854902 0.886275
0.666667 0.862745 0.890196
0.737255 0.866667 0.894118
0.815686 0.87451 0.890196
0.901961 0.894118 0.898039
0.94902 0.866667 0.862745
0.67451 0.976471 0.945098
0.682353 0.980392 0.94902
0.701961 0.980392 0.952941
0.729412 0.984314 0.945098
0.772549 0.984314 0.945098
0.815686 0.984314 0.933333
0.866667 0.988235 0.929412
0.92549 0.984314 0.913725
0.984314 0.980392 0.909804
0.156863 0 0.886275
0.215686 0 0.909804
0.298039 0 0.905882
0.396078 0 0.901961
0.498039 0 0.898039
0.615686 0 0.898039
0.729412 0 0.898039
0.835294 0 0.894118
0.909804 0 0.890196
0.192157 0.00392157 0.917647
0.25098 0 0.945098
0.321569 0 0.941176
0.403922 0 0.92549
0.52549 0 0.937255
0.639216 0 0.929412
0.760784 0 0.929412
0.858824 0 0.921569
0.933333 0 0.909804
0.235294 0 0.917647
0.27451 0 0.941176
0.341176 0 0.941176
0.427451 0 0.937255
0.537255 0 0.937255
0.647059 0 0.933333
0.764706 0 0.929412
0.862745 0 0.92549
0.945098 0 0.917647
0.243137 0.164706 0.92549
0.282353 0.160784 0.945098
0.345098 0.141176 0.94902
0.439216 0.0941176 0.945098
0.54902 0.027451 0.945098
0.658824 0 0.941176
0.764706 0 0.929412
0.870588 0 0.929412
0.945098 0 0.917647
0.172549 0.34902 0.933333
0.243137 0.364706 0.956863
0.317647 0.356863 0.94902
0.415686 0.345098 0.945098
0.52549 0.329412 0.941176
0.65098 0.309804 0.945098
0.760784 0.278431 0.933333
0.878431 0.262745 0.937255
0.94902 0.235294 0.92549
0 0.494118 0.945098
0.0117647 0.494118 0.952941
0.129412 0.486275 0.952941
0.337255 0.498039 0.952941
0.52549 0.533333 0.956863
0.643137 0.521569 0.94902
0.760784 0.513725 0.941176
0.878431 0.521569 0.945098
0.94902 0.517647 0.929412
0.278431 0.698039 0.956863
0.298039 0.698039 0.964706
0.345098 0.701961 0.968627
0.4 0.686275 0.960784
0.482353 0.67451 0.960784
0.607843 0.678431 0.956863
0.764706 0.690196 0.94902
0.870588 0.694118 0.945098
0.94902 0.705882 0.941176
0.505882 0.858824 0.972549
0.509804 0.854902 0.972549
0.533333 0.854902 0.972549
0.576471 0.854902 0.980392
0.619608 0.847059 0.972549
0.686275 0.847059 0.972549
0.752941 0.831373 0.964706
0.878431 0.843137 0.960784
0.960784 0.854902 0.952941
0.670588 0.964706 0.984314
0.678431 0.968627 0.984314
0.694118 0.968627 0.984314
0.717647 0.968627 0.984314
0.752941 0.972549 0.984314
0.8 0.976471 0.984314
0.85098 0.976471 0.984314
0.909804 0.976471 0.980392
0.984314 0.984314 0.980392
