resources/LUTs/LUT Colour Grades (cube)/Old_Film_Warm.cube
#Generated by Picture Instruments - Look Creator
TITLE "Agfa RSX200 II Warm"
LUT_3D_SIZE 17
0 0 0
0.054902 0.00392157 0
0.0941176 0.00784314 0
0.14902 0.0352941 0
0.192157 0.0470588 0
0.239216 0.0509804 0
0.286275 0.0509804 0
0.341176 0.0588235 0
0.403922 0.0705882 0
0.458824 0.0666667 0
0.521569 0.0823529 0
0.580392 0.0901961 0
0.635294 0.0980392 0
0.690196 0.101961 0
0.752941 0.141176 0
0.8 0.141176 0
0.858824 0.168627 0
0.0313725 0.0705882 0.0235294
0.0666667 0.0705882 0.0235294
0.105882 0.0666667 0.00784314
0.156863 0.0823529 0
0.196078 0.0784314 0
0.254902 0.0901961 0
0.309804 0.0941176 0
0.364706 0.0980392 0
0.423529 0.101961 0
0.478431 0.0980392 0
0.541176 0.109804 0
0.603922 0.129412 0
0.65098 0.129412 0
0.694118 0.117647 0
0.760784 0.152941 0
0.803922 0.156863 0
0.862745 0.184314 0
0.0666667 0.12549 0.0509804
0.0941176 0.121569 0.0431373
0.117647 0.121569 0.0431373
0.164706 0.12549 0.027451
0.219608 0.12549 0.0117647
0.262745 0.12549 0.00392157
0.317647 0.129412 0
0.376471 0.129412 0
0.435294 0.133333 0
0.490196 0.129412 0
0.545098 0.133333 0
0.6 0.137255 0
0.65098 0.145098 0
0.705882 0.152941 0
0.760784 0.172549 0
0.807843 0.184314 0
0.870588 0.207843 0
0.0862745 0.172549 0.0627451
0.113725 0.172549 0.0627451
0.141176 0.176471 0.0666667
0.168627 0.168627 0.0627451
0.223529 0.180392 0.0588235
0.286275 0.176471 0.027451
0.345098 0.176471 0.0235294
0.396078 0.176471 0.0117647
0.454902 0.180392 0.00784314
0.513725 0.184314 0.00392157
0.564706 0.180392 0
0.615686 0.184314 0
0.670588 0.196078 0.00392157
0.713725 0.192157 0
0.760784 0.2 0
0.815686 0.215686 0
0.870588 0.231373 0
0.117647 0.227451 0.0901961
0.137255 0.231373 0.0862745
0.164706 0.227451 0.0823529
0.196078 0.223529 0.0784314
0.235294 0.223529 0.0862745
0.282353 0.227451 0.0705882
0.360784 0.239216 0.054902
0.427451 0.235294 0.0235294
0.482353 0.239216 0.0196078
0.541176 0.239216 0.0156863
0.588235 0.239216 0.00784314
0.639216 0.239216 0.00392157
0.690196 0.247059 0.00392157
0.729412 0.243137 0
0.780392 0.254902 0
0.827451 0.258824 0
0.886275 0.27451 0
0.14902 0.290196 0.109804
0.168627 0.294118 0.113725
0.184314 0.286275 0.0980392
0.215686 0.278431 0.0941176
0.25098 0.282353 0.0980392
0.298039 0.286275 0.105882
0.360784 0.298039 0.0980392
0.435294 0.305882 0.0745098
0.501961 0.301961 0.0431373
0.572549 0.305882 0.0235294
0.611765 0.298039 0.0117647
0.654902 0.294118 0.00392157
0.709804 0.301961 0.00392157
0.74902 0.301961 0
0.796078 0.305882 0
0.839216 0.305882 0
0.898039 0.321569 0
0.180392 0.345098 0.12549
0.2 0.356863 0.129412
0.223529 0.352941 0.129412
0.254902 0.356863 0.12549
0.294118 0.352941 0.12549
0.32549 0.34902 0.121569
0.368627 0.34902 0.12549
0.439216 0.364706 0.129412
0.501961 0.368627 0.0941176
0.576471 0.372549 0.0588235
0.647059 0.372549 0.027451
0.690196 0.368627 0.0235294
0.72549 0.360784 0.0156863
0.776471 0.368627 0.00784314
0.819608 0.364706 0.00392157
0.862745 0.368627 0
0.909804 0.372549 0
0.227451 0.423529 0.156863
0.231373 0.415686 0.141176
0.258824 0.423529 0.152941
0.282353 0.415686 0.145098
0.321569 0.415686 0.145098
0.360784 0.419608 0.14902
0.403922 0.415686 0.14902
0.439216 0.411765 0.141176
0.505882 0.427451 0.14902
0.572549 0.435294 0.121569
0.635294 0.431373 0.0862745
0.705882 0.439216 0.0666667
0.760784 0.435294 0.0392157
0.803922 0.435294 0.0352941
0.835294 0.423529 0.0117647
0.882353 0.431373 0.00784314
0.913725 0.423529 0.00392157
0.254902 0.47451 0.164706
0.27451 0.490196 0.172549
0.294118 0.490196 0.172549
0.313725 0.482353 0.168627
0.352941 0.482353 0.172549
0.376471 0.466667 0.152941
0.427451 0.478431 0.168627
0.470588 0.482353 0.168627
0.513725 0.482353 0.172549
0.572549 0.490196 0.176471
0.631373 0.494118 0.14902
0.694118 0.498039 0.121569
0.756863 0.501961 0.105882
0.811765 0.498039 0.0705882
0.858824 0.494118 0.0470588
0.901961 0.494118 0.0392157
0.937255 0.494118 0.0196078
0.301961 0.545098 0.196078
0.313725 0.54902 0.196078
0.329412 0.54902 0.196078
0.345098 0.541176 0.184314
0.380392 0.541176 0.192157
0.411765 0.529412 0.180392
0.454902 0.533333 0.180392
0.494118 0.545098 0.192157
0.533333 0.533333 0.184314
0.580392 0.541176 0.192157
0.631373 0.552941 0.203922
0.686275 0.552941 0.180392
0.752941 0.560784 0.172549
0.815686 0.564706 0.156863
0.862745 0.560784 0.12549
0.913725 0.552941 0.0901961
0.956863 0.556863 0.0823529
0.341176 0.603922 0.215686
0.356863 0.611765 0.223529
0.368627 0.607843 0.219608
0.388235 0.607843 0.219608
0.419608 0.607843 0.219608
0.435294 0.592157 0.203922
0.47451 0.596078 0.203922
0.513725 0.592157 0.203922
0.560784 0.6 0.215686
0.6 0.6 0.215686
0.647059 0.607843 0.227451
0.690196 0.611765 0.235294
0.745098 0.611765 0.219608
0.811765 0.627451 0.219608
0.866667 0.627451 0.207843
0.917647 0.623529 0.192157
0.960784 0.623529 0.172549
0.392157 0.670588 0.25098
0.392157 0.658824 0.243137
0.403922 0.662745 0.243137
0.423529 0.666667 0.243137
0.45098 0.662745 0.243137
0.482353 0.666667 0.243137
0.501961 0.65098 0.227451
0.54902 0.654902 0.235294
0.584314 0.658824 0.239216
0.631373 0.666667 0.25098
0.662745 0.658824 0.247059
0.705882 0.662745 0.25098
0.752941 0.666667 0.270588
0.803922 0.67451 0.266667
0.862745 0.678431 0.262745
0.909804 0.682353 0.254902
0.956863 0.682353 0.254902
0.443137 0.729412 0.286275
0.443137 0.72549 0.278431
0.454902 0.72549 0.278431
0.470588 0.721569 0.27451
0.486275 0.721569 0.27451
0.505882 0.713725 0.266667
0.541176 0.713725 0.262745
0.568627 0.705882 0.25098
0.607843 0.713725 0.262745
0.639216 0.709804 0.262745
0.686275 0.717647 0.278431
0.72549 0.717647 0.286275
0.764706 0.721569 0.294118
0.811765 0.729412 0.317647
0.858824 0.729412 0.313725
0.905882 0.733333 0.313725
0.952941 0.741176 0.317647
0.498039 0.792157 0.32549
0.498039 0.784314 0.321569
0.501961 0.780392 0.317647
0.517647 0.784314 0.317647
0.52549 0.776471 0.305882
0.545098 0.772549 0.301961
0.576471 0.772549 0.301961
0.603922 0.764706 0.294118
0.631373 0.764706 0.290196
0.67451 0.772549 0.305882
0.717647 0.776471 0.317647
0.74902 0.776471 0.321569
0.784314 0.776471 0.329412
0.827451 0.780392 0.341176
0.858824 0.776471 0.352941
0.909804 0.788235 0.368627
0.952941 0.796078 0.380392
0.545098 0.847059 0.364706
0.54902 0.847059 0.368627
0.545098 0.835294 0.356863
0.560784 0.835294 0.356863
0.576471 0.835294 0.356863
0.596078 0.839216 0.356863
0.619608 0.835294 0.34902
0.631373 0.823529 0.333333
0.666667 0.823529 0.333333
0.698039 0.823529 0.333333
0.733333 0.827451 0.345098
0.772549 0.835294 0.360784
0.811765 0.835294 0.372549
0.843137 0.831373 0.380392
0.894118 0.847059 0.407843
0.92549 0.843137 0.427451
0.952941 0.847059 0.443137
0.607843 0.905882 0.427451
0.603922 0.901961 0.423529
0.607843 0.898039 0.419608
0.615686 0.894118 0.415686
0.623529 0.890196 0.411765
0.643137 0.894118 0.411765
0.666667 0.894118 0.407843
0.686275 0.890196 0.4
0.717647 0.894118 0.403922
0.745098 0.890196 0.396078
0.776471 0.894118 0.407843
0.811765 0.894118 0.419608
0.85098 0.901961 0.443137
0.886275 0.901961 0.454902
0.917647 0.905882 0.470588
0.94902 0.905882 0.490196
0.964706 0.901961 0.501961
0.686275 0.964706 0.509804
0.67451 0.956863 0.494118
0.678431 0.956863 0.494118
0.690196 0.952941 0.498039
0.701961 0.956863 0.498039
0.713725 0.952941 0.490196
0.741176 0.956863 0.501961
0.74902 0.952941 0.490196
0.780392 0.956863 0.494118
0.803922 0.952941 0.486275
0.835294 0.956863 0.494118
0.866667 0.956863 0.509804
0.894118 0.960784 0.521569
0.921569 0.960784 0.545098
0.952941 0.964706 0.564706
0.972549 0.964706 0.580392
0.984314 0.964706 0.592157
0.00392157 0.00784314 0.054902
0.054902 0.00784314 0.0588235
0.0941176 0.0117647 0.0509804
0.141176 0.0235294 0.0431373
0.188235 0.0509804 0.0470588
0.231373 0.0509804 0.0392157
0.294118 0.0666667 0.0352941
0.345098 0.0666667 0.0196078
0.396078 0.0627451 0.00784314
0.454902 0.0666667 0.00784314
0.521569 0.0823529 0.00392157
0.576471 0.0784314 0
0.635294 0.0901961 0
0.686275 0.101961 0
0.737255 0.109804 0
0.8 0.141176 0
0.858824 0.160784 0
0.0196078 0.0666667 0.0666667
0.0627451 0.0705882 0.0666667
0.109804 0.0745098 0.0666667
0.14902 0.0784314 0.0627451
0.196078 0.0823529 0.0588235
0.254902 0.0941176 0.054902
0.298039 0.0862745 0.0352941
0.368627 0.101961 0.0352941
0.419608 0.0901961 0.0196078
0.478431 0.0941176 0.00784314
0.533333 0.0980392 0.00392157
0.592157 0.105882 0
0.647059 0.117647 0
0.694118 0.113725 0
0.752941 0.145098 0
0.803922 0.14902 0
0.862745 0.176471 0
0.0509804 0.121569 0.0784314
0.0862745 0.121569 0.0823529
0.117647 0.12549 0.0823529
0.160784 0.121569 0.0705882
0.207843 0.121569 0.0627451
0.270588 0.133333 0.0666667
0.317647 0.129412 0.0509804
0.364706 0.117647 0.027451
0.427451 0.12549 0.0235294
0.482353 0.117647 0.0156863
0.54902 0.137255 0.00784314
0.607843 0.145098 0.00784314
0.654902 0.145098 0.00392157
0.709804 0.156863 0
0.756863 0.168627 0
0.807843 0.180392 0
0.862745 0.192157 0
0.0745098 0.172549 0.0901961
0.105882 0.176471 0.0980392
0.137255 0.172549 0.0901961
0.168627 0.172549 0.0941176
0.223529 0.176471 0.0862745
0.286275 0.180392 0.0745098
0.345098 0.180392 0.0627451
0.4 0.184314 0.054902
0.45098 0.176471 0.0313725
0.501961 0.172549 0.0156863
0.560784 0.180392 0.0117647
0.607843 0.176471 0.00784314
0.658824 0.180392 0
0.713725 0.196078 0
0.768627 0.207843 0
0.815686 0.215686 0
0.870588 0.227451 0
0.109804 0.227451 0.109804
0.133333 0.231373 0.113725
0.168627 0.231373 0.113725
0.192157 0.227451 0.105882
0.231373 0.227451 0.109804
0.286275 0.231373 0.0980392
0.360784 0.239216 0.0862745
0.427451 0.239216 0.0666667
0.482353 0.239216 0.054902
0.529412 0.231373 0.0313725
0.588235 0.235294 0.0196078
0.631373 0.235294 0.00784314
0.694118 0.25098 0.00784314
0.729412 0.243137 0
0.780392 0.254902 0
0.831373 0.266667 0
0.890196 0.278431 0
0.137255 0.282353 0.121569
0.164706 0.294118 0.129412
0.192157 0.298039 0.133333
0.223529 0.290196 0.121569
0.258824 0.286275 0.121569
0.301961 0.290196 0.129412
0.364706 0.298039 0.12549
0.427451 0.298039 0.0941176
0.501961 0.298039 0.0666667
0.564706 0.298039 0.0470588
0.615686 0.301961 0.0352941
0.662745 0.301961 0.027451
0.705882 0.301961 0.0156863
0.745098 0.294118 0.00392157
0.8 0.305882 0.00392157
0.839216 0.305882 0
0.890196 0.313725 0
0.176471 0.34902 0.141176
0.203922 0.360784 0.14902
0.223529 0.360784 0.14902
0.254902 0.356863 0.145098
0.286275 0.352941 0.141176
0.32549 0.352941 0.145098
0.368627 0.34902 0.137255
0.435294 0.360784 0.141176
0.501961 0.368627 0.117647
0.580392 0.372549 0.0941176
0.643137 0.372549 0.0588235
0.690196 0.372549 0.0470588
0.72549 0.360784 0.027451
0.772549 0.364706 0.0196078
0.811765 0.360784 0.00784314
0.858824 0.364706 0.00392157
0.909804 0.376471 0
0.219608 0.415686 0.164706
0.231373 0.419608 0.164706
0.258824 0.423529 0.168627
0.282353 0.419608 0.160784
0.321569 0.419608 0.160784
0.364706 0.423529 0.168627
0.396078 0.415686 0.156863
0.45098 0.419608 0.164706
0.494118 0.419608 0.152941
0.580392 0.439216 0.14902
0.647059 0.443137 0.121569
0.705882 0.443137 0.0941176
0.760784 0.439216 0.0745098
0.8 0.431373 0.0509804
0.831373 0.423529 0.0235294
0.878431 0.427451 0.0117647
0.917647 0.427451 0.00392157
0.262745 0.482353 0.188235
0.27451 0.486275 0.188235
0.290196 0.490196 0.188235
0.317647 0.482353 0.184314
0.352941 0.482353 0.180392
0.388235 0.478431 0.172549
0.431373 0.478431 0.180392
0.47451 0.486275 0.184314
0.517647 0.486275 0.188235
0.564706 0.490196 0.184314
0.635294 0.494118 0.164706
0.694118 0.498039 0.141176
0.760784 0.505882 0.133333
0.819608 0.501961 0.101961
0.862745 0.498039 0.0784314
0.890196 0.482353 0.0470588
0.933333 0.490196 0.0352941
0.298039 0.537255 0.203922
0.313725 0.54902 0.207843
0.32549 0.545098 0.203922
0.352941 0.54902 0.207843
0.376471 0.545098 0.2
0.407843 0.537255 0.196078
0.447059 0.537255 0.192157
0.490196 0.541176 0.2
0.533333 0.545098 0.203922
0.576471 0.537255 0.2
0.627451 0.54902 0.211765
0.690196 0.556863 0.196078
0.756863 0.564706 0.188235
0.811765 0.564706 0.172549
0.87451 0.568627 0.156863
0.909804 0.552941 0.113725
0.952941 0.552941 0.101961
0.341176 0.6 0.227451
0.352941 0.611765 0.231373
0.364706 0.607843 0.227451
0.384314 0.603922 0.223529
0.415686 0.603922 0.227451
0.435294 0.592157 0.215686
0.478431 0.596078 0.215686
0.513725 0.592157 0.211765
0.564706 0.603922 0.227451
0.596078 0.6 0.223529
0.65098 0.611765 0.235294
0.686275 0.603922 0.239216
0.752941 0.619608 0.239216
0.803922 0.615686 0.215686
0.866667 0.623529 0.215686
0.909804 0.619608 0.196078
0.952941 0.619608 0.180392
0.380392 0.654902 0.247059
0.392157 0.662745 0.247059
0.403922 0.662745 0.25098
0.419608 0.662745 0.25098
0.439216 0.658824 0.243137
0.470588 0.654902 0.239216
0.513725 0.658824 0.243137
0.541176 0.647059 0.235294
0.580392 0.654902 0.243137
0.627451 0.658824 0.25098
0.666667 0.658824 0.254902
0.713725 0.666667 0.266667
0.737255 0.658824 0.270588
0.8 0.670588 0.270588
0.85098 0.67451 0.262745
0.913725 0.686275 0.266667
0.952941 0.686275 0.258824
0.431373 0.717647 0.282353
0.443137 0.72549 0.290196
0.45098 0.721569 0.282353
0.470588 0.729412 0.286275
0.486275 0.721569 0.282353
0.513725 0.721569 0.282353
0.541176 0.713725 0.270588
0.576471 0.713725 0.270588
0.611765 0.717647 0.27451
0.639216 0.709804 0.266667
0.694118 0.72549 0.290196
0.72549 0.717647 0.294118
0.772549 0.729412 0.309804
0.807843 0.72549 0.321569
0.858824 0.729412 0.317647
0.905882 0.737255 0.321569
0.956863 0.745098 0.32549
0.490196 0.784314 0.329412
0.494118 0.784314 0.32549
0.498039 0.776471 0.321569
0.501961 0.772549 0.313725
0.529412 0.780392 0.317647
0.552941 0.776471 0.313725
0.580392 0.776471 0.313725
0.607843 0.772549 0.305882
0.639216 0.772549 0.301961
0.670588 0.768627 0.305882
0.705882 0.776471 0.317647
0.752941 0.780392 0.329412
0.784314 0.776471 0.333333
0.827451 0.780392 0.34902
0.866667 0.784314 0.368627
0.917647 0.796078 0.380392
0.94902 0.792157 0.380392
0.541176 0.839216 0.368627
0.545098 0.843137 0.372549
0.552941 0.843137 0.372549
0.564706 0.839216 0.368627
0.576471 0.835294 0.360784
0.603922 0.843137 0.368627
0.619608 0.839216 0.356863
0.643137 0.835294 0.352941
0.670588 0.827451 0.345098
0.705882 0.831373 0.34902
0.737255 0.831373 0.356863
0.768627 0.827451 0.360784
0.807843 0.835294 0.380392
0.85098 0.839216 0.392157
0.882353 0.839216 0.403922
0.92549 0.847059 0.439216
0.952941 0.85098 0.45098
0.603922 0.898039 0.427451
0.6 0.894118 0.419608
0.603922 0.894118 0.419608
0.623529 0.901961 0.427451
0.635294 0.901961 0.427451
0.643137 0.894118 0.415686
0.666667 0.894118 0.415686
0.690196 0.894118 0.407843
0.721569 0.901961 0.411765
0.752941 0.894118 0.403922
0.776471 0.894118 0.411765
0.815686 0.898039 0.431373
0.847059 0.898039 0.443137
0.882353 0.898039 0.454902
0.921569 0.909804 0.478431
0.94902 0.909804 0.494118
0.964706 0.905882 0.509804
0.678431 0.960784 0.505882
0.682353 0.960784 0.505882
0.682353 0.956863 0.501961
0.694118 0.960784 0.505882
0.701961 0.960784 0.501961
0.709804 0.952941 0.494118
0.733333 0.960784 0.501961
0.760784 0.964706 0.501961
0.780392 0.960784 0.494118
0.803922 0.956863 0.490196
0.835294 0.960784 0.498039
0.866667 0.960784 0.513725
0.901961 0.968627 0.537255
0.92549 0.960784 0.54902
0.952941 0.968627 0.564706
0.976471 0.968627 0.588235
0.988235 0.968627 0.607843
0.00784314 0.0196078 0.101961
0.0588235 0.0156863 0.0980392
0.101961 0.0196078 0.101961
0.133333 0.0352941 0.0941176
0.188235 0.0352941 0.0901961
0.235294 0.0431373 0.0823529
0.286275 0.0588235 0.0862745
0.341176 0.0627451 0.0784314
0.4 0.0627451 0.0666667
0.454902 0.0588235 0.0470588
0.513725 0.0666667 0.0352941
0.576471 0.0784314 0.0235294
0.627451 0.0784314 0.0117647
0.682353 0.0941176 0
0.74902 0.121569 0.00392157
0.796078 0.129412 0.00392157
0.862745 0.156863 0
0.027451 0.0784314 0.109804
0.054902 0.0588235 0.0941176
0.109804 0.0784314 0.113725
0.145098 0.0784314 0.105882
0.192157 0.0745098 0.0980392
0.239216 0.0823529 0.0901961
0.294118 0.0823529 0.0862745
0.356863 0.0862745 0.0823529
0.411765 0.0862745 0.0705882
0.47451 0.0901961 0.054902
0.529412 0.0862745 0.0352941
0.580392 0.0862745 0.0156863
0.643137 0.105882 0.0117647
0.694118 0.109804 0.00784314
0.752941 0.133333 0
0.796078 0.141176 0
0.858824 0.164706 0
0.0509804 0.121569 0.117647
0.0745098 0.117647 0.117647
0.117647 0.12549 0.121569
0.156863 0.12549 0.113725
0.196078 0.121569 0.109804
0.262745 0.133333 0.113725
0.309804 0.12549 0.0980392
0.360784 0.121569 0.0823529
0.427451 0.12549 0.0745098
0.478431 0.117647 0.0509804
0.537255 0.121569 0.0431373
0.588235 0.121569 0.027451
0.654902 0.14902 0.0117647
0.701961 0.145098 0.00784314
0.756863 0.160784 0.00392157
0.8 0.160784 0
0.858824 0.180392 0
0.0745098 0.172549 0.133333
0.0980392 0.172549 0.129412
0.137255 0.176471 0.133333
0.176471 0.176471 0.133333
0.223529 0.176471 0.121569
0.290196 0.184314 0.12549
0.333333 0.176471 0.109804
0.388235 0.172549 0.0941176
0.447059 0.176471 0.0862745
0.505882 0.180392 0.0705882
0.560784 0.180392 0.0509804
0.603922 0.176471 0.0313725
0.666667 0.188235 0.0235294
0.713725 0.192157 0.0117647
0.760784 0.196078 0
0.823529 0.219608 0.00392157
0.866667 0.219608 0
0.101961 0.227451 0.141176
0.129412 0.243137 0.14902
0.156863 0.231373 0.145098
0.188235 0.227451 0.133333
0.239216 0.235294 0.14902
0.294118 0.239216 0.137255
0.356863 0.235294 0.121569
0.423529 0.239216 0.113725
0.478431 0.235294 0.101961
0.52549 0.231373 0.0823529
0.576471 0.231373 0.0588235
0.631373 0.235294 0.0431373
0.682353 0.239216 0.0313725
0.72549 0.239216 0.0156863
0.780392 0.25098 0.00392157
0.827451 0.258824 0.00392157
0.870588 0.258824 0
0.137255 0.294118 0.156863
0.164706 0.305882 0.164706
0.196078 0.301961 0.164706
0.235294 0.301961 0.160784
0.262745 0.290196 0.156863
0.305882 0.294118 0.160784
0.364706 0.301961 0.152941
0.435294 0.305882 0.137255
0.513725 0.309804 0.121569
0.552941 0.294118 0.0941176
0.607843 0.294118 0.0784314
0.658824 0.298039 0.0705882
0.705882 0.301961 0.0509804
0.74902 0.298039 0.027451
0.8 0.309804 0.0196078
0.843137 0.309804 0.00392157
0.898039 0.321569 0.00392157
0.172549 0.352941 0.168627
0.196078 0.360784 0.172549
0.215686 0.356863 0.168627
0.243137 0.352941 0.160784
0.294118 0.356863 0.172549
0.333333 0.356863 0.168627
0.372549 0.356863 0.172549
0.435294 0.364706 0.168627
0.509804 0.372549 0.152941
0.580392 0.376471 0.133333
0.643137 0.376471 0.113725
0.686275 0.368627 0.0980392
0.721569 0.360784 0.0666667
0.776471 0.368627 0.054902
0.807843 0.356863 0.027451
0.854902 0.360784 0.0156863
0.901961 0.360784 0.00392157
0.211765 0.415686 0.184314
0.231373 0.427451 0.188235
0.247059 0.419608 0.180392
0.278431 0.419608 0.180392
0.321569 0.423529 0.180392
0.360784 0.423529 0.180392
0.407843 0.423529 0.188235
0.447059 0.423529 0.188235
0.501961 0.423529 0.180392
0.572549 0.435294 0.168627
0.647059 0.443137 0.156863
0.709804 0.443137 0.133333
0.760784 0.443137 0.121569
0.792157 0.431373 0.0901961
0.835294 0.431373 0.0705882
0.87451 0.423529 0.027451
0.921569 0.423529 0.0156863
0.258824 0.486275 0.207843
0.270588 0.490196 0.203922
0.298039 0.501961 0.215686
0.317647 0.486275 0.203922
0.356863 0.490196 0.207843
0.388235 0.478431 0.196078
0.427451 0.478431 0.196078
0.466667 0.478431 0.196078
0.517647 0.486275 0.203922
0.572549 0.494118 0.207843
0.643137 0.501961 0.192157
0.698039 0.501961 0.176471
0.768627 0.509804 0.168627
0.807843 0.494118 0.12549
0.858824 0.498039 0.117647
0.890196 0.486275 0.0862745
0.937255 0.490196 0.0666667
0.298039 0.545098 0.223529
0.309804 0.54902 0.223529
0.329412 0.556863 0.227451
0.345098 0.545098 0.219608
0.376471 0.545098 0.219608
0.423529 0.54902 0.223529
0.443137 0.529412 0.207843
0.498039 0.545098 0.223529
0.537255 0.545098 0.219608
0.576471 0.545098 0.223529
0.635294 0.552941 0.231373
0.694118 0.556863 0.215686
0.74902 0.556863 0.2
0.815686 0.568627 0.2
0.862745 0.560784 0.172549
0.913725 0.556863 0.160784
0.94902 0.556863 0.133333
0.341176 0.603922 0.247059
0.34902 0.607843 0.243137
0.360784 0.607843 0.243137
0.388235 0.611765 0.247059
0.407843 0.6 0.239216
0.447059 0.6 0.235294
0.486275 0.603922 0.239216
0.521569 0.603922 0.239216
0.560784 0.603922 0.239216
0.603922 0.603922 0.243137
0.647059 0.607843 0.25098
0.694118 0.615686 0.262745
0.752941 0.619608 0.25098
0.815686 0.631373 0.25098
0.858824 0.623529 0.231373
0.921569 0.627451 0.227451
0.964706 0.627451 0.215686
0.392157 0.666667 0.27451
0.392157 0.666667 0.266667
0.411765 0.670588 0.27451
0.431373 0.670588 0.270588
0.443137 0.658824 0.262745
0.478431 0.662745 0.262745
0.509804 0.658824 0.258824
0.541176 0.65098 0.25098
0.584314 0.654902 0.258824
0.627451 0.658824 0.262745
0.666667 0.662745 0.270588
0.713725 0.67451 0.290196
0.752941 0.67451 0.298039
0.811765 0.682353 0.294118
0.862745 0.686275 0.286275
0.905882 0.678431 0.27451
0.960784 0.686275 0.278431
0.435294 0.721569 0.301961
0.439216 0.721569 0.298039
0.454902 0.72549 0.305882
0.462745 0.721569 0.298039
0.490196 0.721569 0.298039
0.509804 0.717647 0.290196
0.541176 0.713725 0.290196
0.568627 0.709804 0.278431
0.611765 0.713725 0.286275
0.639216 0.709804 0.286275
0.686275 0.717647 0.298039
0.729412 0.721569 0.309804
0.772549 0.729412 0.317647
0.8 0.72549 0.32549
0.862745 0.737255 0.341176
0.913725 0.745098 0.337255
0.952941 0.745098 0.337255
0.482353 0.776471 0.333333
0.498039 0.788235 0.341176
0.490196 0.776471 0.32549
0.513725 0.784314 0.333333
0.529412 0.784314 0.333333
0.54902 0.780392 0.32549
0.580392 0.776471 0.32549
0.6 0.768627 0.313725
0.639216 0.768627 0.313725
0.67451 0.768627 0.317647
0.713725 0.780392 0.333333
0.745098 0.772549 0.333333
0.788235 0.780392 0.34902
0.831373 0.788235 0.364706
0.862745 0.780392 0.376471
0.913725 0.792157 0.388235
0.956863 0.803922 0.4
0.533333 0.835294 0.372549
0.54902 0.843137 0.380392
0.552941 0.839216 0.376471
0.564706 0.843137 0.380392
0.568627 0.835294 0.368627
0.6 0.839216 0.372549
0.623529 0.839216 0.368627
0.643137 0.831373 0.360784
0.67451 0.831373 0.352941
0.705882 0.827451 0.356863
0.741176 0.831373 0.364706
0.772549 0.831373 0.372549
0.815686 0.843137 0.392157
0.85098 0.843137 0.407843
0.890196 0.843137 0.419608
0.913725 0.839216 0.435294
0.956863 0.85098 0.458824
0.607843 0.901961 0.439216
0.607843 0.901961 0.435294
0.607843 0.894118 0.431373
0.615686 0.894118 0.427451
0.627451 0.894118 0.427451
0.643137 0.898039 0.427451
0.670588 0.898039 0.427451
0.690196 0.890196 0.415686
0.709804 0.890196 0.407843
0.741176 0.890196 0.407843
0.784314 0.898039 0.427451
0.819608 0.901961 0.439216
0.85098 0.901961 0.454902
0.890196 0.905882 0.470588
0.917647 0.909804 0.486275
0.952941 0.913725 0.501961
0.972549 0.917647 0.529412
0.670588 0.956863 0.505882
0.682353 0.960784 0.513725
0.678431 0.952941 0.505882
0.694118 0.956863 0.509804
0.698039 0.952941 0.505882
0.713725 0.956863 0.505882
0.733333 0.956863 0.501961
0.752941 0.952941 0.501961
0.772549 0.956863 0.498039
0.803922 0.956863 0.498039
0.835294 0.960784 0.501961
0.862745 0.960784 0.517647
0.898039 0.960784 0.537255
0.929412 0.964706 0.556863
0.956863 0.968627 0.572549
0.972549 0.972549 0.592157
0.988235 0.972549 0.607843
0.027451 0.027451 0.133333
0.0666667 0.027451 0.141176
0.0980392 0.0235294 0.137255
0.137255 0.0352941 0.137255
0.184314 0.054902 0.145098
0.235294 0.0392157 0.133333
0.286275 0.0196078 0.121569
0.341176 0.0352941 0.113725
0.388235 0.0431373 0.109804
0.447059 0.0470588 0.105882
0.509804 0.0588235 0.0980392
0.560784 0.054902 0.0745098
0.627451 0.0705882 0.0627451
0.682353 0.0784314 0.0352941
0.741176 0.101961 0.0235294
0.796078 0.113725 0.00392157
0.854902 0.133333 0.00392157
0.0392157 0.0784314 0.14902
0.0705882 0.0823529 0.14902
0.105882 0.0784314 0.145098
0.145098 0.0784314 0.145098
0.188235 0.0901961 0.145098
0.235294 0.0666667 0.133333
0.294118 0.0470588 0.121569
0.34902 0.0823529 0.129412
0.411765 0.0862745 0.12549
0.462745 0.0745098 0.109804
0.521569 0.0745098 0.0980392
0.572549 0.0784314 0.0823529
0.635294 0.0901961 0.0588235
0.690196 0.0980392 0.0392157
0.745098 0.117647 0.0235294
0.8 0.133333 0.00784314
