resources/LUTs/LUT Colour Grades (cube)/Old_Film_Warm.cube
#Generated by Picture Instruments - Look Creator
TITLE "Agfa RSX200 II Warm"
LUT_3D_SIZE 5
0 0 0
0.192157 0.0470588 0
0.403922 0.0705882 0
0.635294 0.0980392 0
0.858824 0.168627 0
0.117647 0.227451 0.0901961
0.235294 0.223529 0.0862745
0.482353 0.239216 0.0196078
0.690196 0.247059 0.00392157
0.886275 0.27451 0
0.254902 0.47451 0.164706
0.352941 0.482353 0.172549
0.513725 0.482353 0.172549
0.756863 0.501961 0.105882
0.937255 0.494118 0.0196078
0.443137 0.729412 0.286275
0.486275 0.721569 0.27451
0.607843 0.713725 0.262745
0.764706 0.721569 0.294118
0.952941 0.741176 0.317647
0.686275 0.964706 0.509804
0.701961 0.956863 0.498039
0.780392 0.956863 0.494118
0.894118 0.960784 0.521569
0.984314 0.964706 0.592157
0.0313725 0.0352941 0.172549
0.184314 0.0431373 0.180392
0.388235 0.00392157 0.141176
0.615686 0.0627451 0.133333
0.843137 0.105882 0.0352941
0.101961 0.227451 0.215686
0.25098 0.254902 0.235294
0.454902 0.227451 0.196078
0.666667 0.231373 0.152941
0.866667 0.247059 0.054902
0.243137 0.494118 0.266667
0.356863 0.505882 0.278431
0.521569 0.498039 0.27451
0.760784 0.505882 0.243137
0.929412 0.490196 0.184314
0.443137 0.733333 0.352941
0.490196 0.729412 0.34902
0.619608 0.721569 0.337255
0.768627 0.72549 0.360784
0.960784 0.752941 0.388235
0.67451 0.956863 0.537255
0.698039 0.956863 0.529412
0.780392 0.960784 0.529412
0.898039 0.960784 0.552941
0.988235 0.968627 0.619608
0.0470588 0.0823529 0.368627
0.215686 0.0705882 0.372549
0.431373 0.0352941 0.376471
0.654902 0.0823529 0.360784
0.831373 0 0.270588
0.105882 0.231373 0.380392
0.25098 0.25098 0.403922
0.47451 0.25098 0.411765
0.678431 0.254902 0.376471
0.843137 0.172549 0.294118
0.25098 0.490196 0.443137
0.352941 0.509804 0.466667
0.54902 0.533333 0.47451
0.717647 0.494118 0.419608
0.905882 0.47451 0.364706
0.415686 0.745098 0.490196
0.47451 0.752941 0.498039
0.627451 0.74902 0.509804
0.776471 0.741176 0.509804
0.956863 0.764706 0.52549
0.619608 0.968627 0.596078
0.662745 0.964706 0.607843
0.772549 0.968627 0.627451
0.890196 0.968627 0.623529
0.988235 0.972549 0.682353
0.109804 0.129412 0.564706
0.247059 0.121569 0.576471
0.447059 0.0470588 0.568627
0.682353 0.0627451 0.596078
0.878431 0.352941 0.596078
0.133333 0.243137 0.572549
0.27451 0.262745 0.592157
0.478431 0.247059 0.6
0.709804 0.278431 0.623529
0.894118 0.447059 0.619608
0.239216 0.462745 0.603922
0.321569 0.470588 0.611765
0.52549 0.501961 0.635294
0.741176 0.537255 0.654902
0.905882 0.568627 0.631373
0.392157 0.717647 0.658824
0.462745 0.737255 0.686275
0.607843 0.74902 0.694118
0.796078 0.784314 0.717647
0.941176 0.733333 0.647059
0.580392 0.980392 0.760784
0.607843 0.976471 0.752941
0.701961 0.980392 0.745098
0.866667 0.980392 0.756863
0.988235 0.980392 0.772549
0.282353 0.258824 0.807843
0.360784 0.258824 0.823529
0.517647 0.239216 0.827451
0.733333 0.227451 0.847059
0.929412 0.298039 0.847059
0.313725 0.356863 0.835294
0.388235 0.360784 0.85098
0.54902 0.356863 0.858824
0.745098 0.345098 0.862745
0.945098 0.403922 0.862745
0.203922 0.478431 0.85098
0.32549 0.494118 0.862745
0.560784 0.541176 0.862745
0.760784 0.54902 0.878431
0.94902 0.584314 0.87451
0.384314 0.737255 0.894118
0.431373 0.737255 0.894118
0.552941 0.729412 0.890196
0.772549 0.756863 0.890196
0.964706 0.788235 0.894118
0.556863 0.972549 0.937255
0.596078 0.972549 0.945098
0.686275 0.976471 0.937255
0.827451 0.984314 0.937255
0.988235 0.988235 0.933333
