resources/LUTs/Black and White/1.cube
TITLE "B&W Preset #1"
#LUT size
LUT_3D_SIZE 5
#LUT data points
0.000000 0.000000 0.000000
0.058824 0.058824 0.058824
0.152941 0.152941 0.152941
0.282353 0.282353 0.282353
0.443137 0.443137 0.443137
0.152941 0.152941 0.152941
0.172549 0.172549 0.172549
0.239216 0.239216 0.239216
0.341176 0.341176 0.341176
0.498039 0.498039 0.498039
0.360784 0.360784 0.360784
0.360784 0.360784 0.360784
0.403922 0.403922 0.403922
0.498039 0.498039 0.498039
0.647059 0.647059 0.647059
0.623529 0.623529 0.623529
0.619608 0.619608 0.619608
0.647059 0.647059 0.647059
0.698039 0.698039 0.698039
0.803922 0.803922 0.803922
0.905882 0.905882 0.905882
0.898039 0.898039 0.898039
0.917647 0.917647 0.917647
0.941176 0.941176 0.941176
0.972549 0.972549 0.972549
0.035294 0.035294 0.035294
0.074510 0.074510 0.074510
0.184314 0.184314 0.184314
0.309804 0.309804 0.309804
0.466667 0.466667 0.466667
0.156863 0.156863 0.156863
0.188235 0.188235 0.188235
0.262745 0.262745 0.262745
0.360784 0.360784 0.360784
0.521569 0.521569 0.521569
0.380392 0.380392 0.380392
0.384314 0.384314 0.384314
0.419608 0.419608 0.419608
0.513725 0.513725 0.513725
0.658824 0.658824 0.658824
0.639216 0.639216 0.639216
0.643137 0.643137 0.643137
0.662745 0.662745 0.662745
0.705882 0.705882 0.705882
0.807843 0.807843 0.807843
0.901961 0.901961 0.901961
0.909804 0.909804 0.909804
0.921569 0.921569 0.921569
0.941176 0.941176 0.941176
0.972549 0.972549 0.972549
0.109804 0.109804 0.109804
0.137255 0.137255 0.137255
0.200000 0.200000 0.200000
0.325490 0.325490 0.325490
0.486275 0.486275 0.486275
0.223529 0.223529 0.223529
0.239216 0.239216 0.239216
0.274510 0.274510 0.274510
0.384314 0.384314 0.384314
0.541176 0.541176 0.541176
0.360784 0.360784 0.360784
0.380392 0.380392 0.380392
0.443137 0.443137 0.443137
0.525490 0.525490 0.525490
0.654902 0.654902 0.654902
0.647059 0.647059 0.647059
0.650980 0.650980 0.650980
0.682353 0.682353 0.682353
0.717647 0.717647 0.717647
0.819608 0.819608 0.819608
0.905882 0.905882 0.905882
0.909804 0.909804 0.909804
0.921569 0.921569 0.921569
0.945098 0.945098 0.945098
0.976471 0.976471 0.976471
0.223529 0.223529 0.223529
0.239216 0.239216 0.239216
0.282353 0.282353 0.282353
0.349020 0.349020 0.349020
0.505882 0.505882 0.505882
0.309804 0.309804 0.309804
0.321569 0.321569 0.321569
0.352941 0.352941 0.352941
0.407843 0.407843 0.407843
0.556863 0.556863 0.556863
0.419608 0.419608 0.419608
0.447059 0.447059 0.447059
0.501961 0.501961 0.501961
0.549020 0.549020 0.549020
0.670588 0.670588 0.670588
0.623529 0.623529 0.623529
0.635294 0.635294 0.635294
0.670588 0.670588 0.670588
0.737255 0.737255 0.737255
0.819608 0.819608 0.819608
0.909804 0.909804 0.909804
0.913725 0.913725 0.913725
0.929412 0.929412 0.929412
0.952941 0.952941 0.952941
0.992157 0.992157 0.992157
0.435294 0.435294 0.435294
0.447059 0.447059 0.447059
0.478431 0.478431 0.478431
0.537255 0.537255 0.537255
0.623529 0.623529 0.623529
0.494118 0.494118 0.494118
0.509804 0.509804 0.509804
0.529412 0.529412 0.529412
0.580392 0.580392 0.580392
0.654902 0.654902 0.654902
0.615686 0.615686 0.615686
0.627451 0.627451 0.627451
0.643137 0.643137 0.643137
0.678431 0.678431 0.678431
0.733333 0.733333 0.733333
0.733333 0.733333 0.733333
0.733333 0.733333 0.733333
0.749020 0.749020 0.749020
0.807843 0.807843 0.807843
0.847059 0.847059 0.847059
0.913725 0.913725 0.913725
0.913725 0.913725 0.913725
0.929412 0.929412 0.929412
0.956863 0.956863 0.956863
1.000000 1.000000 1.000000
