resources/LUTs/Black and White/1.cube
TITLE "B&W Preset #1"
#LUT size
LUT_3D_SIZE 9
#LUT data points
0.000000 0.000000 0.000000
0.019608 0.019608 0.019608
0.058824 0.058824 0.058824
0.098039 0.098039 0.098039
0.152941 0.152941 0.152941
0.215686 0.215686 0.215686
0.282353 0.282353 0.282353
0.352941 0.352941 0.352941
0.443137 0.443137 0.443137
0.070588 0.070588 0.070588
0.082353 0.082353 0.082353
0.105882 0.105882 0.105882
0.141176 0.141176 0.141176
0.192157 0.192157 0.192157
0.243137 0.243137 0.243137
0.305882 0.305882 0.305882
0.376471 0.376471 0.376471
0.474510 0.474510 0.474510
0.152941 0.152941 0.152941
0.152941 0.152941 0.152941
0.172549 0.172549 0.172549
0.203922 0.203922 0.203922
0.239216 0.239216 0.239216
0.286275 0.286275 0.286275
0.341176 0.341176 0.341176
0.411765 0.411765 0.411765
0.498039 0.498039 0.498039
0.262745 0.262745 0.262745
0.258824 0.258824 0.258824
0.270588 0.270588 0.270588
0.290196 0.290196 0.290196
0.329412 0.329412 0.329412
0.364706 0.364706 0.364706
0.415686 0.415686 0.415686
0.486275 0.486275 0.486275
0.580392 0.580392 0.580392
0.360784 0.360784 0.360784
0.356863 0.356863 0.356863
0.360784 0.360784 0.360784
0.380392 0.380392 0.380392
0.403922 0.403922 0.403922
0.450980 0.450980 0.450980
0.498039 0.498039 0.498039
0.564706 0.564706 0.564706
0.647059 0.647059 0.647059
0.450980 0.450980 0.450980
0.458824 0.458824 0.458824
0.462745 0.462745 0.462745
0.478431 0.478431 0.478431
0.501961 0.501961 0.501961
0.533333 0.533333 0.533333
0.596078 0.596078 0.596078
0.654902 0.654902 0.654902
0.725490 0.725490 0.725490
0.623529 0.623529 0.623529
0.615686 0.615686 0.615686
0.619608 0.619608 0.619608
0.635294 0.635294 0.635294
0.647059 0.647059 0.647059
0.674510 0.674510 0.674510
0.698039 0.698039 0.698039
0.752941 0.752941 0.752941
0.803922 0.803922 0.803922
0.760784 0.760784 0.760784
0.756863 0.756863 0.756863
0.756863 0.756863 0.756863
0.764706 0.764706 0.764706
0.780392 0.780392 0.780392
0.792157 0.792157 0.792157
0.815686 0.815686 0.815686
0.831373 0.831373 0.831373
0.870588 0.870588 0.870588
0.905882 0.905882 0.905882
0.898039 0.898039 0.898039
0.898039 0.898039 0.898039
0.905882 0.905882 0.905882
0.917647 0.917647 0.917647
0.929412 0.929412 0.929412
0.941176 0.941176 0.941176
0.956863 0.956863 0.956863
0.972549 0.972549 0.972549
0.015686 0.015686 0.015686
0.027451 0.027451 0.027451
0.074510 0.074510 0.074510
0.121569 0.121569 0.121569
0.176471 0.176471 0.176471
0.235294 0.235294 0.235294
0.301961 0.301961 0.301961
0.372549 0.372549 0.372549
0.458824 0.458824 0.458824
0.074510 0.074510 0.074510
0.094118 0.094118 0.094118
0.117647 0.117647 0.117647
0.152941 0.152941 0.152941
0.207843 0.207843 0.207843
0.262745 0.262745 0.262745
0.313725 0.313725 0.313725
0.392157 0.392157 0.392157
0.482353 0.482353 0.482353
0.164706 0.164706 0.164706
0.172549 0.172549 0.172549
0.184314 0.184314 0.184314
0.215686 0.215686 0.215686
0.250980 0.250980 0.250980
0.298039 0.298039 0.298039
0.352941 0.352941 0.352941
0.423529 0.423529 0.423529
0.513725 0.513725 0.513725
0.270588 0.270588 0.270588
0.278431 0.278431 0.278431
0.282353 0.282353 0.282353
0.301961 0.301961 0.301961
0.341176 0.341176 0.341176
0.376471 0.376471 0.376471
0.423529 0.423529 0.423529
0.490196 0.490196 0.490196
0.576471 0.576471 0.576471
0.368627 0.368627 0.368627
0.368627 0.368627 0.368627
0.372549 0.372549 0.372549
0.388235 0.388235 0.388235
0.415686 0.415686 0.415686
0.454902 0.454902 0.454902
0.509804 0.509804 0.509804
0.572549 0.572549 0.572549
0.658824 0.658824 0.658824
0.466667 0.466667 0.466667
0.470588 0.470588 0.470588
0.478431 0.478431 0.478431
0.490196 0.490196 0.490196
0.513725 0.513725 0.513725
0.541176 0.541176 0.541176
0.603922 0.603922 0.603922
0.662745 0.662745 0.662745
0.729412 0.729412 0.729412
0.627451 0.627451 0.627451
0.631373 0.631373 0.631373
0.627451 0.627451 0.627451
0.643137 0.643137 0.643137
0.662745 0.662745 0.662745
0.678431 0.678431 0.678431
0.705882 0.705882 0.705882
0.749020 0.749020 0.749020
0.811765 0.811765 0.811765
0.764706 0.764706 0.764706
0.760784 0.760784 0.760784
0.764706 0.764706 0.764706
0.772549 0.772549 0.772549
0.780392 0.780392 0.780392
0.800000 0.800000 0.800000
0.815686 0.815686 0.815686
0.835294 0.835294 0.835294
0.874510 0.874510 0.874510
0.909804 0.909804 0.909804
0.901961 0.901961 0.901961
0.905882 0.905882 0.905882
0.913725 0.913725 0.913725
0.921569 0.921569 0.921569
0.929412 0.929412 0.929412
0.937255 0.937255 0.937255
0.952941 0.952941 0.952941
0.972549 0.972549 0.972549
0.035294 0.035294 0.035294
0.047059 0.047059 0.047059
0.074510 0.074510 0.074510
0.129412 0.129412 0.129412
0.184314 0.184314 0.184314
0.247059 0.247059 0.247059
0.309804 0.309804 0.309804
0.384314 0.384314 0.384314
0.466667 0.466667 0.466667
0.098039 0.098039 0.098039
0.105882 0.105882 0.105882
0.125490 0.125490 0.125490
0.168627 0.168627 0.168627
0.219608 0.219608 0.219608
0.274510 0.274510 0.274510
0.329412 0.329412 0.329412
0.400000 0.400000 0.400000
0.494118 0.494118 0.494118
0.156863 0.156863 0.156863
0.168627 0.168627 0.168627
0.188235 0.188235 0.188235
0.223529 0.223529 0.223529
0.262745 0.262745 0.262745
0.309804 0.309804 0.309804
0.360784 0.360784 0.360784
0.435294 0.435294 0.435294
0.521569 0.521569 0.521569
0.274510 0.274510 0.274510
0.278431 0.278431 0.278431
0.294118 0.294118 0.294118
0.309804 0.309804 0.309804
0.345098 0.345098 0.345098
0.380392 0.380392 0.380392
0.431373 0.431373 0.431373
0.494118 0.494118 0.494118
0.580392 0.580392 0.580392
0.380392 0.380392 0.380392
0.376471 0.376471 0.376471
0.384314 0.384314 0.384314
0.396078 0.396078 0.396078
0.419608 0.419608 0.419608
0.462745 0.462745 0.462745
0.513725 0.513725 0.513725
0.576471 0.576471 0.576471
0.658824 0.658824 0.658824
0.482353 0.482353 0.482353
0.482353 0.482353 0.482353
0.490196 0.490196 0.490196
0.501961 0.501961 0.501961
0.525490 0.525490 0.525490
0.549020 0.549020 0.549020
0.611765 0.611765 0.611765
0.670588 0.670588 0.670588
0.733333 0.733333 0.733333
0.639216 0.639216 0.639216
0.631373 0.631373 0.631373
0.643137 0.643137 0.643137
0.650980 0.650980 0.650980
0.662745 0.662745 0.662745
0.682353 0.682353 0.682353
0.705882 0.705882 0.705882
0.756863 0.756863 0.756863
0.807843 0.807843 0.807843
0.776471 0.776471 0.776471
0.764706 0.764706 0.764706
0.768627 0.768627 0.768627
0.776471 0.776471 0.776471
0.788235 0.788235 0.788235
0.800000 0.800000 0.800000
0.819608 0.819608 0.819608
0.843137 0.843137 0.843137
0.874510 0.874510 0.874510
0.901961 0.901961 0.901961
0.905882 0.905882 0.905882
0.909804 0.909804 0.909804
0.913725 0.913725 0.913725
0.921569 0.921569 0.921569
0.925490 0.925490 0.925490
0.941176 0.941176 0.941176
0.956863 0.956863 0.956863
0.972549 0.972549 0.972549
0.070588 0.070588 0.070588
0.082353 0.082353 0.082353
0.101961 0.101961 0.101961
0.133333 0.133333 0.133333
0.188235 0.188235 0.188235
0.250980 0.250980 0.250980
0.313725 0.313725 0.313725
0.388235 0.388235 0.388235
0.470588 0.470588 0.470588
0.133333 0.133333 0.133333
0.129412 0.129412 0.129412
0.145098 0.145098 0.145098
0.168627 0.168627 0.168627
0.219608 0.219608 0.219608
0.274510 0.274510 0.274510
0.341176 0.341176 0.341176
0.407843 0.407843 0.407843
0.498039 0.498039 0.498039
0.176471 0.176471 0.176471
0.188235 0.188235 0.188235
0.215686 0.215686 0.215686
0.227451 0.227451 0.227451
0.266667 0.266667 0.266667
0.317647 0.317647 0.317647
0.372549 0.372549 0.372549
0.447059 0.447059 0.447059
0.521569 0.521569 0.521569
0.254902 0.254902 0.254902
0.266667 0.266667 0.266667
0.286275 0.286275 0.286275
0.317647 0.317647 0.317647
0.349020 0.349020 0.349020
0.388235 0.388235 0.388235
0.435294 0.435294 0.435294
0.505882 0.505882 0.505882
0.584314 0.584314 0.584314
0.380392 0.380392 0.380392
0.380392 0.380392 0.380392
0.392157 0.392157 0.392157
0.407843 0.407843 0.407843
0.427451 0.427451 0.427451
0.470588 0.470588 0.470588
0.521569 0.521569 0.521569
0.580392 0.580392 0.580392
0.658824 0.658824 0.658824
0.486275 0.486275 0.486275
0.490196 0.490196 0.490196
0.501961 0.501961 0.501961
0.509804 0.509804 0.509804
0.529412 0.529412 0.529412
0.556863 0.556863 0.556863
0.611765 0.611765 0.611765
0.670588 0.670588 0.670588
0.733333 0.733333 0.733333
0.643137 0.643137 0.643137
0.643137 0.643137 0.643137
0.643137 0.643137 0.643137
0.654902 0.654902 0.654902
0.666667 0.666667 0.666667
0.690196 0.690196 0.690196
0.709804 0.709804 0.709804
0.760784 0.760784 0.760784
0.815686 0.815686 0.815686
0.772549 0.772549 0.772549
0.772549 0.772549 0.772549
0.772549 0.772549 0.772549
0.780392 0.780392 0.780392
0.788235 0.788235 0.788235
0.803922 0.803922 0.803922
0.823529 0.823529 0.823529
0.843137 0.843137 0.843137
0.878431 0.878431 0.878431
0.909804 0.909804 0.909804
0.909804 0.909804 0.909804
0.909804 0.909804 0.909804
0.913725 0.913725 0.913725
0.921569 0.921569 0.921569
0.929412 0.929412 0.929412
0.941176 0.941176 0.941176
0.956863 0.956863 0.956863
0.976471 0.976471 0.976471
0.109804 0.109804 0.109804
0.117647 0.117647 0.117647
0.137255 0.137255 0.137255
0.164706 0.164706 0.164706
0.200000 0.200000 0.200000
0.247059 0.247059 0.247059
0.325490 0.325490 0.325490
0.396078 0.396078 0.396078
0.486275 0.486275 0.486275
0.160784 0.160784 0.160784
0.160784 0.160784 0.160784
0.176471 0.176471 0.176471
0.200000 0.200000 0.200000
0.231373 0.231373 0.231373
0.274510 0.274510 0.274510
0.345098 0.345098 0.345098
0.415686 0.415686 0.415686
0.505882 0.505882 0.505882
0.223529 0.223529 0.223529
0.231373 0.231373 0.231373
0.239216 0.239216 0.239216
0.254902 0.254902 0.254902
0.274510 0.274510 0.274510
0.317647 0.317647 0.317647
0.384314 0.384314 0.384314
0.450980 0.450980 0.450980
0.541176 0.541176 0.541176
0.274510 0.274510 0.274510
0.282353 0.282353 0.282353
0.305882 0.305882 0.305882
0.337255 0.337255 0.337255
0.356863 0.356863 0.356863
0.396078 0.396078 0.396078
0.447059 0.447059 0.447059
0.509804 0.509804 0.509804
0.584314 0.584314 0.584314
0.360784 0.360784 0.360784
0.368627 0.368627 0.368627
0.380392 0.380392 0.380392
0.403922 0.403922 0.403922
0.443137 0.443137 0.443137
0.478431 0.478431 0.478431
0.525490 0.525490 0.525490
0.584314 0.584314 0.584314
0.654902 0.654902 0.654902
0.482353 0.482353 0.482353
0.486275 0.486275 0.486275
0.498039 0.498039 0.498039
0.517647 0.517647 0.517647
0.541176 0.541176 0.541176
0.564706 0.564706 0.564706
0.619608 0.619608 0.619608
0.674510 0.674510 0.674510
0.737255 0.737255 0.737255
0.647059 0.647059 0.647059
0.643137 0.643137 0.643137
0.650980 0.650980 0.650980
0.658824 0.658824 0.658824
0.682353 0.682353 0.682353
0.694118 0.694118 0.694118
0.717647 0.717647 0.717647
0.768627 0.768627 0.768627
0.819608 0.819608 0.819608
0.776471 0.776471 0.776471
0.772549 0.772549 0.772549
0.776471 0.776471 0.776471
0.784314 0.784314 0.784314
0.792157 0.792157 0.792157
0.811765 0.811765 0.811765
0.823529 0.823529 0.823529
0.843137 0.843137 0.843137
0.890196 0.890196 0.890196
0.905882 0.905882 0.905882
0.909804 0.909804 0.909804
0.909804 0.909804 0.909804
0.917647 0.917647 0.917647
0.921569 0.921569 0.921569
0.925490 0.925490 0.925490
0.945098 0.945098 0.945098
0.960784 0.960784 0.960784
0.976471 0.976471 0.976471
0.164706 0.164706 0.164706
0.168627 0.168627 0.168627
0.184314 0.184314 0.184314
0.207843 0.207843 0.207843
0.235294 0.235294 0.235294
0.270588 0.270588 0.270588
0.321569 0.321569 0.321569
0.407843 0.407843 0.407843
0.505882 0.505882 0.505882
0.203922 0.203922 0.203922
0.211765 0.211765 0.211765
0.219608 0.219608 0.219608
0.235294 0.235294 0.235294
0.258824 0.258824 0.258824
0.294118 0.294118 0.294118
0.337255 0.337255 0.337255
0.419608 0.419608 0.419608
0.517647 0.517647 0.517647
0.266667 0.266667 0.266667
0.266667 0.266667 0.266667
0.274510 0.274510 0.274510
0.290196 0.290196 0.290196
0.309804 0.309804 0.309804
0.337255 0.337255 0.337255
0.380392 0.380392 0.380392
0.458824 0.458824 0.458824
0.549020 0.549020 0.549020
0.317647 0.317647 0.317647
0.329412 0.329412 0.329412
0.352941 0.352941 0.352941
0.368627 0.368627 0.368627
0.384314 0.384314 0.384314
0.403922 0.403922 0.403922
0.447059 0.447059 0.447059
0.521569 0.521569 0.521569
0.596078 0.596078 0.596078
0.384314 0.384314 0.384314
0.392157 0.392157 0.392157
0.411765 0.411765 0.411765
0.431373 0.431373 0.431373
0.470588 0.470588 0.470588
0.486275 0.486275 0.486275
0.529412 0.529412 0.529412
0.592157 0.592157 0.592157
0.658824 0.658824 0.658824
0.474510 0.474510 0.474510
0.474510 0.474510 0.474510
0.494118 0.494118 0.494118
0.513725 0.513725 0.513725
0.545098 0.545098 0.545098
0.588235 0.588235 0.588235
0.631373 0.631373 0.631373
0.678431 0.678431 0.678431
0.741176 0.741176 0.741176
0.643137 0.643137 0.643137
0.647059 0.647059 0.647059
0.654902 0.654902 0.654902
0.666667 0.666667 0.666667
0.686275 0.686275 0.686275
0.705882 0.705882 0.705882
0.721569 0.721569 0.721569
0.768627 0.768627 0.768627
0.819608 0.819608 0.819608
0.784314 0.784314 0.784314
0.780392 0.780392 0.780392
0.780392 0.780392 0.780392
0.792157 0.792157 0.792157
0.803922 0.803922 0.803922
0.815686 0.815686 0.815686
0.831373 0.831373 0.831373
0.850980 0.850980 0.850980
0.894118 0.894118 0.894118
0.913725 0.913725 0.913725
0.913725 0.913725 0.913725
0.917647 0.917647 0.917647
0.921569 0.921569 0.921569
0.929412 0.929412 0.929412
0.937255 0.937255 0.937255
0.945098 0.945098 0.945098
0.960784 0.960784 0.960784
0.980392 0.980392 0.980392
0.223529 0.223529 0.223529
0.231373 0.231373 0.231373
0.239216 0.239216 0.239216
0.258824 0.258824 0.258824
0.282353 0.282353 0.282353
0.313725 0.313725 0.313725
0.349020 0.349020 0.349020
0.403922 0.403922 0.403922
0.505882 0.505882 0.505882
0.250980 0.250980 0.250980
0.254902 0.254902 0.254902
0.266667 0.266667 0.266667
0.286275 0.286275 0.286275
0.301961 0.301961 0.301961
0.329412 0.329412 0.329412
0.364706 0.364706 0.364706
0.415686 0.415686 0.415686
0.521569 0.521569 0.521569
0.309804 0.309804 0.309804
0.313725 0.313725 0.313725
0.321569 0.321569 0.321569
0.333333 0.333333 0.333333
0.352941 0.352941 0.352941
0.372549 0.372549 0.372549
0.407843 0.407843 0.407843
0.450980 0.450980 0.450980
0.556863 0.556863 0.556863
0.380392 0.380392 0.380392
0.388235 0.388235 0.388235
0.392157 0.392157 0.392157
0.403922 0.403922 0.403922
0.419608 0.419608 0.419608
0.439216 0.439216 0.439216
0.466667 0.466667 0.466667
0.513725 0.513725 0.513725
0.607843 0.607843 0.607843
0.419608 0.419608 0.419608
0.423529 0.423529 0.423529
0.447059 0.447059 0.447059
0.486275 0.486275 0.486275
0.501961 0.501961 0.501961
0.517647 0.517647 0.517647
0.549020 0.549020 0.549020
0.588235 0.588235 0.588235
0.670588 0.670588 0.670588
0.509804 0.509804 0.509804
0.517647 0.517647 0.517647
0.529412 0.529412 0.529412
0.549020 0.549020 0.549020
0.572549 0.572549 0.572549
0.615686 0.615686 0.615686
0.635294 0.635294 0.635294
0.682353 0.682353 0.682353
0.741176 0.741176 0.741176
0.623529 0.623529 0.623529
0.627451 0.627451 0.627451
0.635294 0.635294 0.635294
0.650980 0.650980 0.650980
0.670588 0.670588 0.670588
0.701961 0.701961 0.701961
0.737255 0.737255 0.737255
0.772549 0.772549 0.772549
0.819608 0.819608 0.819608
0.776471 0.776471 0.776471
0.780392 0.780392 0.780392
0.784314 0.784314 0.784314
0.788235 0.788235 0.788235
0.807843 0.807843 0.807843
0.819608 0.819608 0.819608
0.839216 0.839216 0.839216
0.858824 0.858824 0.858824
0.901961 0.901961 0.901961
0.909804 0.909804 0.909804
0.909804 0.909804 0.909804
0.913725 0.913725 0.913725
0.921569 0.921569 0.921569
0.929412 0.929412 0.929412
0.937255 0.937255 0.937255
0.952941 0.952941 0.952941
0.964706 0.964706 0.964706
0.992157 0.992157 0.992157
0.301961 0.301961 0.301961
0.309804 0.309804 0.309804
0.317647 0.317647 0.317647
0.333333 0.333333 0.333333
0.352941 0.352941 0.352941
0.380392 0.380392 0.380392
0.411765 0.411765 0.411765
0.454902 0.454902 0.454902
0.509804 0.509804 0.509804
0.325490 0.325490 0.325490
0.329412 0.329412 0.329412
0.337255 0.337255 0.337255
0.352941 0.352941 0.352941
0.372549 0.372549 0.372549
0.396078 0.396078 0.396078
0.427451 0.427451 0.427451
0.470588 0.470588 0.470588
0.521569 0.521569 0.521569
0.372549 0.372549 0.372549
0.380392 0.380392 0.380392
0.380392 0.380392 0.380392
0.396078 0.396078 0.396078
0.415686 0.415686 0.415686
0.435294 0.435294 0.435294
0.466667 0.466667 0.466667
0.505882 0.505882 0.505882
0.552941 0.552941 0.552941
0.443137 0.443137 0.443137
0.447059 0.447059 0.447059
0.450980 0.450980 0.450980
0.462745 0.462745 0.462745
0.478431 0.478431 0.478431
0.498039 0.498039 0.498039
0.525490 0.525490 0.525490
0.556863 0.556863 0.556863
0.600000 0.600000 0.600000
0.498039 0.498039 0.498039
0.509804 0.509804 0.509804
0.525490 0.525490 0.525490
0.541176 0.541176 0.541176
0.556863 0.556863 0.556863
0.568627 0.568627 0.568627
0.592157 0.592157 0.592157
0.619608 0.619608 0.619608
0.670588 0.670588 0.670588
0.560784 0.560784 0.560784
0.564706 0.564706 0.564706
0.568627 0.568627 0.568627
0.588235 0.588235 0.588235
0.635294 0.635294 0.635294
0.658824 0.658824 0.658824
0.674510 0.674510 0.674510
0.698039 0.698039 0.698039
0.737255 0.737255 0.737255
0.666667 0.666667 0.666667
0.670588 0.670588 0.670588
0.674510 0.674510 0.674510
0.690196 0.690196 0.690196
0.705882 0.705882 0.705882
0.725490 0.725490 0.725490
0.764706 0.764706 0.764706
0.780392 0.780392 0.780392
0.823529 0.823529 0.823529
0.760784 0.760784 0.760784
0.768627 0.768627 0.768627
0.776471 0.776471 0.776471
0.780392 0.780392 0.780392
0.792157 0.792157 0.792157
0.811765 0.811765 0.811765
0.835294 0.835294 0.835294
0.870588 0.870588 0.870588
0.913725 0.913725 0.913725
0.901961 0.901961 0.901961
0.909804 0.909804 0.909804
0.913725 0.913725 0.913725
0.917647 0.917647 0.917647
0.925490 0.925490 0.925490
0.941176 0.941176 0.941176
0.956863 0.956863 0.956863
0.968627 0.968627 0.968627
0.992157 0.992157 0.992157
0.435294 0.435294 0.435294
0.439216 0.439216 0.439216
0.447059 0.447059 0.447059
0.458824 0.458824 0.458824
0.478431 0.478431 0.478431
0.505882 0.505882 0.505882
0.537255 0.537255 0.537255
0.572549 0.572549 0.572549
0.623529 0.623529 0.623529
0.458824 0.458824 0.458824
0.458824 0.458824 0.458824
0.466667 0.466667 0.466667
0.478431 0.478431 0.478431
0.494118 0.494118 0.494118
0.517647 0.517647 0.517647
0.549020 0.549020 0.549020
0.584314 0.584314 0.584314
0.631373 0.631373 0.631373
0.494118 0.494118 0.494118
0.501961 0.501961 0.501961
0.509804 0.509804 0.509804
0.513725 0.513725 0.513725
0.529412 0.529412 0.529412
0.556863 0.556863 0.556863
0.580392 0.580392 0.580392
0.611765 0.611765 0.611765
0.654902 0.654902 0.654902
0.556863 0.556863 0.556863
0.556863 0.556863 0.556863
0.564706 0.564706 0.564706
0.572549 0.572549 0.572549
0.588235 0.588235 0.588235
0.600000 0.600000 0.600000
0.623529 0.623529 0.623529
0.650980 0.650980 0.650980
0.690196 0.690196 0.690196
0.615686 0.615686 0.615686
0.627451 0.627451 0.627451
0.627451 0.627451 0.627451
0.635294 0.635294 0.635294
0.643137 0.643137 0.643137
0.662745 0.662745 0.662745
0.678431 0.678431 0.678431
0.701961 0.701961 0.701961
0.733333 0.733333 0.733333
0.647059 0.647059 0.647059
0.654902 0.654902 0.654902
0.670588 0.670588 0.670588
0.690196 0.690196 0.690196
0.713725 0.713725 0.713725
0.725490 0.725490 0.725490
0.741176 0.741176 0.741176
0.760784 0.760784 0.760784
0.788235 0.788235 0.788235
0.733333 0.733333 0.733333
0.733333 0.733333 0.733333
0.733333 0.733333 0.733333
0.741176 0.741176 0.741176
0.749020 0.749020 0.749020
0.784314 0.784314 0.784314
0.807843 0.807843 0.807843
0.827451 0.827451 0.827451
0.847059 0.847059 0.847059
0.831373 0.831373 0.831373
0.831373 0.831373 0.831373
0.835294 0.835294 0.835294
0.835294 0.835294 0.835294
0.847059 0.847059 0.847059
0.854902 0.854902 0.854902
0.870588 0.870588 0.870588
0.901961 0.901961 0.901961
0.925490 0.925490 0.925490
0.913725 0.913725 0.913725
0.917647 0.917647 0.917647
0.913725 0.913725 0.913725
0.921569 0.921569 0.921569
0.929412 0.929412 0.929412
0.937255 0.937255 0.937255
0.956863 0.956863 0.956863
0.976471 0.976471 0.976471
1.000000 1.000000 1.000000
