resources/LUTs/Black and White/10.cube
TITLE "B&W Preset #10"
#LUT size
LUT_3D_SIZE 9
#LUT data points
0.000000 0.000000 0.000000
0.015686 0.015686 0.015686
0.050980 0.050980 0.050980
0.094118 0.094118 0.094118
0.152941 0.152941 0.152941
0.215686 0.215686 0.215686
0.290196 0.290196 0.290196
0.380392 0.380392 0.380392
0.494118 0.494118 0.494118
0.062745 0.062745 0.062745
0.070588 0.070588 0.070588
0.101961 0.101961 0.101961
0.137255 0.137255 0.137255
0.184314 0.184314 0.184314
0.243137 0.243137 0.243137
0.317647 0.317647 0.317647
0.403922 0.403922 0.403922
0.525490 0.525490 0.525490
0.152941 0.152941 0.152941
0.156863 0.156863 0.156863
0.176471 0.176471 0.176471
0.215686 0.215686 0.215686
0.250980 0.250980 0.250980
0.298039 0.298039 0.298039
0.364706 0.364706 0.364706
0.450980 0.450980 0.450980
0.564706 0.564706 0.564706
0.274510 0.274510 0.274510
0.274510 0.274510 0.274510
0.286275 0.286275 0.286275
0.305882 0.305882 0.305882
0.352941 0.352941 0.352941
0.396078 0.396078 0.396078
0.454902 0.454902 0.454902
0.537255 0.537255 0.537255
0.639216 0.639216 0.639216
0.403922 0.403922 0.403922
0.403922 0.403922 0.403922
0.411765 0.411765 0.411765
0.427451 0.427451 0.427451
0.450980 0.450980 0.450980
0.509804 0.509804 0.509804
0.560784 0.560784 0.560784
0.631373 0.631373 0.631373
0.713725 0.713725 0.713725
0.537255 0.537255 0.537255
0.545098 0.545098 0.545098
0.552941 0.552941 0.552941
0.564706 0.564706 0.564706
0.588235 0.588235 0.588235
0.619608 0.619608 0.619608
0.662745 0.662745 0.662745
0.733333 0.733333 0.733333
0.792157 0.792157 0.792157
0.709804 0.709804 0.709804
0.705882 0.705882 0.705882
0.705882 0.705882 0.705882
0.717647 0.717647 0.717647
0.729412 0.729412 0.729412
0.752941 0.752941 0.752941
0.764706 0.764706 0.764706
0.800000 0.800000 0.800000
0.862745 0.862745 0.862745
0.835294 0.835294 0.835294
0.831373 0.831373 0.831373
0.831373 0.831373 0.831373
0.843137 0.843137 0.843137
0.854902 0.854902 0.854902
0.862745 0.862745 0.862745
0.870588 0.870588 0.870588
0.890196 0.890196 0.890196
0.917647 0.917647 0.917647
0.941176 0.941176 0.941176
0.945098 0.945098 0.945098
0.941176 0.941176 0.941176
0.945098 0.945098 0.945098
0.952941 0.952941 0.952941
0.956863 0.956863 0.956863
0.964706 0.964706 0.964706
0.976471 0.976471 0.976471
0.988235 0.988235 0.988235
0.015686 0.015686 0.015686
0.023529 0.023529 0.023529
0.062745 0.062745 0.062745
0.117647 0.117647 0.117647
0.172549 0.172549 0.172549
0.235294 0.235294 0.235294
0.305882 0.305882 0.305882
0.396078 0.396078 0.396078
0.509804 0.509804 0.509804
0.066667 0.066667 0.066667
0.086275 0.086275 0.086275
0.109804 0.109804 0.109804
0.152941 0.152941 0.152941
0.207843 0.207843 0.207843
0.262745 0.262745 0.262745
0.329412 0.329412 0.329412
0.415686 0.415686 0.415686
0.533333 0.533333 0.533333
0.164706 0.164706 0.164706
0.180392 0.180392 0.180392
0.184314 0.184314 0.184314
0.219608 0.219608 0.219608
0.258824 0.258824 0.258824
0.309804 0.309804 0.309804
0.376471 0.376471 0.376471
0.462745 0.462745 0.462745
0.572549 0.572549 0.572549
0.282353 0.282353 0.282353
0.286275 0.286275 0.286275
0.298039 0.298039 0.298039
0.317647 0.317647 0.317647
0.360784 0.360784 0.360784
0.403922 0.403922 0.403922
0.466667 0.466667 0.466667
0.541176 0.541176 0.541176
0.643137 0.643137 0.643137
0.415686 0.415686 0.415686
0.411765 0.411765 0.411765
0.419608 0.419608 0.419608
0.439216 0.439216 0.439216
0.466667 0.466667 0.466667
0.513725 0.513725 0.513725
0.568627 0.568627 0.568627
0.635294 0.635294 0.635294
0.721569 0.721569 0.721569
0.545098 0.545098 0.545098
0.552941 0.552941 0.552941
0.560784 0.560784 0.560784
0.568627 0.568627 0.568627
0.588235 0.588235 0.588235
0.619608 0.619608 0.619608
0.670588 0.670588 0.670588
0.733333 0.733333 0.733333
0.792157 0.792157 0.792157
0.709804 0.709804 0.709804
0.709804 0.709804 0.709804
0.709804 0.709804 0.709804
0.721569 0.721569 0.721569
0.733333 0.733333 0.733333
0.749020 0.749020 0.749020
0.772549 0.772549 0.772549
0.803922 0.803922 0.803922
0.866667 0.866667 0.866667
0.831373 0.831373 0.831373
0.835294 0.835294 0.835294
0.843137 0.843137 0.843137
0.843137 0.843137 0.843137
0.850980 0.850980 0.850980
0.858824 0.858824 0.858824
0.878431 0.878431 0.878431
0.890196 0.890196 0.890196
0.913725 0.913725 0.913725
0.941176 0.941176 0.941176
0.937255 0.937255 0.937255
0.941176 0.941176 0.941176
0.949020 0.949020 0.949020
0.949020 0.949020 0.949020
0.956863 0.956863 0.956863
0.964706 0.964706 0.964706
0.972549 0.972549 0.972549
0.988235 0.988235 0.988235
0.031373 0.031373 0.031373
0.047059 0.047059 0.047059
0.070588 0.070588 0.070588
0.117647 0.117647 0.117647
0.184314 0.184314 0.184314
0.250980 0.250980 0.250980
0.325490 0.325490 0.325490
0.407843 0.407843 0.407843
0.521569 0.521569 0.521569
0.094118 0.094118 0.094118
0.105882 0.105882 0.105882
0.121569 0.121569 0.121569
0.156863 0.156863 0.156863
0.215686 0.215686 0.215686
0.278431 0.278431 0.278431
0.345098 0.345098 0.345098
0.431373 0.431373 0.431373
0.541176 0.541176 0.541176
0.156863 0.156863 0.156863
0.168627 0.168627 0.168627
0.196078 0.196078 0.196078
0.231373 0.231373 0.231373
0.274510 0.274510 0.274510
0.325490 0.325490 0.325490
0.388235 0.388235 0.388235
0.478431 0.478431 0.478431
0.580392 0.580392 0.580392
0.282353 0.282353 0.282353
0.286275 0.286275 0.286275
0.309804 0.309804 0.309804
0.325490 0.325490 0.325490
0.364706 0.364706 0.364706
0.407843 0.407843 0.407843
0.470588 0.470588 0.470588
0.549020 0.549020 0.549020
0.647059 0.647059 0.647059
0.419608 0.419608 0.419608
0.423529 0.423529 0.423529
0.431373 0.431373 0.431373
0.443137 0.443137 0.443137
0.470588 0.470588 0.470588
0.513725 0.513725 0.513725
0.576471 0.576471 0.576471
0.643137 0.643137 0.643137
0.717647 0.717647 0.717647
0.560784 0.560784 0.560784
0.564706 0.564706 0.564706
0.568627 0.568627 0.568627
0.580392 0.580392 0.580392
0.600000 0.600000 0.600000
0.627451 0.627451 0.627451
0.678431 0.678431 0.678431
0.737255 0.737255 0.737255
0.796078 0.796078 0.796078
0.713725 0.713725 0.713725
0.713725 0.713725 0.713725
0.721569 0.721569 0.721569
0.729412 0.729412 0.729412
0.737255 0.737255 0.737255
0.752941 0.752941 0.752941
0.776471 0.776471 0.776471
0.811765 0.811765 0.811765
0.862745 0.862745 0.862745
0.839216 0.839216 0.839216
0.839216 0.839216 0.839216
0.839216 0.839216 0.839216
0.847059 0.847059 0.847059
0.854902 0.854902 0.854902
0.866667 0.866667 0.866667
0.874510 0.874510 0.874510
0.894118 0.894118 0.894118
0.913725 0.913725 0.913725
0.941176 0.941176 0.941176
0.941176 0.941176 0.941176
0.949020 0.949020 0.949020
0.949020 0.949020 0.949020
0.952941 0.952941 0.952941
0.952941 0.952941 0.952941
0.964706 0.964706 0.964706
0.972549 0.972549 0.972549
0.984314 0.984314 0.984314
0.074510 0.074510 0.074510
0.082353 0.082353 0.082353
0.105882 0.105882 0.105882
0.137255 0.137255 0.137255
0.180392 0.180392 0.180392
0.250980 0.250980 0.250980
0.329412 0.329412 0.329412
0.423529 0.423529 0.423529
0.529412 0.529412 0.529412
0.137255 0.137255 0.137255
0.133333 0.133333 0.133333
0.149020 0.149020 0.149020
0.176471 0.176471 0.176471
0.211765 0.211765 0.211765
0.278431 0.278431 0.278431
0.352941 0.352941 0.352941
0.443137 0.443137 0.443137
0.552941 0.552941 0.552941
0.180392 0.180392 0.180392
0.196078 0.196078 0.196078
0.227451 0.227451 0.227451
0.243137 0.243137 0.243137
0.274510 0.274510 0.274510
0.337255 0.337255 0.337255
0.403922 0.403922 0.403922
0.490196 0.490196 0.490196
0.584314 0.584314 0.584314
0.270588 0.270588 0.270588
0.278431 0.278431 0.278431
0.301961 0.301961 0.301961
0.337255 0.337255 0.337255
0.372549 0.372549 0.372549
0.419608 0.419608 0.419608
0.486275 0.486275 0.486275
0.560784 0.560784 0.560784
0.654902 0.654902 0.654902
0.411765 0.411765 0.411765
0.415686 0.415686 0.415686
0.431373 0.431373 0.431373
0.454902 0.454902 0.454902
0.482353 0.482353 0.482353
0.529412 0.529412 0.529412
0.584314 0.584314 0.584314
0.647059 0.647059 0.647059
0.725490 0.725490 0.725490
0.560784 0.560784 0.560784
0.564706 0.564706 0.564706
0.576471 0.576471 0.576471
0.596078 0.596078 0.596078
0.611765 0.611765 0.611765
0.635294 0.635294 0.635294
0.682353 0.682353 0.682353
0.741176 0.741176 0.741176
0.800000 0.800000 0.800000
0.717647 0.717647 0.717647
0.725490 0.725490 0.725490
0.725490 0.725490 0.725490
0.733333 0.733333 0.733333
0.745098 0.745098 0.745098
0.760784 0.760784 0.760784
0.780392 0.780392 0.780392
0.819608 0.819608 0.819608
0.866667 0.866667 0.866667
0.843137 0.843137 0.843137
0.835294 0.835294 0.835294
0.847059 0.847059 0.847059
0.850980 0.850980 0.850980
0.858824 0.858824 0.858824
0.866667 0.866667 0.866667
0.882353 0.882353 0.882353
0.901961 0.901961 0.901961
0.913725 0.913725 0.913725
0.941176 0.941176 0.941176
0.945098 0.945098 0.945098
0.949020 0.949020 0.949020
0.949020 0.949020 0.949020
0.952941 0.952941 0.952941
0.960784 0.960784 0.960784
0.964706 0.964706 0.964706
0.976471 0.976471 0.976471
0.988235 0.988235 0.988235
0.121569 0.121569 0.121569
0.129412 0.129412 0.129412
0.149020 0.149020 0.149020
0.176471 0.176471 0.176471
0.211765 0.211765 0.211765
0.254902 0.254902 0.254902
0.329412 0.329412 0.329412
0.435294 0.435294 0.435294
0.537255 0.537255 0.537255
0.172549 0.172549 0.172549
0.176471 0.176471 0.176471
0.192157 0.192157 0.192157
0.211765 0.211765 0.211765
0.239216 0.239216 0.239216
0.282353 0.282353 0.282353
0.356863 0.356863 0.356863
0.454902 0.454902 0.454902
0.560784 0.560784 0.560784
0.247059 0.247059 0.247059
0.250980 0.250980 0.250980
0.262745 0.262745 0.262745
0.278431 0.278431 0.278431
0.301961 0.301961 0.301961
0.337255 0.337255 0.337255
0.407843 0.407843 0.407843
0.501961 0.501961 0.501961
0.600000 0.600000 0.600000
0.294118 0.294118 0.294118
0.298039 0.298039 0.298039
0.329412 0.329412 0.329412
0.372549 0.372549 0.372549
0.396078 0.396078 0.396078
0.427451 0.427451 0.427451
0.494118 0.494118 0.494118
0.572549 0.572549 0.572549
0.650980 0.650980 0.650980
0.400000 0.400000 0.400000
0.400000 0.400000 0.400000
0.423529 0.423529 0.423529
0.454902 0.454902 0.454902
0.498039 0.498039 0.498039
0.533333 0.533333 0.533333
0.592157 0.592157 0.592157
0.654902 0.654902 0.654902
0.729412 0.729412 0.729412
0.541176 0.541176 0.541176
0.545098 0.545098 0.545098
0.564706 0.564706 0.564706
0.592157 0.592157 0.592157
0.615686 0.615686 0.615686
0.647059 0.647059 0.647059
0.694118 0.694118 0.694118
0.741176 0.741176 0.741176
0.803922 0.803922 0.803922
0.713725 0.713725 0.713725
0.713725 0.713725 0.713725
0.721569 0.721569 0.721569
0.733333 0.733333 0.733333
0.752941 0.752941 0.752941
0.768627 0.768627 0.768627
0.788235 0.788235 0.788235
0.827451 0.827451 0.827451
0.874510 0.874510 0.874510
0.839216 0.839216 0.839216
0.835294 0.835294 0.835294
0.847059 0.847059 0.847059
0.854902 0.854902 0.854902
0.862745 0.862745 0.862745
0.874510 0.874510 0.874510
0.882353 0.882353 0.882353
0.898039 0.898039 0.898039
0.929412 0.929412 0.929412
0.949020 0.949020 0.949020
0.945098 0.945098 0.945098
0.945098 0.945098 0.945098
0.949020 0.949020 0.949020
0.952941 0.952941 0.952941
0.960784 0.960784 0.960784
0.968627 0.968627 0.968627
0.976471 0.976471 0.976471
0.988235 0.988235 0.988235
0.180392 0.180392 0.180392
0.188235 0.188235 0.188235
0.203922 0.203922 0.203922
0.223529 0.223529 0.223529
0.254902 0.254902 0.254902
0.294118 0.294118 0.294118
0.349020 0.349020 0.349020
0.423529 0.423529 0.423529
0.552941 0.552941 0.552941
0.223529 0.223529 0.223529
0.227451 0.227451 0.227451
0.239216 0.239216 0.239216
0.258824 0.258824 0.258824
0.282353 0.282353 0.282353
0.317647 0.317647 0.317647
0.364706 0.364706 0.364706
0.447059 0.447059 0.447059
0.568627 0.568627 0.568627
0.298039 0.298039 0.298039
0.298039 0.298039 0.298039
0.305882 0.305882 0.305882
0.317647 0.317647 0.317647
0.345098 0.345098 0.345098
0.372549 0.372549 0.372549
0.411765 0.411765 0.411765
0.494118 0.494118 0.494118
0.607843 0.607843 0.607843
0.349020 0.349020 0.349020
0.368627 0.368627 0.368627
0.396078 0.396078 0.396078
0.415686 0.415686 0.415686
0.435294 0.435294 0.435294
0.458824 0.458824 0.458824
0.494118 0.494118 0.494118
0.568627 0.568627 0.568627
0.666667 0.666667 0.666667
0.435294 0.435294 0.435294
0.439216 0.439216 0.439216
0.454902 0.454902 0.454902
0.490196 0.490196 0.490196
0.545098 0.545098 0.545098
0.560784 0.560784 0.560784
0.592157 0.592157 0.592157
0.658824 0.658824 0.658824
0.729412 0.729412 0.729412
0.545098 0.545098 0.545098
0.549020 0.549020 0.549020
0.564706 0.564706 0.564706
0.588235 0.588235 0.588235
0.619608 0.619608 0.619608
0.658824 0.658824 0.658824
0.698039 0.698039 0.698039
0.745098 0.745098 0.745098
0.803922 0.803922 0.803922
0.690196 0.690196 0.690196
0.701961 0.701961 0.701961
0.705882 0.705882 0.705882
0.725490 0.725490 0.725490
0.756863 0.756863 0.756863
0.776471 0.776471 0.776471
0.792157 0.792157 0.792157
0.831373 0.831373 0.831373
0.878431 0.878431 0.878431
0.843137 0.843137 0.843137
0.843137 0.843137 0.843137
0.843137 0.843137 0.843137
0.850980 0.850980 0.850980
0.862745 0.862745 0.862745
0.882353 0.882353 0.882353
0.890196 0.890196 0.890196
0.905882 0.905882 0.905882
0.937255 0.937255 0.937255
0.945098 0.945098 0.945098
0.949020 0.949020 0.949020
0.949020 0.949020 0.949020
0.952941 0.952941 0.952941
0.956863 0.956863 0.956863
0.964706 0.964706 0.964706
0.968627 0.968627 0.968627
0.976471 0.976471 0.976471
0.984314 0.984314 0.984314
0.254902 0.254902 0.254902
0.262745 0.262745 0.262745
0.270588 0.270588 0.270588
0.294118 0.294118 0.294118
0.321569 0.321569 0.321569
0.352941 0.352941 0.352941
0.396078 0.396078 0.396078
0.454902 0.454902 0.454902
0.537255 0.537255 0.537255
0.286275 0.286275 0.286275
0.290196 0.290196 0.290196
0.305882 0.305882 0.305882
0.321569 0.321569 0.321569
0.345098 0.345098 0.345098
0.380392 0.380392 0.380392
0.411765 0.411765 0.411765
0.466667 0.466667 0.466667
0.560784 0.560784 0.560784
0.352941 0.352941 0.352941
0.356863 0.356863 0.356863
0.360784 0.360784 0.360784
0.380392 0.380392 0.380392
0.403922 0.403922 0.403922
0.427451 0.427451 0.427451
0.466667 0.466667 0.466667
0.517647 0.517647 0.517647
0.600000 0.600000 0.600000
0.450980 0.450980 0.450980
0.447059 0.447059 0.447059
0.454902 0.454902 0.454902
0.470588 0.470588 0.470588
0.486275 0.486275 0.486275
0.509804 0.509804 0.509804
0.541176 0.541176 0.541176
0.584314 0.584314 0.584314
0.658824 0.658824 0.658824
0.486275 0.486275 0.486275
0.501961 0.501961 0.501961
0.525490 0.525490 0.525490
0.568627 0.568627 0.568627
0.588235 0.588235 0.588235
0.603922 0.603922 0.603922
0.627451 0.627451 0.627451
0.658824 0.658824 0.658824
0.729412 0.729412 0.729412
0.588235 0.588235 0.588235
0.592157 0.592157 0.592157
0.603922 0.603922 0.603922
0.623529 0.623529 0.623529
0.654902 0.654902 0.654902
0.701961 0.701961 0.701961
0.721569 0.721569 0.721569
0.745098 0.745098 0.745098
0.800000 0.800000 0.800000
0.701961 0.701961 0.701961
0.701961 0.701961 0.701961
0.709804 0.709804 0.709804
0.725490 0.725490 0.725490
0.745098 0.745098 0.745098
0.772549 0.772549 0.772549
0.803922 0.803922 0.803922
0.835294 0.835294 0.835294
0.878431 0.878431 0.878431
0.819608 0.819608 0.819608
0.827451 0.827451 0.827451
0.827451 0.827451 0.827451
0.839216 0.839216 0.839216
0.862745 0.862745 0.862745
0.878431 0.878431 0.878431
0.894118 0.894118 0.894118
0.909804 0.909804 0.909804
0.941176 0.941176 0.941176
0.949020 0.949020 0.949020
0.941176 0.941176 0.941176
0.941176 0.941176 0.941176
0.949020 0.949020 0.949020
0.960784 0.960784 0.960784
0.960784 0.960784 0.960784
0.972549 0.972549 0.972549
0.980392 0.980392 0.980392
0.988235 0.988235 0.988235
0.356863 0.356863 0.356863
0.368627 0.368627 0.368627
0.376471 0.376471 0.376471
0.392157 0.392157 0.392157
0.419608 0.419608 0.419608
0.450980 0.450980 0.450980
0.490196 0.490196 0.490196
0.533333 0.533333 0.533333
0.592157 0.592157 0.592157
0.384314 0.384314 0.384314
0.392157 0.392157 0.392157
0.400000 0.400000 0.400000
0.415686 0.415686 0.415686
0.443137 0.443137 0.443137
0.470588 0.470588 0.470588
0.509804 0.509804 0.509804
0.549020 0.549020 0.549020
0.603922 0.603922 0.603922
0.439216 0.439216 0.439216
0.450980 0.450980 0.450980
0.458824 0.458824 0.458824
0.470588 0.470588 0.470588
0.490196 0.490196 0.490196
0.517647 0.517647 0.517647
0.552941 0.552941 0.552941
0.588235 0.588235 0.588235
0.635294 0.635294 0.635294
0.529412 0.529412 0.529412
0.537255 0.537255 0.537255
0.541176 0.541176 0.541176
0.552941 0.552941 0.552941
0.568627 0.568627 0.568627
0.588235 0.588235 0.588235
0.611765 0.611765 0.611765
0.643137 0.643137 0.643137
0.682353 0.682353 0.682353
0.603922 0.603922 0.603922
0.611765 0.611765 0.611765
0.631373 0.631373 0.631373
0.635294 0.635294 0.635294
0.647059 0.647059 0.647059
0.666667 0.666667 0.666667
0.686275 0.686275 0.686275
0.705882 0.705882 0.705882
0.745098 0.745098 0.745098
0.635294 0.635294 0.635294
0.639216 0.639216 0.639216
0.658824 0.658824 0.658824
0.682353 0.682353 0.682353
0.725490 0.725490 0.725490
0.745098 0.745098 0.745098
0.760784 0.760784 0.760784
0.776471 0.776471 0.776471
0.803922 0.803922 0.803922
0.741176 0.741176 0.741176
0.745098 0.745098 0.745098
0.749020 0.749020 0.749020
0.756863 0.756863 0.756863
0.776471 0.776471 0.776471
0.800000 0.800000 0.800000
0.839216 0.839216 0.839216
0.850980 0.850980 0.850980
0.870588 0.870588 0.870588
0.835294 0.835294 0.835294
0.831373 0.831373 0.831373
0.835294 0.835294 0.835294
0.843137 0.843137 0.843137
0.854902 0.854902 0.854902
0.870588 0.870588 0.870588
0.890196 0.890196 0.890196
0.917647 0.917647 0.917647
0.945098 0.945098 0.945098
0.925490 0.925490 0.925490
0.929412 0.929412 0.929412
0.933333 0.933333 0.933333
0.937255 0.937255 0.937255
0.945098 0.945098 0.945098
0.960784 0.960784 0.960784
0.968627 0.968627 0.968627
0.980392 0.980392 0.980392
0.992157 0.992157 0.992157
0.521569 0.521569 0.521569
0.521569 0.521569 0.521569
0.533333 0.533333 0.533333
0.545098 0.545098 0.545098
0.568627 0.568627 0.568627
0.596078 0.596078 0.596078
0.623529 0.623529 0.623529
0.658824 0.658824 0.658824
0.694118 0.694118 0.694118
0.549020 0.549020 0.549020
0.545098 0.545098 0.545098
0.552941 0.552941 0.552941
0.568627 0.568627 0.568627
0.588235 0.588235 0.588235
0.607843 0.607843 0.607843
0.639216 0.639216 0.639216
0.670588 0.670588 0.670588
0.701961 0.701961 0.701961
0.588235 0.588235 0.588235
0.592157 0.592157 0.592157
0.603922 0.603922 0.603922
0.607843 0.607843 0.607843
0.627451 0.627451 0.627451
0.647059 0.647059 0.647059
0.670588 0.670588 0.670588
0.694118 0.694118 0.694118
0.721569 0.721569 0.721569
0.650980 0.650980 0.650980
0.650980 0.650980 0.650980
0.654902 0.654902 0.654902
0.662745 0.662745 0.662745
0.678431 0.678431 0.678431
0.690196 0.690196 0.690196
0.705882 0.705882 0.705882
0.733333 0.733333 0.733333
0.756863 0.756863 0.756863
0.717647 0.717647 0.717647
0.713725 0.713725 0.713725
0.717647 0.717647 0.717647
0.721569 0.721569 0.721569
0.729412 0.729412 0.729412
0.749020 0.749020 0.749020
0.756863 0.756863 0.756863
0.776471 0.776471 0.776471
0.796078 0.796078 0.796078
0.749020 0.749020 0.749020
0.752941 0.752941 0.752941
0.768627 0.768627 0.768627
0.784314 0.784314 0.784314
0.796078 0.796078 0.796078
0.800000 0.800000 0.800000
0.811765 0.811765 0.811765
0.827451 0.827451 0.827451
0.843137 0.843137 0.843137
0.796078 0.796078 0.796078
0.800000 0.800000 0.800000
0.800000 0.800000 0.800000
0.803922 0.803922 0.803922
0.831373 0.831373 0.831373
0.858824 0.858824 0.858824
0.866667 0.866667 0.866667
0.886275 0.886275 0.886275
0.898039 0.898039 0.898039
0.886275 0.886275 0.886275
0.882353 0.882353 0.882353
0.886275 0.886275 0.886275
0.890196 0.890196 0.890196
0.898039 0.898039 0.898039
0.901961 0.901961 0.901961
0.917647 0.917647 0.917647
0.949020 0.949020 0.949020
0.960784 0.960784 0.960784
0.949020 0.949020 0.949020
0.949020 0.949020 0.949020
0.952941 0.952941 0.952941
0.956863 0.956863 0.956863
0.960784 0.960784 0.960784
0.968627 0.968627 0.968627
0.980392 0.980392 0.980392
0.992157 0.992157 0.992157
1.000000 1.000000 1.000000
