resources/LUTs/Black and White/10.cube
TITLE "B&W Preset #10"
#LUT size
LUT_3D_SIZE 5
#LUT data points
0.000000 0.000000 0.000000
0.050980 0.050980 0.050980
0.152941 0.152941 0.152941
0.290196 0.290196 0.290196
0.494118 0.494118 0.494118
0.152941 0.152941 0.152941
0.176471 0.176471 0.176471
0.250980 0.250980 0.250980
0.364706 0.364706 0.364706
0.564706 0.564706 0.564706
0.403922 0.403922 0.403922
0.411765 0.411765 0.411765
0.450980 0.450980 0.450980
0.560784 0.560784 0.560784
0.713725 0.713725 0.713725
0.709804 0.709804 0.709804
0.705882 0.705882 0.705882
0.729412 0.729412 0.729412
0.764706 0.764706 0.764706
0.862745 0.862745 0.862745
0.941176 0.941176 0.941176
0.941176 0.941176 0.941176
0.952941 0.952941 0.952941
0.964706 0.964706 0.964706
0.988235 0.988235 0.988235
0.031373 0.031373 0.031373
0.070588 0.070588 0.070588
0.184314 0.184314 0.184314
0.325490 0.325490 0.325490
0.521569 0.521569 0.521569
0.156863 0.156863 0.156863
0.196078 0.196078 0.196078
0.274510 0.274510 0.274510
0.388235 0.388235 0.388235
0.580392 0.580392 0.580392
0.419608 0.419608 0.419608
0.431373 0.431373 0.431373
0.470588 0.470588 0.470588
0.576471 0.576471 0.576471
0.717647 0.717647 0.717647
0.713725 0.713725 0.713725
0.721569 0.721569 0.721569
0.737255 0.737255 0.737255
0.776471 0.776471 0.776471
0.862745 0.862745 0.862745
0.941176 0.941176 0.941176
0.949020 0.949020 0.949020
0.952941 0.952941 0.952941
0.964706 0.964706 0.964706
0.984314 0.984314 0.984314
0.121569 0.121569 0.121569
0.149020 0.149020 0.149020
0.211765 0.211765 0.211765
0.329412 0.329412 0.329412
0.537255 0.537255 0.537255
0.247059 0.247059 0.247059
0.262745 0.262745 0.262745
0.301961 0.301961 0.301961
0.407843 0.407843 0.407843
0.600000 0.600000 0.600000
0.400000 0.400000 0.400000
0.423529 0.423529 0.423529
0.498039 0.498039 0.498039
0.592157 0.592157 0.592157
0.729412 0.729412 0.729412
0.713725 0.713725 0.713725
0.721569 0.721569 0.721569
0.752941 0.752941 0.752941
0.788235 0.788235 0.788235
0.874510 0.874510 0.874510
0.949020 0.949020 0.949020
0.945098 0.945098 0.945098
0.952941 0.952941 0.952941
0.968627 0.968627 0.968627
0.988235 0.988235 0.988235
0.254902 0.254902 0.254902
0.270588 0.270588 0.270588
0.321569 0.321569 0.321569
0.396078 0.396078 0.396078
0.537255 0.537255 0.537255
0.352941 0.352941 0.352941
0.360784 0.360784 0.360784
0.403922 0.403922 0.403922
0.466667 0.466667 0.466667
0.600000 0.600000 0.600000
0.486275 0.486275 0.486275
0.525490 0.525490 0.525490
0.588235 0.588235 0.588235
0.627451 0.627451 0.627451
0.729412 0.729412 0.729412
0.701961 0.701961 0.701961
0.709804 0.709804 0.709804
0.745098 0.745098 0.745098
0.803922 0.803922 0.803922
0.878431 0.878431 0.878431
0.949020 0.949020 0.949020
0.941176 0.941176 0.941176
0.960784 0.960784 0.960784
0.972549 0.972549 0.972549
0.988235 0.988235 0.988235
0.521569 0.521569 0.521569
0.533333 0.533333 0.533333
0.568627 0.568627 0.568627
0.623529 0.623529 0.623529
0.694118 0.694118 0.694118
0.588235 0.588235 0.588235
0.603922 0.603922 0.603922
0.627451 0.627451 0.627451
0.670588 0.670588 0.670588
0.721569 0.721569 0.721569
0.717647 0.717647 0.717647
0.717647 0.717647 0.717647
0.729412 0.729412 0.729412
0.756863 0.756863 0.756863
0.796078 0.796078 0.796078
0.796078 0.796078 0.796078
0.800000 0.800000 0.800000
0.831373 0.831373 0.831373
0.866667 0.866667 0.866667
0.898039 0.898039 0.898039
0.949020 0.949020 0.949020
0.952941 0.952941 0.952941
0.960784 0.960784 0.960784
0.980392 0.980392 0.980392
1.000000 1.000000 1.000000
