resources/LUTs/Black and White/11.cube
TITLE "B&W Preset #11"
#LUT size
LUT_3D_SIZE 25
#LUT data points
0.000000 0.000000 0.000000
0.000000 0.000000 0.000000
0.007843 0.000000 0.003922
0.011765 0.007843 0.000000
0.027451 0.011765 0.007843
0.043137 0.019608 0.019608
0.058824 0.023529 0.027451
0.070588 0.031373 0.035294
0.094118 0.047059 0.047059
0.117647 0.062745 0.062745
0.141176 0.078431 0.078431
0.164706 0.094118 0.094118
0.188235 0.109804 0.113725
0.215686 0.129412 0.137255
0.243137 0.149020 0.149020
0.266667 0.164706 0.168627
0.298039 0.180392 0.188235
0.329412 0.203922 0.215686
0.360784 0.227451 0.231373
0.392157 0.250980 0.258824
0.427451 0.274510 0.278431
0.462745 0.298039 0.305882
0.509804 0.329412 0.337255
0.549020 0.352941 0.364706
0.592157 0.388235 0.396078
0.000000 0.000000 0.000000
0.007843 0.000000 0.003922
0.011765 0.015686 0.000000
0.023529 0.019608 0.011765
0.043137 0.019608 0.019608
0.050980 0.031373 0.019608
0.074510 0.035294 0.031373
0.086275 0.047059 0.043137
0.105882 0.058824 0.058824
0.129412 0.074510 0.074510
0.152941 0.090196 0.090196
0.176471 0.105882 0.105882
0.200000 0.121569 0.125490
0.231373 0.137255 0.137255
0.254902 0.152941 0.156863
0.286275 0.172549 0.180392
0.309804 0.192157 0.192157
0.333333 0.207843 0.211765
0.368627 0.235294 0.239216
0.400000 0.258824 0.258824
0.435294 0.282353 0.286275
0.470588 0.305882 0.313725
0.505882 0.333333 0.337255
0.556863 0.360784 0.364706
0.596078 0.396078 0.392157
0.019608 0.019608 0.011765
0.019608 0.027451 0.015686
0.027451 0.035294 0.015686
0.035294 0.035294 0.027451
0.050980 0.035294 0.031373
0.070588 0.047059 0.047059
0.082353 0.050980 0.043137
0.101961 0.062745 0.058824
0.121569 0.074510 0.074510
0.145098 0.090196 0.090196
0.160784 0.105882 0.101961
0.180392 0.117647 0.117647
0.215686 0.137255 0.141176
0.231373 0.152941 0.149020
0.262745 0.168627 0.168627
0.290196 0.188235 0.184314
0.313725 0.203922 0.200000
0.341176 0.223529 0.223529
0.368627 0.243137 0.247059
0.407843 0.266667 0.266667
0.447059 0.290196 0.294118
0.482353 0.317647 0.325490
0.533333 0.341176 0.352941
0.572549 0.368627 0.376471
0.611765 0.415686 0.419608
0.043137 0.047059 0.027451
0.035294 0.054902 0.031373
0.043137 0.062745 0.039216
0.058824 0.066667 0.054902
0.070588 0.066667 0.058824
0.086275 0.070588 0.058824
0.101961 0.082353 0.070588
0.121569 0.090196 0.082353
0.133333 0.094118 0.086275
0.156863 0.113725 0.105882
0.180392 0.125490 0.121569
0.196078 0.137255 0.125490
0.223529 0.152941 0.145098
0.243137 0.164706 0.160784
0.270588 0.188235 0.184314
0.294118 0.200000 0.192157
0.329412 0.219608 0.215686
0.352941 0.235294 0.235294
0.384314 0.258824 0.262745
0.419608 0.278431 0.278431
0.458824 0.305882 0.309804
0.494118 0.337255 0.341176
0.541176 0.368627 0.372549
0.592157 0.388235 0.396078
0.631373 0.427451 0.435294
0.054902 0.078431 0.062745
0.050980 0.086275 0.066667
0.066667 0.086275 0.062745
0.082353 0.090196 0.070588
0.094118 0.098039 0.078431
0.109804 0.105882 0.090196
0.121569 0.105882 0.094118
0.133333 0.113725 0.101961
0.156863 0.125490 0.113725
0.172549 0.133333 0.125490
0.192157 0.149020 0.141176
0.211765 0.156863 0.152941
0.247059 0.176471 0.168627
0.262745 0.192157 0.176471
0.282353 0.207843 0.192157
0.317647 0.223529 0.215686
0.341176 0.239216 0.235294
0.368627 0.258824 0.254902
0.400000 0.278431 0.270588
0.435294 0.301961 0.298039
0.466667 0.329412 0.313725
0.505882 0.349020 0.341176
0.549020 0.368627 0.368627
0.600000 0.403922 0.407843
0.639216 0.439216 0.435294
0.070588 0.105882 0.086275
0.082353 0.105882 0.090196
0.086275 0.113725 0.086275
0.094118 0.113725 0.090196
0.105882 0.113725 0.094118
0.117647 0.121569 0.101961
0.133333 0.129412 0.113725
0.152941 0.141176 0.121569
0.160784 0.141176 0.125490
0.180392 0.149020 0.137255
0.203922 0.168627 0.149020
0.219608 0.176471 0.160784
0.243137 0.188235 0.176471
0.258824 0.200000 0.188235
0.290196 0.211765 0.207843
0.309804 0.235294 0.219608
0.337255 0.243137 0.235294
0.364706 0.262745 0.258824
0.392157 0.282353 0.270588
0.427451 0.305882 0.294118
0.466667 0.329412 0.321569
0.505882 0.349020 0.341176
0.549020 0.376471 0.372549
0.588235 0.400000 0.392157
0.643137 0.431373 0.423529
0.101961 0.145098 0.113725
0.105882 0.141176 0.121569
0.121569 0.149020 0.121569
0.109804 0.145098 0.125490
0.133333 0.152941 0.129412
0.129412 0.156863 0.129412
0.156863 0.164706 0.145098
0.172549 0.168627 0.149020
0.192157 0.180392 0.160784
0.207843 0.188235 0.172549
0.223529 0.196078 0.172549
0.243137 0.207843 0.188235
0.258824 0.215686 0.200000
0.282353 0.227451 0.215686
0.301961 0.243137 0.223529
0.325490 0.254902 0.247059
0.349020 0.274510 0.258824
0.376471 0.294118 0.282353
0.407843 0.309804 0.294118
0.443137 0.325490 0.317647
0.478431 0.345098 0.337255
0.517647 0.368627 0.356863
0.552941 0.396078 0.388235
0.600000 0.427451 0.423529
0.650980 0.450980 0.447059
0.137255 0.188235 0.149020
0.141176 0.188235 0.149020
0.141176 0.180392 0.145098
0.149020 0.188235 0.152941
0.152941 0.192157 0.156863
0.152941 0.200000 0.160784
0.180392 0.200000 0.172549
0.196078 0.207843 0.172549
0.215686 0.219608 0.188235
0.227451 0.227451 0.196078
0.247059 0.235294 0.207843
0.266667 0.239216 0.207843
0.286275 0.250980 0.223529
0.301961 0.258824 0.235294
0.325490 0.270588 0.258824
0.352941 0.294118 0.274510
0.380392 0.305882 0.290196
0.400000 0.317647 0.298039
0.431373 0.333333 0.317647
0.466667 0.356863 0.341176
0.501961 0.380392 0.368627
0.537255 0.400000 0.384314
0.576471 0.427451 0.415686
0.623529 0.462745 0.439216
0.662745 0.486275 0.474510
0.164706 0.227451 0.188235
0.180392 0.223529 0.192157
0.176471 0.223529 0.184314
0.176471 0.227451 0.188235
0.192157 0.231373 0.196078
0.192157 0.231373 0.196078
0.203922 0.243137 0.207843
0.227451 0.247059 0.219608
0.243137 0.254902 0.219608
0.258824 0.262745 0.231373
0.270588 0.270588 0.239216
0.290196 0.270588 0.247059
0.313725 0.286275 0.262745
0.329412 0.294118 0.266667
0.352941 0.309804 0.286275
0.376471 0.317647 0.290196
0.403922 0.337255 0.309804
0.431373 0.352941 0.325490
0.462745 0.364706 0.345098
0.494118 0.388235 0.360784
0.533333 0.411765 0.392157
0.572549 0.443137 0.415686
0.619608 0.458824 0.443137
0.647059 0.494118 0.466667
0.690196 0.517647 0.505882
0.211765 0.262745 0.223529
0.211765 0.254902 0.223529
0.200000 0.262745 0.219608
0.211765 0.258824 0.219608
0.215686 0.266667 0.227451
0.227451 0.274510 0.227451
0.239216 0.278431 0.235294
0.250980 0.282353 0.239216
0.266667 0.290196 0.250980
0.290196 0.294118 0.262745
0.305882 0.305882 0.266667
0.321569 0.309804 0.274510
0.337255 0.325490 0.298039
0.356863 0.337255 0.313725
0.376471 0.349020 0.317647
0.396078 0.352941 0.329412
0.419608 0.368627 0.337255
0.450980 0.384314 0.356863
0.486275 0.407843 0.380392
0.521569 0.431373 0.407843
0.552941 0.447059 0.419608
0.584314 0.470588 0.447059
0.627451 0.498039 0.478431
0.670588 0.525490 0.501961
0.713725 0.560784 0.541176
0.203922 0.274510 0.227451
0.207843 0.278431 0.231373
0.215686 0.278431 0.235294
0.223529 0.286275 0.243137
0.231373 0.282353 0.243137
0.235294 0.290196 0.239216
0.243137 0.290196 0.243137
0.262745 0.301961 0.258824
0.270588 0.309804 0.266667
0.286275 0.317647 0.274510
0.309804 0.321569 0.286275
0.325490 0.329412 0.298039
0.345098 0.345098 0.313725
0.364706 0.352941 0.317647
0.380392 0.364706 0.329412
0.403922 0.376471 0.345098
0.431373 0.392157 0.356863
0.458824 0.407843 0.372549
0.490196 0.423529 0.392157
0.521569 0.443137 0.407843
0.552941 0.462745 0.431373
0.592157 0.486275 0.450980
0.631373 0.513725 0.482353
0.670588 0.541176 0.505882
0.690196 0.572549 0.533333
0.266667 0.337255 0.282353
0.262745 0.325490 0.282353
0.250980 0.329412 0.282353
0.262745 0.333333 0.286275
0.270588 0.325490 0.274510
0.274510 0.337255 0.286275
0.286275 0.333333 0.286275
0.294118 0.341176 0.294118
0.309804 0.349020 0.305882
0.321569 0.352941 0.309804
0.345098 0.368627 0.321569
0.364706 0.376471 0.333333
0.384314 0.392157 0.349020
0.396078 0.396078 0.356863
0.415686 0.403922 0.368627
0.443137 0.415686 0.376471
0.462745 0.431373 0.388235
0.482353 0.443137 0.403922
0.513725 0.458824 0.415686
0.545098 0.478431 0.439216
0.580392 0.501961 0.466667
0.619608 0.525490 0.486275
0.654902 0.549020 0.513725
0.690196 0.580392 0.537255
0.713725 0.600000 0.568627
0.298039 0.380392 0.321569
0.290196 0.368627 0.321569
0.286275 0.372549 0.325490
0.298039 0.376471 0.329412
0.305882 0.368627 0.317647
0.309804 0.376471 0.313725
0.317647 0.380392 0.329412
0.325490 0.388235 0.337255
0.341176 0.396078 0.337255
0.352941 0.400000 0.345098
0.368627 0.411765 0.356863
0.396078 0.419608 0.372549
0.415686 0.427451 0.384314
0.431373 0.439216 0.388235
0.450980 0.450980 0.403922
0.474510 0.466667 0.415686
0.501961 0.478431 0.431373
0.521569 0.490196 0.439216
0.545098 0.505882 0.458824
0.580392 0.525490 0.482353
0.619608 0.549020 0.501961
0.647059 0.568627 0.525490
0.682353 0.588235 0.549020
0.729412 0.619608 0.576471
0.741176 0.654902 0.603922
0.337255 0.427451 0.364706
0.333333 0.423529 0.360784
0.329412 0.419608 0.356863
0.337255 0.419608 0.360784
0.341176 0.423529 0.364706
0.341176 0.423529 0.356863
0.356863 0.427451 0.364706
0.368627 0.435294 0.372549
0.376471 0.443137 0.380392
0.396078 0.450980 0.392157
0.407843 0.458824 0.392157
0.431373 0.462745 0.403922
0.447059 0.470588 0.415686
0.458824 0.482353 0.427451
0.482353 0.498039 0.443137
0.501961 0.509804 0.454902
0.533333 0.525490 0.474510
0.552941 0.537255 0.490196
0.584314 0.552941 0.501961
0.623529 0.576471 0.529412
0.650980 0.596078 0.545098
0.682353 0.619608 0.568627
0.717647 0.647059 0.600000
0.741176 0.662745 0.619608
0.776471 0.698039 0.662745
0.376471 0.474510 0.400000
0.368627 0.474510 0.400000
0.368627 0.462745 0.400000
0.372549 0.470588 0.396078
0.384314 0.474510 0.403922
0.380392 0.470588 0.400000
0.392157 0.474510 0.400000
0.403922 0.486275 0.411765
0.415686 0.490196 0.415686
0.423529 0.498039 0.423529
0.443137 0.509804 0.439216
0.462745 0.517647 0.450980
0.482353 0.525490 0.458824
0.501961 0.537255 0.470588
0.517647 0.545098 0.482353
0.549020 0.560784 0.494118
0.572549 0.576471 0.513725
0.596078 0.592157 0.521569
0.627451 0.603922 0.541176
0.647059 0.619608 0.556863
0.686275 0.639216 0.592157
0.705882 0.658824 0.611765
0.729412 0.674510 0.631373
0.756863 0.701961 0.650980
0.788235 0.725490 0.674510
0.380392 0.478431 0.403922
0.384314 0.482353 0.407843
0.384314 0.482353 0.407843
0.388235 0.486275 0.411765
0.388235 0.486275 0.411765
0.396078 0.494118 0.419608
0.403922 0.494118 0.423529
0.411765 0.501961 0.431373
0.427451 0.509804 0.435294
0.443137 0.517647 0.443137
0.462745 0.529412 0.454902
0.478431 0.537255 0.462745
0.498039 0.549020 0.478431
0.513725 0.556863 0.490196
0.537255 0.572549 0.505882
0.556863 0.584314 0.521569
0.584314 0.592157 0.537255
0.607843 0.611765 0.549020
0.635294 0.627451 0.568627
0.662745 0.650980 0.592157
0.690196 0.666667 0.619608
0.713725 0.682353 0.639216
0.741176 0.701961 0.662745
0.768627 0.721569 0.674510
0.803922 0.737255 0.705882
0.447059 0.552941 0.478431
0.435294 0.560784 0.470588
0.447059 0.556863 0.470588
0.454902 0.552941 0.478431
0.439216 0.552941 0.466667
0.458824 0.556863 0.482353
0.462745 0.560784 0.478431
0.470588 0.560784 0.482353
0.478431 0.568627 0.490196
0.494118 0.580392 0.498039
0.509804 0.584314 0.505882
0.529412 0.596078 0.521569
0.545098 0.603922 0.529412
0.564706 0.615686 0.545098
0.580392 0.623529 0.556863
0.600000 0.635294 0.560784
0.619608 0.647059 0.576471
0.643137 0.658824 0.592157
0.662745 0.674510 0.607843
0.682353 0.686275 0.631373
0.709804 0.701961 0.650980
0.741176 0.717647 0.670588
0.764706 0.733333 0.682353
0.788235 0.749020 0.709804
0.823529 0.772549 0.741176
0.505882 0.619608 0.533333
0.498039 0.623529 0.529412
0.505882 0.611765 0.537255
0.490196 0.615686 0.521569
0.505882 0.615686 0.529412
0.501961 0.619608 0.525490
0.517647 0.615686 0.533333
0.525490 0.623529 0.541176
0.533333 0.623529 0.545098
0.545098 0.635294 0.556863
0.560784 0.647059 0.564706
0.572549 0.658824 0.576471
0.588235 0.662745 0.584314
0.600000 0.666667 0.592157
0.627451 0.678431 0.607843
0.643137 0.686275 0.619608
0.662745 0.698039 0.623529
0.678431 0.705882 0.643137
0.701961 0.717647 0.658824
0.721569 0.729412 0.674510
0.741176 0.745098 0.690196
0.764706 0.756863 0.705882
0.796078 0.768627 0.729412
0.803922 0.788235 0.745098
0.839216 0.815686 0.768627
0.568627 0.682353 0.603922
0.564706 0.682353 0.588235
0.564706 0.674510 0.588235
0.560784 0.666667 0.592157
0.552941 0.678431 0.584314
0.576471 0.674510 0.592157
0.580392 0.678431 0.596078
0.588235 0.678431 0.600000
0.596078 0.686275 0.607843
0.607843 0.698039 0.619608
0.619608 0.701961 0.627451
0.627451 0.701961 0.627451
0.639216 0.713725 0.639216
0.662745 0.717647 0.650980
0.678431 0.729412 0.658824
0.690196 0.733333 0.666667
0.709804 0.745098 0.678431
0.721569 0.752941 0.694118
0.737255 0.760784 0.705882
0.756863 0.772549 0.717647
0.772549 0.780392 0.729412
0.796078 0.796078 0.749020
0.819608 0.811765 0.764706
0.827451 0.827451 0.788235
0.866667 0.839216 0.800000
0.623529 0.737255 0.658824
0.631373 0.729412 0.647059
0.619608 0.725490 0.650980
0.615686 0.721569 0.647059
0.619608 0.725490 0.650980
0.631373 0.729412 0.654902
0.639216 0.737255 0.654902
0.647059 0.737255 0.658824
0.650980 0.741176 0.662745
0.658824 0.741176 0.666667
0.674510 0.749020 0.674510
0.682353 0.756863 0.682353
0.694118 0.760784 0.690196
0.709804 0.764706 0.698039
0.721569 0.772549 0.705882
0.737255 0.780392 0.717647
0.745098 0.788235 0.725490
0.764706 0.796078 0.737255
0.780392 0.803922 0.749020
0.788235 0.811765 0.756863
0.803922 0.811765 0.760784
0.815686 0.823529 0.772549
0.839216 0.839216 0.792157
0.850980 0.850980 0.803922
0.878431 0.866667 0.831373
0.635294 0.741176 0.666667
0.635294 0.741176 0.666667
0.635294 0.741176 0.666667
0.639216 0.749020 0.662745
0.650980 0.749020 0.666667
0.654902 0.752941 0.670588
0.662745 0.752941 0.674510
0.670588 0.760784 0.682353
0.670588 0.768627 0.694118
0.682353 0.772549 0.701961
0.694118 0.776471 0.709804
0.705882 0.780392 0.705882
0.721569 0.788235 0.717647
0.737255 0.792157 0.725490
0.749020 0.800000 0.733333
0.756863 0.807843 0.741176
0.768627 0.819608 0.752941
0.780392 0.823529 0.760784
0.800000 0.831373 0.772549
0.815686 0.839216 0.784314
0.831373 0.847059 0.792157
0.835294 0.850980 0.796078
0.854902 0.854902 0.807843
0.870588 0.870588 0.823529
0.890196 0.882353 0.831373
0.717647 0.815686 0.741176
0.721569 0.811765 0.733333
0.713725 0.811765 0.737255
0.725490 0.796078 0.733333
0.725490 0.807843 0.741176
0.717647 0.807843 0.737255
0.717647 0.807843 0.729412
0.725490 0.823529 0.749020
0.733333 0.823529 0.752941
0.737255 0.819608 0.752941
0.752941 0.823529 0.760784
0.756863 0.831373 0.756863
0.772549 0.839216 0.768627
0.784314 0.835294 0.768627
0.796078 0.847059 0.780392
0.803922 0.850980 0.796078
0.811765 0.858824 0.803922
0.819608 0.862745 0.807843
0.835294 0.866667 0.815686
0.847059 0.870588 0.823529
0.862745 0.874510 0.831373
0.870588 0.878431 0.835294
0.882353 0.882353 0.843137
0.886275 0.894118 0.843137
0.905882 0.905882 0.866667
0.772549 0.862745 0.792157
0.772549 0.854902 0.788235
0.772549 0.854902 0.796078
0.772549 0.854902 0.788235
0.788235 0.850980 0.800000
0.784314 0.854902 0.792157
0.776471 0.858824 0.800000
0.788235 0.858824 0.803922
0.792157 0.862745 0.800000
0.800000 0.866667 0.803922
0.800000 0.866667 0.803922
0.815686 0.870588 0.811765
0.823529 0.870588 0.815686
0.835294 0.878431 0.823529
0.827451 0.882353 0.823529
0.843137 0.890196 0.835294
0.850980 0.894118 0.839216
0.862745 0.894118 0.843137
0.870588 0.901961 0.850980
0.882353 0.905882 0.866667
0.898039 0.909804 0.866667
0.905882 0.913725 0.870588
0.905882 0.917647 0.882353
0.921569 0.925490 0.894118
0.925490 0.933333 0.882353
0.843137 0.890196 0.843137
0.831373 0.898039 0.835294
0.819608 0.901961 0.843137
0.831373 0.901961 0.854902
0.831373 0.898039 0.835294
0.827451 0.898039 0.843137
0.827451 0.898039 0.843137
0.831373 0.894118 0.843137
0.835294 0.898039 0.847059
0.839216 0.901961 0.850980
0.850980 0.905882 0.854902
0.854902 0.909804 0.850980
0.866667 0.913725 0.858824
0.866667 0.921569 0.862745
0.878431 0.925490 0.870588
0.882353 0.925490 0.870588
0.886275 0.929412 0.874510
0.890196 0.933333 0.878431
0.905882 0.937255 0.894118
0.917647 0.941176 0.894118
0.925490 0.937255 0.894118
0.921569 0.945098 0.905882
0.941176 0.949020 0.905882
0.941176 0.952941 0.917647
0.945098 0.956863 0.913725
0.894118 0.941176 0.901961
0.886275 0.933333 0.886275
0.866667 0.937255 0.890196
0.878431 0.933333 0.882353
0.866667 0.929412 0.886275
0.870588 0.933333 0.890196
0.882353 0.937255 0.886275
0.882353 0.937255 0.886275
0.882353 0.937255 0.886275
0.886275 0.941176 0.890196
0.894118 0.941176 0.894118
0.898039 0.945098 0.898039
0.901961 0.949020 0.909804
0.901961 0.949020 0.909804
0.909804 0.949020 0.913725
0.925490 0.952941 0.921569
0.929412 0.956863 0.925490
0.933333 0.960784 0.929412
0.937255 0.956863 0.929412
0.949020 0.960784 0.933333
0.945098 0.972549 0.941176
0.952941 0.972549 0.945098
0.960784 0.972549 0.945098
0.972549 0.976471 0.952941
0.976471 0.980392 0.956863
0.000000 0.000000 0.000000
0.003922 0.003922 0.003922
0.007843 0.000000 0.003922
0.011765 0.003922 0.007843
0.027451 0.011765 0.015686
0.047059 0.023529 0.031373
0.066667 0.031373 0.035294
0.082353 0.043137 0.047059
0.109804 0.054902 0.054902
0.129412 0.066667 0.070588
0.160784 0.086275 0.094118
0.176471 0.101961 0.109804
0.200000 0.121569 0.129412
0.219608 0.133333 0.141176
0.250980 0.152941 0.164706
0.278431 0.176471 0.188235
0.313725 0.196078 0.203922
0.333333 0.207843 0.219608
0.368627 0.227451 0.235294
0.407843 0.254902 0.266667
0.439216 0.282353 0.286275
0.470588 0.305882 0.313725
0.513725 0.333333 0.341176
0.552941 0.360784 0.372549
0.607843 0.384314 0.407843
0.000000 0.003922 0.000000
0.000000 0.007843 0.003922
0.019608 0.011765 0.015686
0.027451 0.019608 0.023529
0.043137 0.027451 0.023529
0.054902 0.039216 0.035294
0.070588 0.047059 0.054902
0.090196 0.050980 0.047059
0.109804 0.062745 0.062745
0.141176 0.086275 0.086275
0.156863 0.094118 0.098039
0.180392 0.117647 0.121569
0.207843 0.129412 0.133333
0.235294 0.149020 0.156863
0.262745 0.164706 0.176471
0.294118 0.180392 0.196078
0.313725 0.200000 0.207843
0.345098 0.219608 0.231373
0.376471 0.243137 0.247059
0.403922 0.262745 0.270588
0.439216 0.286275 0.298039
0.478431 0.313725 0.321569
0.513725 0.337255 0.349020
0.564706 0.368627 0.372549
0.615686 0.392157 0.415686
0.011765 0.031373 0.007843
0.027451 0.035294 0.031373
0.035294 0.035294 0.043137
0.039216 0.039216 0.039216
0.062745 0.047059 0.050980
0.070588 0.054902 0.050980
0.086275 0.062745 0.062745
0.105882 0.070588 0.074510
0.125490 0.086275 0.082353
0.145098 0.098039 0.098039
0.164706 0.109804 0.109804
0.192157 0.129412 0.133333
0.223529 0.145098 0.149020
0.243137 0.156863 0.164706
0.270588 0.172549 0.184314
0.294118 0.192157 0.203922
0.325490 0.207843 0.215686
0.352941 0.227451 0.239216
0.380392 0.254902 0.258824
0.415686 0.274510 0.282353
0.450980 0.298039 0.309804
0.482353 0.325490 0.329412
0.541176 0.349020 0.360784
0.572549 0.376471 0.380392
0.623529 0.407843 0.427451
0.039216 0.058824 0.043137
0.039216 0.058824 0.043137
0.058824 0.066667 0.054902
0.058824 0.066667 0.062745
0.078431 0.070588 0.074510
0.098039 0.082353 0.070588
0.105882 0.086275 0.074510
0.125490 0.094118 0.086275
0.141176 0.101961 0.098039
0.160784 0.113725 0.113725
0.184314 0.129412 0.125490
0.203922 0.141176 0.141176
0.227451 0.156863 0.156863
0.258824 0.172549 0.180392
0.282353 0.184314 0.196078
0.305882 0.203922 0.207843
0.337255 0.223529 0.231373
0.364706 0.247059 0.254902
0.392157 0.266667 0.270588
0.431373 0.298039 0.301961
0.454902 0.313725 0.313725
0.505882 0.341176 0.349020
0.545098 0.364706 0.364706
0.592157 0.396078 0.400000
0.635294 0.431373 0.447059
0.058824 0.086275 0.058824
0.066667 0.090196 0.074510
0.078431 0.098039 0.082353
0.090196 0.094118 0.074510
0.101961 0.105882 0.086275
0.105882 0.109804 0.090196
0.117647 0.113725 0.098039
0.137255 0.121569 0.109804
0.164706 0.133333 0.125490
0.176471 0.137255 0.129412
0.203922 0.149020 0.145098
0.223529 0.168627 0.164706
0.250980 0.180392 0.180392
0.270588 0.192157 0.196078
0.290196 0.207843 0.203922
0.321569 0.227451 0.227451
0.345098 0.243137 0.247059
0.372549 0.262745 0.258824
0.400000 0.282353 0.282353
0.427451 0.301961 0.305882
0.470588 0.321569 0.317647
0.505882 0.349020 0.349020
0.556863 0.376471 0.376471
0.596078 0.400000 0.403922
0.647059 0.447059 0.443137
0.070588 0.105882 0.094118
0.074510 0.109804 0.090196
0.090196 0.113725 0.098039
0.094118 0.117647 0.101961
0.105882 0.125490 0.109804
0.121569 0.129412 0.117647
0.133333 0.137255 0.117647
0.149020 0.145098 0.129412
0.168627 0.149020 0.137255
0.180392 0.160784 0.145098
0.203922 0.164706 0.156863
0.223529 0.180392 0.172549
0.247059 0.192157 0.188235
0.266667 0.207843 0.196078
0.294118 0.223529 0.215686
0.317647 0.239216 0.235294
0.333333 0.250980 0.247059
0.364706 0.270588 0.262745
0.403922 0.294118 0.290196
0.435294 0.313725 0.305882
0.466667 0.333333 0.325490
0.509804 0.360784 0.356863
0.549020 0.388235 0.380392
0.588235 0.415686 0.411765
0.631373 0.443137 0.427451
0.113725 0.152941 0.121569
0.113725 0.149020 0.129412
0.113725 0.156863 0.125490
0.117647 0.152941 0.133333
0.133333 0.152941 0.129412
0.145098 0.164706 0.141176
0.172549 0.168627 0.152941
0.180392 0.176471 0.156863
0.196078 0.184314 0.164706
0.207843 0.188235 0.172549
0.231373 0.200000 0.188235
0.247059 0.207843 0.200000
0.266667 0.223529 0.207843
0.290196 0.235294 0.223529
0.309804 0.250980 0.239216
0.341176 0.266667 0.250980
0.360784 0.278431 0.266667
0.388235 0.294118 0.278431
0.415686 0.317647 0.301961
0.447059 0.333333 0.317647
0.486275 0.352941 0.345098
0.529412 0.380392 0.368627
0.560784 0.407843 0.388235
0.603922 0.431373 0.427451
0.650980 0.462745 0.462745
0.145098 0.188235 0.156863
0.145098 0.184314 0.152941
0.152941 0.196078 0.164706
0.152941 0.192157 0.160784
0.168627 0.196078 0.168627
0.176471 0.203922 0.176471
0.188235 0.207843 0.180392
0.207843 0.219608 0.192157
0.219608 0.223529 0.200000
0.235294 0.231373 0.211765
0.247059 0.235294 0.215686
0.274510 0.247059 0.223529
0.290196 0.254902 0.235294
0.309804 0.266667 0.250980
0.329412 0.278431 0.254902
0.349020 0.290196 0.270588
0.376471 0.309804 0.282353
0.407843 0.325490 0.305882
0.435294 0.345098 0.321569
0.466667 0.356863 0.341176
0.505882 0.384314 0.364706
0.549020 0.419608 0.400000
0.580392 0.443137 0.427451
0.639216 0.462745 0.450980
0.674510 0.494118 0.494118
0.164706 0.223529 0.196078
0.168627 0.227451 0.200000
0.180392 0.223529 0.192157
0.180392 0.231373 0.196078
0.188235 0.231373 0.200000
0.200000 0.239216 0.207843
0.215686 0.243137 0.215686
0.231373 0.250980 0.223529
0.247059 0.258824 0.231373
0.262745 0.266667 0.243137
0.274510 0.274510 0.243137
0.298039 0.286275 0.258824
0.313725 0.294118 0.270588
0.337255 0.301961 0.282353
0.352941 0.309804 0.294118
0.380392 0.329412 0.305882
0.407843 0.337255 0.321569
0.431373 0.356863 0.333333
0.462745 0.368627 0.352941
0.494118 0.396078 0.376471
0.529412 0.419608 0.403922
0.572549 0.435294 0.419608
0.615686 0.462745 0.443137
0.650980 0.498039 0.470588
0.690196 0.529412 0.513725
0.207843 0.270588 0.227451
0.207843 0.266667 0.239216
0.203922 0.266667 0.227451
0.215686 0.266667 0.231373
0.219608 0.270588 0.231373
0.231373 0.278431 0.239216
0.239216 0.286275 0.247059
0.250980 0.290196 0.254902
0.270588 0.301961 0.258824
0.286275 0.309804 0.270588
0.305882 0.317647 0.282353
0.321569 0.325490 0.294118
0.345098 0.325490 0.301961
0.364706 0.337255 0.305882
0.384314 0.349020 0.321569
0.407843 0.368627 0.333333
0.435294 0.376471 0.349020
0.458824 0.392157 0.360784
0.486275 0.407843 0.380392
0.517647 0.427451 0.403922
0.552941 0.447059 0.419608
0.588235 0.474510 0.450980
0.623529 0.494118 0.474510
0.670588 0.525490 0.501961
0.709804 0.556863 0.537255
0.227451 0.278431 0.243137
0.227451 0.278431 0.239216
0.231373 0.282353 0.243137
0.235294 0.286275 0.247059
0.239216 0.290196 0.250980
0.250980 0.298039 0.250980
0.254902 0.301961 0.254902
0.270588 0.309804 0.266667
0.278431 0.317647 0.274510
0.294118 0.325490 0.282353
0.321569 0.333333 0.298039
