resources/LUTs/Black and White/11.cube
TITLE "B&W Preset #11"
#LUT size
LUT_3D_SIZE 5
#LUT data points
0.000000 0.000000 0.000000
0.058824 0.023529 0.027451
0.188235 0.109804 0.113725
0.360784 0.227451 0.231373
0.592157 0.388235 0.396078
0.101961 0.145098 0.113725
0.156863 0.164706 0.145098
0.258824 0.215686 0.200000
0.407843 0.309804 0.294118
0.650980 0.450980 0.447059
0.298039 0.380392 0.321569
0.317647 0.380392 0.329412
0.415686 0.427451 0.384314
0.545098 0.505882 0.458824
0.741176 0.654902 0.603922
0.568627 0.682353 0.603922
0.580392 0.678431 0.596078
0.639216 0.713725 0.639216
0.737255 0.760784 0.705882
0.866667 0.839216 0.800000
0.894118 0.941176 0.901961
0.882353 0.937255 0.886275
0.901961 0.949020 0.909804
0.937255 0.956863 0.929412
0.976471 0.980392 0.956863
0.003922 0.011765 0.062745
0.086275 0.054902 0.113725
0.211765 0.145098 0.184314
0.392157 0.270588 0.301961
0.623529 0.415686 0.454902
0.129412 0.168627 0.176471
0.176471 0.188235 0.207843
0.286275 0.243137 0.266667
0.439216 0.341176 0.356863
0.674510 0.490196 0.513725
0.329412 0.407843 0.372549
0.345098 0.403922 0.384314
0.427451 0.454902 0.423529
0.576471 0.533333 0.509804
0.760784 0.666667 0.666667
0.592157 0.698039 0.631373
0.607843 0.701961 0.639216
0.666667 0.733333 0.670588
0.745098 0.768627 0.721569
0.870588 0.843137 0.819608
0.890196 0.937255 0.890196
0.886275 0.937255 0.898039
0.901961 0.945098 0.913725
0.937255 0.956863 0.929412
0.980392 0.984314 0.960784
0.047059 0.054902 0.207843
0.109804 0.094118 0.239216
0.243137 0.176471 0.301961
0.407843 0.290196 0.392157
0.650980 0.439216 0.533333
0.168627 0.192157 0.317647
0.203922 0.219608 0.317647
0.301961 0.270588 0.360784
0.462745 0.368627 0.454902
0.686275 0.509804 0.592157
0.345098 0.415686 0.454902
0.360784 0.427451 0.466667
0.443137 0.466667 0.513725
0.592157 0.552941 0.588235
0.772549 0.674510 0.698039
0.592157 0.705882 0.686275
0.607843 0.705882 0.690196
0.674510 0.741176 0.717647
0.756863 0.776471 0.752941
0.870588 0.858824 0.839216
0.886275 0.937255 0.898039
0.886275 0.937255 0.901961
0.901961 0.945098 0.913725
0.937255 0.956863 0.929412
0.980392 0.984314 0.964706
0.125490 0.133333 0.435294
0.176471 0.164706 0.443137
0.313725 0.239216 0.498039
0.470588 0.337255 0.572549
0.686275 0.490196 0.690196
0.211765 0.254902 0.498039
0.258824 0.274510 0.513725
0.360784 0.325490 0.549020
0.513725 0.407843 0.615686
0.725490 0.541176 0.713725
0.368627 0.470588 0.615686
0.411765 0.482353 0.631373
0.490196 0.513725 0.654902
0.611765 0.576471 0.698039
0.784314 0.682353 0.788235
0.619608 0.729412 0.741176
0.643137 0.729412 0.772549
0.694118 0.749020 0.784314
0.768627 0.788235 0.811765
0.874510 0.850980 0.866667
0.870588 0.945098 0.921569
0.878431 0.945098 0.921569
0.898039 0.956863 0.937255
0.941176 0.964706 0.949020
0.988235 0.988235 0.980392
0.235294 0.254902 0.756863
0.286275 0.278431 0.760784
0.415686 0.341176 0.792157
0.584314 0.450980 0.819608
0.752941 0.600000 0.862745
0.301961 0.345098 0.768627
0.349020 0.364706 0.784314
0.462745 0.423529 0.803922
0.611765 0.513725 0.831373
0.776471 0.647059 0.870588
0.466667 0.537255 0.819608
0.490196 0.545098 0.823529
0.568627 0.592157 0.835294
0.690196 0.650980 0.858824
0.819608 0.741176 0.878431
0.737255 0.800000 0.898039
0.741176 0.803922 0.901961
0.764706 0.807843 0.894118
0.815686 0.819608 0.901961
0.901961 0.870588 0.929412
0.929412 0.976471 0.976471
0.929412 0.976471 0.968627
0.941176 0.980392 0.976471
0.964706 0.988235 0.988235
1.000000 1.000000 1.000000
