resources/LUTs/Black and White/11.cube
TITLE "B&W Preset #11"
#LUT size
LUT_3D_SIZE 9
#LUT data points
0.000000 0.000000 0.000000
0.011765 0.007843 0.000000
0.058824 0.023529 0.027451
0.117647 0.062745 0.062745
0.188235 0.109804 0.113725
0.266667 0.164706 0.168627
0.360784 0.227451 0.231373
0.462745 0.298039 0.305882
0.592157 0.388235 0.396078
0.043137 0.047059 0.027451
0.058824 0.066667 0.054902
0.101961 0.082353 0.070588
0.156863 0.113725 0.105882
0.223529 0.152941 0.145098
0.294118 0.200000 0.192157
0.384314 0.258824 0.262745
0.494118 0.337255 0.341176
0.631373 0.427451 0.435294
0.101961 0.145098 0.113725
0.109804 0.145098 0.125490
0.156863 0.164706 0.145098
0.207843 0.188235 0.172549
0.258824 0.215686 0.200000
0.325490 0.254902 0.247059
0.407843 0.309804 0.294118
0.517647 0.368627 0.356863
0.650980 0.450980 0.447059
0.211765 0.262745 0.223529
0.211765 0.258824 0.219608
0.239216 0.278431 0.235294
0.290196 0.294118 0.262745
0.337255 0.325490 0.298039
0.396078 0.352941 0.329412
0.486275 0.407843 0.380392
0.584314 0.470588 0.447059
0.713725 0.560784 0.541176
0.298039 0.380392 0.321569
0.298039 0.376471 0.329412
0.317647 0.380392 0.329412
0.352941 0.400000 0.345098
0.415686 0.427451 0.384314
0.474510 0.466667 0.415686
0.545098 0.505882 0.458824
0.647059 0.568627 0.525490
0.741176 0.654902 0.603922
0.380392 0.478431 0.403922
0.388235 0.486275 0.411765
0.403922 0.494118 0.423529
0.443137 0.517647 0.443137
0.498039 0.549020 0.478431
0.556863 0.584314 0.521569
0.635294 0.627451 0.568627
0.713725 0.682353 0.639216
0.803922 0.737255 0.705882
0.568627 0.682353 0.603922
0.560784 0.666667 0.592157
0.580392 0.678431 0.596078
0.607843 0.698039 0.619608
0.639216 0.713725 0.639216
0.690196 0.733333 0.666667
0.737255 0.760784 0.705882
0.796078 0.796078 0.749020
0.866667 0.839216 0.800000
0.717647 0.815686 0.741176
0.725490 0.796078 0.733333
0.717647 0.807843 0.729412
0.737255 0.819608 0.752941
0.772549 0.839216 0.768627
0.803922 0.850980 0.796078
0.835294 0.866667 0.815686
0.870588 0.878431 0.835294
0.905882 0.905882 0.866667
0.894118 0.941176 0.901961
0.878431 0.933333 0.882353
0.882353 0.937255 0.886275
0.886275 0.941176 0.890196
0.901961 0.949020 0.909804
0.925490 0.952941 0.921569
0.937255 0.956863 0.929412
0.952941 0.972549 0.945098
0.976471 0.980392 0.956863
0.000000 0.003922 0.023529
0.019608 0.011765 0.031373
0.078431 0.039216 0.070588
0.141176 0.094118 0.109804
0.215686 0.141176 0.156863
0.298039 0.192157 0.211765
0.384314 0.247059 0.262745
0.498039 0.321569 0.333333
0.627451 0.407843 0.411765
0.047059 0.066667 0.082353
0.074510 0.078431 0.086275
0.117647 0.098039 0.113725
0.176471 0.133333 0.149020
0.239216 0.176471 0.188235
0.321569 0.223529 0.235294
0.396078 0.270588 0.282353
0.498039 0.345098 0.356863
0.635294 0.431373 0.439216
0.129412 0.152941 0.152941
0.137255 0.160784 0.152941
0.172549 0.180392 0.176471
0.207843 0.203922 0.196078
0.270588 0.231373 0.227451
0.349020 0.270588 0.274510
0.427451 0.325490 0.321569
0.541176 0.392157 0.388235
0.658824 0.482353 0.470588
0.219608 0.278431 0.258824
0.231373 0.282353 0.247059
0.254902 0.294118 0.262745
0.298039 0.317647 0.290196
0.349020 0.345098 0.325490
0.407843 0.372549 0.345098
0.486275 0.411765 0.388235
0.584314 0.470588 0.454902
0.701961 0.552941 0.541176
0.317647 0.388235 0.341176
0.309804 0.392157 0.333333
0.333333 0.396078 0.345098
0.372549 0.419608 0.372549
0.423529 0.447059 0.400000
0.486275 0.478431 0.431373
0.564706 0.525490 0.486275
0.662745 0.584314 0.556863
0.760784 0.670588 0.639216
0.396078 0.501961 0.435294
0.407843 0.501961 0.439216
0.427451 0.517647 0.454902
0.462745 0.537255 0.462745
0.505882 0.560784 0.494118
0.564706 0.596078 0.537255
0.647059 0.639216 0.588235
0.725490 0.694118 0.650980
0.803922 0.749020 0.705882
0.592157 0.690196 0.615686
0.592157 0.686275 0.623529
0.596078 0.694118 0.619608
0.619608 0.701961 0.635294
0.658824 0.725490 0.654902
0.701961 0.745098 0.682353
0.749020 0.764706 0.709804
0.784314 0.788235 0.733333
0.858824 0.843137 0.807843
0.729412 0.819608 0.756863
0.729412 0.819608 0.741176
0.737255 0.819608 0.760784
0.752941 0.823529 0.760784
0.780392 0.835294 0.776471
0.811765 0.850980 0.807843
0.847059 0.870588 0.823529
0.862745 0.886275 0.839216
0.905882 0.905882 0.874510
0.886275 0.937255 0.898039
0.882353 0.933333 0.894118
0.886275 0.937255 0.898039
0.898039 0.945098 0.905882
0.905882 0.945098 0.909804
0.925490 0.952941 0.921569
0.937255 0.964706 0.933333
0.960784 0.972549 0.945098
0.976471 0.980392 0.956863
0.003922 0.011765 0.062745
0.031373 0.023529 0.078431
0.086275 0.054902 0.113725
0.145098 0.098039 0.145098
0.211765 0.145098 0.184314
0.298039 0.207843 0.239216
0.392157 0.270588 0.301961
0.498039 0.337255 0.368627
0.623529 0.415686 0.454902
0.047059 0.078431 0.129412
0.078431 0.090196 0.117647
0.121569 0.109804 0.145098
0.184314 0.145098 0.180392
0.254902 0.192157 0.231373
0.333333 0.243137 0.274510
0.415686 0.294118 0.325490
0.517647 0.356863 0.388235
0.643137 0.443137 0.478431
0.129412 0.168627 0.176471
0.149020 0.164706 0.200000
0.176471 0.188235 0.207843
0.219608 0.211765 0.231373
0.286275 0.243137 0.266667
0.360784 0.286275 0.301961
0.439216 0.341176 0.356863
0.549020 0.407843 0.423529
0.674510 0.490196 0.513725
0.231373 0.290196 0.278431
0.239216 0.286275 0.278431
0.262745 0.301961 0.298039
0.305882 0.321569 0.317647
0.360784 0.345098 0.349020
0.415686 0.376471 0.372549
0.498039 0.419608 0.423529
0.596078 0.478431 0.478431
0.713725 0.560784 0.564706
0.329412 0.407843 0.372549
0.317647 0.392157 0.376471
0.345098 0.403922 0.384314
0.380392 0.423529 0.392157
0.427451 0.454902 0.423529
0.494118 0.482353 0.462745
0.576471 0.533333 0.509804
0.662745 0.588235 0.564706
0.760784 0.666667 0.666667
0.415686 0.517647 0.466667
0.419608 0.521569 0.470588
0.439216 0.533333 0.482353
0.478431 0.549020 0.501961
0.521569 0.568627 0.521569
0.580392 0.603922 0.564706
0.654902 0.647059 0.600000
0.729412 0.701961 0.662745
0.811765 0.752941 0.733333
0.592157 0.698039 0.631373
0.588235 0.694118 0.627451
0.607843 0.701961 0.639216
0.635294 0.717647 0.658824
0.666667 0.733333 0.670588
0.701961 0.745098 0.690196
0.745098 0.768627 0.721569
0.803922 0.792157 0.756863
0.870588 0.843137 0.819608
0.737255 0.823529 0.772549
0.733333 0.823529 0.760784
0.749020 0.819608 0.772549
0.760784 0.831373 0.776471
0.780392 0.843137 0.792157
0.815686 0.854902 0.811765
0.843137 0.874510 0.831373
0.878431 0.890196 0.854902
0.905882 0.917647 0.874510
0.890196 0.937255 0.890196
0.874510 0.937255 0.894118
0.886275 0.937255 0.898039
0.901961 0.949020 0.901961
0.901961 0.945098 0.913725
0.917647 0.956863 0.921569
0.937255 0.956863 0.929412
0.952941 0.972549 0.945098
0.980392 0.984314 0.960784
0.023529 0.023529 0.125490
0.047059 0.035294 0.141176
0.090196 0.070588 0.160784
0.160784 0.105882 0.203922
0.231373 0.164706 0.239216
0.301961 0.211765 0.282353
0.388235 0.278431 0.337255
0.509804 0.341176 0.407843
0.627451 0.419608 0.490196
0.086275 0.094118 0.184314
0.098039 0.101961 0.180392
0.125490 0.117647 0.200000
0.188235 0.152941 0.235294
0.258824 0.188235 0.274510
0.333333 0.243137 0.313725
0.419608 0.309804 0.368627
0.517647 0.368627 0.427451
0.650980 0.450980 0.509804
0.137255 0.172549 0.231373
0.152941 0.184314 0.235294
0.196078 0.192157 0.254902
0.227451 0.219608 0.274510
0.286275 0.254902 0.305882
0.360784 0.290196 0.345098
0.454902 0.352941 0.403922
0.556863 0.415686 0.462745
0.666667 0.486275 0.529412
0.231373 0.286275 0.321569
0.235294 0.286275 0.317647
0.270588 0.313725 0.337255
0.309804 0.329412 0.352941
0.368627 0.356863 0.392157
0.431373 0.392157 0.423529
0.501961 0.435294 0.458824
0.607843 0.490196 0.521569
0.709804 0.572549 0.596078
0.321569 0.403922 0.407843
0.329412 0.407843 0.403922
0.352941 0.415686 0.415686
0.384314 0.427451 0.435294
0.435294 0.458824 0.458824
0.505882 0.498039 0.501961
0.584314 0.545098 0.549020
0.674510 0.603922 0.603922
0.768627 0.674510 0.658824
0.415686 0.521569 0.494118
0.427451 0.525490 0.501961
0.454902 0.537255 0.509804
0.478431 0.552941 0.529412
0.529412 0.580392 0.552941
0.588235 0.607843 0.584314
0.654902 0.650980 0.631373
0.741176 0.705882 0.686275
0.811765 0.760784 0.737255
0.600000 0.701961 0.666667
0.592157 0.701961 0.643137
0.600000 0.701961 0.650980
0.631373 0.717647 0.670588
0.666667 0.733333 0.694118
0.705882 0.752941 0.713725
0.749020 0.768627 0.741176
0.811765 0.796078 0.760784
0.870588 0.854902 0.819608
0.741176 0.835294 0.784314
0.741176 0.831373 0.768627
0.741176 0.827451 0.776471
0.764706 0.835294 0.788235
0.780392 0.843137 0.800000
0.815686 0.862745 0.815686
0.847059 0.874510 0.843137
0.878431 0.890196 0.862745
0.925490 0.913725 0.886275
0.878431 0.941176 0.898039
0.878431 0.941176 0.901961
0.890196 0.941176 0.901961
0.898039 0.945098 0.905882
0.905882 0.952941 0.913725
0.929412 0.956863 0.925490
0.941176 0.960784 0.937255
0.952941 0.972549 0.945098
0.976471 0.988235 0.960784
0.047059 0.054902 0.207843
0.066667 0.066667 0.215686
0.109804 0.094118 0.239216
0.172549 0.125490 0.266667
0.243137 0.176471 0.301961
0.325490 0.227451 0.341176
0.407843 0.290196 0.392157
0.529412 0.352941 0.466667
0.650980 0.439216 0.533333
0.090196 0.125490 0.254902
0.109804 0.121569 0.250980
0.141176 0.141176 0.274510
0.200000 0.172549 0.301961
0.274510 0.215686 0.337255
0.356863 0.266667 0.376471
0.431373 0.321569 0.419608
0.545098 0.376471 0.486275
0.670588 0.458824 0.560784
0.168627 0.192157 0.317647
0.176471 0.203922 0.313725
0.203922 0.219608 0.317647
0.250980 0.243137 0.337255
0.301961 0.270588 0.360784
0.372549 0.313725 0.403922
0.462745 0.368627 0.454902
0.564706 0.427451 0.513725
0.686275 0.509804 0.592157
0.254902 0.305882 0.380392
0.247059 0.309804 0.368627
0.274510 0.317647 0.388235
0.317647 0.341176 0.403922
0.372549 0.368627 0.431373
0.439216 0.403922 0.470588
0.517647 0.447059 0.509804
0.607843 0.498039 0.556863
0.717647 0.568627 0.627451
0.345098 0.415686 0.454902
0.341176 0.411765 0.458824
0.360784 0.427451 0.466667
0.392157 0.443137 0.478431
0.443137 0.466667 0.513725
0.509804 0.501961 0.545098
0.592157 0.552941 0.588235
0.682353 0.603922 0.639216
0.772549 0.674510 0.698039
0.427451 0.529412 0.533333
0.435294 0.537255 0.541176
0.450980 0.545098 0.552941
0.490196 0.560784 0.568627
0.529412 0.584314 0.596078
0.596078 0.615686 0.627451
0.662745 0.662745 0.670588
0.741176 0.705882 0.709804
0.811765 0.768627 0.760784
0.592157 0.705882 0.686275
0.600000 0.698039 0.682353
0.607843 0.705882 0.690196
0.635294 0.717647 0.698039
0.674510 0.741176 0.717647
0.713725 0.756863 0.733333
0.756863 0.776471 0.752941
0.807843 0.811765 0.792157
0.870588 0.858824 0.839216
0.737255 0.827451 0.788235
0.737255 0.823529 0.776471
0.741176 0.831373 0.800000
0.768627 0.835294 0.796078
0.788235 0.850980 0.811765
0.815686 0.858824 0.827451
0.850980 0.878431 0.850980
0.882353 0.894118 0.866667
0.921569 0.917647 0.898039
0.886275 0.937255 0.898039
0.870588 0.937255 0.905882
0.886275 0.937255 0.901961
0.894118 0.945098 0.909804
0.901961 0.945098 0.913725
0.917647 0.956863 0.925490
0.937255 0.956863 0.929412
0.964706 0.972549 0.952941
0.980392 0.984314 0.964706
0.082353 0.094118 0.309804
0.101961 0.101961 0.313725
0.145098 0.125490 0.337255
0.203922 0.156863 0.345098
0.274510 0.207843 0.384314
0.345098 0.254902 0.435294
0.450980 0.309804 0.482353
0.545098 0.380392 0.537255
0.670588 0.466667 0.619608
0.121569 0.145098 0.341176
0.149020 0.149020 0.352941
0.176471 0.168627 0.360784
0.227451 0.196078 0.380392
0.286275 0.235294 0.403922
0.368627 0.278431 0.443137
0.447059 0.325490 0.486275
0.537255 0.396078 0.537255
0.674510 0.478431 0.623529
0.184314 0.231373 0.388235
0.196078 0.231373 0.392157
0.223529 0.243137 0.400000
0.270588 0.262745 0.415686
0.329412 0.298039 0.450980
0.400000 0.337255 0.478431
0.482353 0.380392 0.525490
0.584314 0.443137 0.584314
0.701961 0.517647 0.650980
0.266667 0.325490 0.454902
0.278431 0.329412 0.462745
0.298039 0.341176 0.458824
0.337255 0.356863 0.482353
0.388235 0.384314 0.509804
0.447059 0.411765 0.525490
0.525490 0.454902 0.556863
0.619608 0.505882 0.615686
0.725490 0.576471 0.674510
0.352941 0.447059 0.556863
0.368627 0.447059 0.541176
0.388235 0.454902 0.556863
0.427451 0.474510 0.568627
0.466667 0.494118 0.568627
0.529412 0.521569 0.607843
0.596078 0.560784 0.635294
0.678431 0.611765 0.682353
0.772549 0.670588 0.713725
0.454902 0.560784 0.603922
0.458824 0.564706 0.607843
0.482353 0.576471 0.623529
0.517647 0.588235 0.635294
0.556863 0.611765 0.654902
0.607843 0.639216 0.682353
0.678431 0.674510 0.705882
0.749020 0.709804 0.741176
0.827451 0.760784 0.784314
0.615686 0.717647 0.721569
0.623529 0.717647 0.733333
0.631373 0.725490 0.725490
0.650980 0.733333 0.737255
0.674510 0.745098 0.752941
0.721569 0.760784 0.764706
0.756863 0.776471 0.788235
0.815686 0.811765 0.803922
0.870588 0.854902 0.858824
0.752941 0.839216 0.831373
0.756863 0.839216 0.811765
0.756863 0.839216 0.819608
0.772549 0.847059 0.831373
0.792157 0.854902 0.843137
0.823529 0.866667 0.850980
0.858824 0.882353 0.866667
0.890196 0.898039 0.886275
0.933333 0.917647 0.913725
0.870588 0.949020 0.913725
0.882353 0.941176 0.913725
0.882353 0.945098 0.905882
0.890196 0.949020 0.921569
0.905882 0.949020 0.917647
0.921569 0.960784 0.929412
0.945098 0.964706 0.941176
0.960784 0.968627 0.949020
0.976471 0.984314 0.964706
0.125490 0.133333 0.435294
0.145098 0.145098 0.435294
0.176471 0.164706 0.443137
0.239216 0.196078 0.462745
0.313725 0.239216 0.498039
0.384314 0.282353 0.537255
0.470588 0.337255 0.572549
0.568627 0.400000 0.619608
0.686275 0.490196 0.690196
0.152941 0.168627 0.454902
0.172549 0.184314 0.447059
0.207843 0.203922 0.470588
0.254902 0.231373 0.482353
0.317647 0.262745 0.505882
0.400000 0.305882 0.549020
0.474510 0.352941 0.576471
0.568627 0.411765 0.615686
0.694118 0.498039 0.690196
0.211765 0.254902 0.498039
0.223529 0.262745 0.494118
0.258824 0.274510 0.513725
0.298039 0.294118 0.521569
0.360784 0.325490 0.549020
0.431373 0.356863 0.576471
0.513725 0.407843 0.615686
0.603922 0.462745 0.650980
0.725490 0.541176 0.713725
0.278431 0.345098 0.549020
0.286275 0.356863 0.545098
0.317647 0.364706 0.560784
0.364706 0.376471 0.576471
0.411765 0.403922 0.596078
0.482353 0.435294 0.615686
0.549020 0.478431 0.643137
0.635294 0.533333 0.686275
0.733333 0.600000 0.737255
0.368627 0.470588 0.615686
0.388235 0.474510 0.635294
0.411765 0.482353 0.631373
0.447059 0.494118 0.643137
0.490196 0.513725 0.654902
0.545098 0.541176 0.666667
0.611765 0.576471 0.698039
0.682353 0.627451 0.729412
0.784314 0.682353 0.788235
0.498039 0.600000 0.705882
0.505882 0.600000 0.701961
0.521569 0.607843 0.698039
0.552941 0.623529 0.717647
0.592157 0.635294 0.721569
0.631373 0.650980 0.729412
0.690196 0.686275 0.756863
0.749020 0.717647 0.776471
0.827451 0.756863 0.811765
0.619608 0.729412 0.741176
0.647059 0.725490 0.768627
0.643137 0.729412 0.772549
0.666667 0.737255 0.776471
0.694118 0.749020 0.784314
0.729412 0.764706 0.800000
0.768627 0.788235 0.811765
0.815686 0.811765 0.843137
0.874510 0.850980 0.866667
0.764706 0.843137 0.839216
0.768627 0.847059 0.843137
0.768627 0.843137 0.858824
0.780392 0.850980 0.858824
0.803922 0.866667 0.866667
0.827451 0.874510 0.874510
0.850980 0.886275 0.882353
0.886275 0.901961 0.898039
0.933333 0.933333 0.925490
0.870588 0.945098 0.921569
0.878431 0.941176 0.937255
0.878431 0.945098 0.921569
0.894118 0.952941 0.933333
0.898039 0.956863 0.937255
0.913725 0.956863 0.941176
0.941176 0.964706 0.949020
0.956863 0.976471 0.960784
0.988235 0.988235 0.980392
0.168627 0.188235 0.588235
0.188235 0.196078 0.592157
0.231373 0.215686 0.596078
0.286275 0.239216 0.623529
0.356863 0.282353 0.643137
0.435294 0.325490 0.666667
0.525490 0.380392 0.694118
0.607843 0.447059 0.721569
0.709804 0.517647 0.737255
0.200000 0.223529 0.607843
0.211765 0.219608 0.611765
0.247059 0.243137 0.611765
0.301961 0.266667 0.623529
0.364706 0.301961 0.647059
0.443137 0.345098 0.674510
0.521569 0.396078 0.690196
0.615686 0.462745 0.725490
0.705882 0.529412 0.760784
0.239216 0.294118 0.639216
0.270588 0.298039 0.643137
0.282353 0.313725 0.639216
0.337255 0.329412 0.654902
0.400000 0.356863 0.666667
0.478431 0.396078 0.690196
0.556863 0.450980 0.721569
0.643137 0.509804 0.749020
0.725490 0.568627 0.772549
0.305882 0.376471 0.666667
0.317647 0.388235 0.670588
0.356863 0.396078 0.678431
0.396078 0.411765 0.690196
0.447059 0.439216 0.698039
0.513725 0.474510 0.721569
0.592157 0.517647 0.737255
0.658824 0.564706 0.752941
0.733333 0.623529 0.784314
0.415686 0.501961 0.725490
0.431373 0.513725 0.729412
0.431373 0.505882 0.725490
0.470588 0.521569 0.729412
0.517647 0.541176 0.745098
0.580392 0.572549 0.764706
0.643137 0.607843 0.776471
0.713725 0.650980 0.792157
0.796078 0.694118 0.831373
0.552941 0.639216 0.784314
0.560784 0.639216 0.776471
0.572549 0.647059 0.776471
0.588235 0.650980 0.784314
0.615686 0.658824 0.784314
0.658824 0.678431 0.796078
0.709804 0.709804 0.811765
0.772549 0.741176 0.835294
0.831373 0.780392 0.858824
0.674510 0.756863 0.823529
0.678431 0.760784 0.827451
0.682353 0.752941 0.831373
0.698039 0.764706 0.835294
0.721569 0.772549 0.839216
0.749020 0.776471 0.847059
0.788235 0.800000 0.858824
0.835294 0.827451 0.878431
0.878431 0.854902 0.901961
0.776471 0.847059 0.886275
0.788235 0.854902 0.894118
0.792157 0.858824 0.886275
0.796078 0.862745 0.890196
0.811765 0.870588 0.898039
0.839216 0.874510 0.901961
0.870588 0.890196 0.905882
0.894118 0.909804 0.921569
0.933333 0.929412 0.949020
0.890196 0.945098 0.949020
0.890196 0.945098 0.956863
0.894118 0.949020 0.949020
0.898039 0.952941 0.952941
0.901961 0.956863 0.956863
0.921569 0.960784 0.956863
0.941176 0.964706 0.956863
0.960784 0.976471 0.972549
0.988235 0.988235 0.988235
0.235294 0.254902 0.756863
0.247059 0.262745 0.756863
0.286275 0.278431 0.760784
0.341176 0.305882 0.772549
0.415686 0.341176 0.792157
0.494118 0.396078 0.803922
0.584314 0.450980 0.819608
0.666667 0.521569 0.827451
0.752941 0.600000 0.862745
0.243137 0.282353 0.764706
0.274510 0.282353 0.756863
0.301961 0.305882 0.768627
0.360784 0.325490 0.776471
0.423529 0.360784 0.780392
0.505882 0.411765 0.796078
0.584314 0.466667 0.811765
0.670588 0.537255 0.835294
0.752941 0.611765 0.854902
0.301961 0.345098 0.768627
0.309804 0.352941 0.776471
0.349020 0.364706 0.784314
0.396078 0.384314 0.788235
0.462745 0.423529 0.803922
0.537255 0.462745 0.811765
0.611765 0.513725 0.831373
0.694118 0.580392 0.843137
0.776471 0.647059 0.870588
0.372549 0.431373 0.796078
0.376471 0.435294 0.800000
0.407843 0.443137 0.807843
0.447059 0.462745 0.803922
0.505882 0.490196 0.819608
0.572549 0.525490 0.823529
0.650980 0.572549 0.843137
0.721569 0.627451 0.854902
0.792157 0.682353 0.870588
0.466667 0.537255 0.819608
0.466667 0.537255 0.827451
0.490196 0.545098 0.823529
0.525490 0.564706 0.835294
0.568627 0.592157 0.835294
0.631373 0.615686 0.847059
0.690196 0.650980 0.858824
0.760784 0.698039 0.874510
0.819608 0.741176 0.878431
0.623529 0.698039 0.862745
0.627451 0.694118 0.862745
0.643137 0.701961 0.862745
0.643137 0.694118 0.870588
0.650980 0.682353 0.862745
0.698039 0.709804 0.870588
0.752941 0.737255 0.874510
0.807843 0.772549 0.894118
0.862745 0.807843 0.909804
0.737255 0.800000 0.898039
0.733333 0.803922 0.898039
0.741176 0.803922 0.901961
0.749020 0.807843 0.898039
0.764706 0.807843 0.894118
0.780392 0.803922 0.898039
0.815686 0.819608 0.901961
0.858824 0.839216 0.917647
0.901961 0.870588 0.929412
0.843137 0.898039 0.941176
0.843137 0.898039 0.941176
0.847059 0.901961 0.937255
0.847059 0.905882 0.933333
0.858824 0.909804 0.945098
0.870588 0.909804 0.949020
0.898039 0.913725 0.949020
0.929412 0.933333 0.952941
0.956863 0.949020 0.968627
0.929412 0.976471 0.976471
0.933333 0.972549 0.980392
0.929412 0.976471 0.968627
0.933333 0.980392 0.980392
0.941176 0.980392 0.976471
0.952941 0.988235 0.984314
0.964706 0.988235 0.988235
0.988235 0.992157 1.000000
1.000000 1.000000 1.000000
