resources/LUTs/Black and White/12.cube
TITLE "B&W Preset #12"
#LUT size
LUT_3D_SIZE 5
#LUT data points
0.000000 0.000000 0.000000
0.039216 0.015686 0.015686
0.192157 0.113725 0.117647
0.454902 0.298039 0.298039
0.756863 0.560784 0.564706
0.105882 0.133333 0.101961
0.156863 0.160784 0.137255
0.305882 0.247059 0.227451
0.541176 0.411765 0.392157
0.796078 0.635294 0.619608
0.403922 0.462745 0.388235
0.427451 0.470588 0.407843
0.560784 0.552941 0.494118
0.717647 0.662745 0.619608
0.882353 0.803922 0.807843
0.756863 0.800000 0.745098
0.756863 0.800000 0.745098
0.811765 0.823529 0.780392
0.874510 0.874510 0.843137
0.949020 0.929412 0.913725
0.976471 0.984314 0.980392
0.964706 0.984314 0.968627
0.984314 0.992157 0.980392
0.992157 1.000000 0.988235
1.000000 1.000000 1.000000
0.000000 0.000000 0.015686
0.054902 0.031373 0.047059
0.235294 0.156863 0.164706
0.498039 0.345098 0.356863
0.780392 0.600000 0.607843
0.129412 0.145098 0.149020
0.188235 0.184314 0.176471
0.341176 0.278431 0.278431
0.568627 0.447059 0.439216
0.811765 0.670588 0.670588
0.439216 0.486275 0.431373
0.470588 0.501961 0.458824
0.580392 0.572549 0.525490
0.733333 0.682353 0.650980
0.878431 0.815686 0.815686
0.768627 0.811765 0.756863
0.780392 0.811765 0.768627
0.819608 0.843137 0.803922
0.878431 0.878431 0.847059
0.945098 0.941176 0.933333
0.968627 0.988235 0.972549
0.968627 0.984314 0.980392
0.988235 0.988235 0.980392
0.988235 0.996078 0.992157
1.000000 1.000000 0.992157
0.019608 0.015686 0.078431
0.078431 0.050980 0.113725
0.258824 0.176471 0.243137
0.525490 0.364706 0.419608
0.807843 0.611765 0.658824
0.160784 0.176471 0.223529
0.215686 0.207843 0.258824
0.368627 0.305882 0.349020
0.600000 0.478431 0.509804
0.835294 0.682353 0.701961
0.454902 0.501961 0.501961
0.482353 0.517647 0.513725
0.600000 0.584314 0.580392
0.745098 0.690196 0.686275
0.890196 0.819608 0.811765
0.772549 0.819608 0.780392
0.780392 0.819608 0.784314
0.831373 0.843137 0.815686
0.882353 0.878431 0.862745
0.956863 0.941176 0.929412
0.972549 0.980392 0.960784
0.972549 0.980392 0.968627
0.972549 0.992157 0.976471
0.996078 0.996078 0.988235
1.000000 1.000000 0.992157
0.078431 0.074510 0.239216
0.149020 0.113725 0.282353
0.333333 0.235294 0.392157
0.584314 0.419608 0.560784
0.827451 0.662745 0.749020
0.211765 0.235294 0.376471
0.270588 0.266667 0.400000
0.427451 0.360784 0.494118
0.654902 0.521569 0.619608
0.858824 0.713725 0.780392
0.505882 0.552941 0.600000
0.541176 0.576471 0.635294
0.631373 0.623529 0.678431
0.764706 0.713725 0.752941
0.901961 0.827451 0.850980
0.796078 0.839216 0.823529
0.800000 0.839216 0.835294
0.835294 0.850980 0.847059
0.886275 0.886275 0.886275
0.964706 0.941176 0.941176
0.980392 0.988235 0.976471
0.976471 0.984314 0.972549
0.976471 0.992157 0.988235
0.996078 0.996078 0.988235
1.000000 1.000000 1.000000
0.203922 0.196078 0.627451
0.301961 0.239216 0.658824
0.513725 0.384314 0.741176
0.756863 0.603922 0.819608
0.913725 0.784314 0.898039
0.290196 0.329412 0.701961
0.376471 0.364706 0.721569
0.568627 0.490196 0.772549
0.780392 0.666667 0.847059
0.929412 0.811765 0.913725
0.505882 0.588235 0.796078
0.549020 0.600000 0.803922
0.686275 0.686275 0.835294
0.835294 0.788235 0.882353
0.933333 0.878431 0.929412
0.858824 0.898039 0.937255
0.858824 0.898039 0.933333
0.866667 0.894118 0.925490
0.909804 0.905882 0.937255
0.980392 0.956863 0.972549
0.980392 0.996078 0.992157
0.976471 0.992157 0.996078
0.988235 0.996078 0.984314
0.992157 1.000000 0.996078
1.000000 1.000000 1.000000
