resources/LUTs/Black and White/12.cube
TITLE "B&W Preset #12"
#LUT size
LUT_3D_SIZE 25
#LUT data points
0.000000 0.000000 0.000000
0.000000 0.000000 0.000000
0.000000 0.000000 0.000000
0.000000 0.000000 0.000000
0.015686 0.007843 0.011765
0.027451 0.011765 0.015686
0.039216 0.015686 0.015686
0.047059 0.023529 0.023529
0.070588 0.031373 0.027451
0.094118 0.047059 0.047059
0.125490 0.070588 0.070588
0.160784 0.090196 0.090196
0.192157 0.113725 0.117647
0.235294 0.141176 0.141176
0.278431 0.164706 0.172549
0.313725 0.196078 0.196078
0.349020 0.227451 0.219608
0.400000 0.258824 0.258824
0.454902 0.298039 0.298039
0.509804 0.337255 0.341176
0.564706 0.376471 0.376471
0.615686 0.419608 0.423529
0.666667 0.462745 0.470588
0.717647 0.513725 0.521569
0.756863 0.560784 0.564706
0.011765 0.000000 0.000000
0.000000 0.003922 0.000000
0.000000 0.000000 0.000000
0.011765 0.003922 0.015686
0.011765 0.011765 0.011765
0.027451 0.011765 0.007843
0.050980 0.015686 0.027451
0.058824 0.027451 0.019608
0.082353 0.043137 0.039216
0.113725 0.058824 0.058824
0.141176 0.078431 0.078431
0.176471 0.105882 0.098039
0.207843 0.125490 0.121569
0.250980 0.149020 0.145098
0.290196 0.180392 0.176471
0.333333 0.211765 0.203922
0.372549 0.239216 0.235294
0.407843 0.266667 0.266667
0.462745 0.305882 0.305882
0.517647 0.345098 0.349020
0.564706 0.384314 0.384314
0.619608 0.423529 0.427451
0.666667 0.470588 0.474510
0.717647 0.521569 0.525490
0.756863 0.580392 0.568627
0.003922 0.003922 0.003922
0.003922 0.011765 0.007843
0.011765 0.011765 0.003922
0.015686 0.007843 0.019608
0.035294 0.019608 0.015686
0.039216 0.023529 0.019608
0.054902 0.031373 0.031373
0.078431 0.047059 0.039216
0.101961 0.062745 0.058824
0.125490 0.078431 0.078431
0.160784 0.098039 0.098039
0.188235 0.117647 0.117647
0.227451 0.145098 0.141176
0.262745 0.168627 0.168627
0.294118 0.192157 0.188235
0.337255 0.227451 0.215686
0.376471 0.254902 0.247059
0.427451 0.278431 0.274510
0.478431 0.313725 0.317647
0.533333 0.352941 0.352941
0.584314 0.396078 0.396078
0.635294 0.439216 0.443137
0.690196 0.490196 0.486275
0.741176 0.541176 0.537255
0.780392 0.592157 0.584314
0.019608 0.027451 0.015686
0.019608 0.027451 0.023529
0.019608 0.027451 0.015686
0.039216 0.035294 0.027451
0.039216 0.039216 0.039216
0.066667 0.050980 0.047059
0.082353 0.058824 0.058824
0.101961 0.070588 0.062745
0.121569 0.082353 0.078431
0.156863 0.101961 0.098039
0.180392 0.117647 0.117647
0.211765 0.141176 0.133333
0.243137 0.164706 0.160784
0.270588 0.188235 0.176471
0.313725 0.219608 0.203922
0.356863 0.247059 0.235294
0.396078 0.274510 0.262745
0.447059 0.309804 0.301961
0.498039 0.341176 0.341176
0.552941 0.380392 0.376471
0.600000 0.419608 0.419608
0.654902 0.466667 0.458824
0.709804 0.513725 0.509804
0.752941 0.564706 0.564706
0.788235 0.607843 0.607843
0.047059 0.054902 0.035294
0.047059 0.054902 0.035294
0.050980 0.058824 0.047059
0.062745 0.062745 0.054902
0.078431 0.074510 0.058824
0.098039 0.082353 0.070588
0.109804 0.094118 0.082353
0.133333 0.101961 0.090196
0.152941 0.113725 0.105882
0.176471 0.133333 0.117647
0.207843 0.149020 0.137255
0.239216 0.168627 0.152941
0.270588 0.196078 0.180392
0.298039 0.215686 0.203922
0.337255 0.243137 0.227451
0.384314 0.274510 0.262745
0.423529 0.301961 0.290196
0.470588 0.333333 0.325490
0.525490 0.368627 0.360784
0.568627 0.407843 0.400000
0.619608 0.443137 0.431373
0.666667 0.490196 0.478431
0.717647 0.541176 0.529412
0.764706 0.588235 0.576471
0.807843 0.635294 0.631373
0.058824 0.078431 0.054902
0.058824 0.078431 0.054902
0.074510 0.082353 0.062745
0.082353 0.094118 0.066667
0.098039 0.101961 0.078431
0.109804 0.105882 0.086275
0.129412 0.117647 0.098039
0.145098 0.125490 0.109804
0.172549 0.133333 0.125490
0.192157 0.152941 0.145098
0.223529 0.168627 0.156863
0.247059 0.188235 0.176471
0.278431 0.207843 0.200000
0.309804 0.235294 0.219608
0.349020 0.254902 0.239216
0.380392 0.282353 0.266667
0.427451 0.313725 0.298039
0.458824 0.337255 0.325490
0.509804 0.372549 0.364706
0.560784 0.403922 0.396078
0.611765 0.450980 0.443137
0.662745 0.490196 0.478431
0.709804 0.533333 0.521569
0.752941 0.576471 0.564706
0.788235 0.615686 0.603922
0.105882 0.133333 0.101961
0.105882 0.125490 0.101961
0.121569 0.133333 0.105882
0.109804 0.129412 0.101961
0.133333 0.137255 0.113725
0.152941 0.149020 0.133333
0.156863 0.160784 0.137255
0.188235 0.176471 0.156863
0.203922 0.184314 0.168627
0.227451 0.200000 0.176471
0.254902 0.211765 0.196078
0.282353 0.227451 0.215686
0.305882 0.247059 0.227451
0.345098 0.270588 0.254902
0.380392 0.298039 0.286275
0.415686 0.317647 0.298039
0.454902 0.345098 0.329412
0.498039 0.376471 0.364706
0.541176 0.411765 0.392157
0.588235 0.439216 0.427451
0.631373 0.474510 0.466667
0.686275 0.513725 0.501961
0.725490 0.552941 0.541176
0.764706 0.603922 0.588235
0.796078 0.635294 0.619608
0.145098 0.184314 0.141176
0.145098 0.172549 0.141176
0.156863 0.176471 0.152941
0.172549 0.184314 0.156863
0.176471 0.188235 0.160784
0.180392 0.192157 0.156863
0.207843 0.207843 0.176471
0.231373 0.219608 0.192157
0.254902 0.239216 0.203922
0.278431 0.250980 0.219608
0.298039 0.262745 0.227451
0.317647 0.278431 0.243137
0.349020 0.298039 0.262745
0.376471 0.321569 0.286275
0.419608 0.337255 0.317647
0.450980 0.360784 0.337255
0.486275 0.388235 0.368627
0.525490 0.411765 0.388235
0.568627 0.447059 0.427451
0.611765 0.482353 0.462745
0.654902 0.517647 0.501961
0.705882 0.560784 0.537255
0.737255 0.600000 0.576471
0.784314 0.635294 0.623529
0.819608 0.666667 0.670588
0.188235 0.227451 0.184314
0.200000 0.227451 0.196078
0.203922 0.235294 0.192157
0.196078 0.239216 0.184314
0.227451 0.239216 0.196078
0.235294 0.247059 0.203922
0.250980 0.262745 0.219608
0.270588 0.278431 0.235294
0.298039 0.290196 0.243137
0.317647 0.301961 0.258824
0.345098 0.309804 0.274510
0.364706 0.325490 0.290196
0.396078 0.345098 0.313725
0.439216 0.364706 0.341176
0.458824 0.384314 0.360784
0.486275 0.407843 0.380392
0.521569 0.431373 0.407843
0.568627 0.462745 0.435294
0.607843 0.494118 0.462745
0.647059 0.529412 0.498039
0.694118 0.564706 0.537255
0.733333 0.603922 0.584314
0.772549 0.643137 0.623529
0.796078 0.674510 0.662745
0.823529 0.705882 0.698039
0.247059 0.290196 0.235294
0.243137 0.282353 0.239216
0.243137 0.290196 0.243137
0.250980 0.290196 0.247059
0.266667 0.298039 0.247059
0.278431 0.301961 0.254902
0.298039 0.309804 0.266667
0.317647 0.325490 0.282353
0.345098 0.337255 0.290196
0.364706 0.356863 0.309804
0.396078 0.368627 0.329412
0.419608 0.384314 0.349020
0.450980 0.400000 0.364706
0.474510 0.419608 0.384314
0.505882 0.439216 0.407843
0.537255 0.462745 0.435294
0.564706 0.486275 0.450980
0.603922 0.513725 0.482353
0.639216 0.541176 0.513725
0.682353 0.576471 0.549020
0.717647 0.603922 0.588235
0.752941 0.639216 0.623529
0.788235 0.674510 0.658824
0.823529 0.709804 0.694118
0.854902 0.737255 0.729412
0.262745 0.309804 0.254902
0.262745 0.309804 0.254902
0.270588 0.313725 0.258824
0.278431 0.321569 0.266667
0.290196 0.321569 0.270588
0.301961 0.325490 0.278431
0.321569 0.333333 0.290196
0.337255 0.349020 0.305882
0.356863 0.364706 0.313725
0.376471 0.376471 0.329412
0.403922 0.396078 0.345098
0.439216 0.415686 0.368627
0.466667 0.435294 0.392157
0.490196 0.450980 0.411765
0.521569 0.466667 0.431373
0.549020 0.482353 0.443137
0.584314 0.505882 0.470588
0.611765 0.533333 0.498039
0.650980 0.560784 0.529412
0.686275 0.596078 0.564706
0.721569 0.623529 0.596078
0.749020 0.650980 0.623529
0.784314 0.686275 0.658824
0.815686 0.717647 0.690196
0.843137 0.745098 0.725490
0.341176 0.392157 0.325490
0.341176 0.384314 0.321569
0.337255 0.384314 0.329412
0.345098 0.396078 0.329412
0.345098 0.396078 0.329412
0.356863 0.388235 0.337255
0.380392 0.407843 0.345098
0.392157 0.415686 0.360784
0.411765 0.427451 0.372549
0.431373 0.439216 0.384314
0.458824 0.462745 0.407843
0.490196 0.478431 0.419608
0.517647 0.494118 0.439216
0.545098 0.509804 0.450980
0.568627 0.521569 0.466667
0.600000 0.545098 0.501961
0.619608 0.564706 0.521569
0.650980 0.584314 0.545098
0.682353 0.611765 0.572549
0.713725 0.635294 0.600000
0.745098 0.666667 0.631373
0.772549 0.694118 0.658824
0.796078 0.717647 0.682353
0.823529 0.749020 0.733333
0.866667 0.764706 0.760784
0.403922 0.462745 0.388235
0.400000 0.458824 0.384314
0.388235 0.454902 0.384314
0.396078 0.462745 0.388235
0.403922 0.454902 0.388235
0.431373 0.454902 0.400000
0.427451 0.470588 0.407843
0.447059 0.482353 0.415686
0.466667 0.494118 0.431373
0.490196 0.505882 0.447059
0.509804 0.517647 0.462745
0.529412 0.533333 0.478431
0.560784 0.552941 0.494118
0.584314 0.572549 0.513725
0.615686 0.576471 0.529412
0.643137 0.596078 0.549020
0.666667 0.619608 0.572549
0.694118 0.639216 0.596078
0.717647 0.662745 0.619608
0.749020 0.682353 0.643137
0.772549 0.705882 0.674510
0.803922 0.729412 0.701961
0.831373 0.749020 0.729412
0.850980 0.776471 0.752941
0.882353 0.803922 0.807843
0.466667 0.521569 0.454902
0.470588 0.525490 0.458824
0.462745 0.521569 0.447059
0.458824 0.525490 0.450980
0.486275 0.521569 0.447059
0.482353 0.525490 0.458824
0.490196 0.533333 0.466667
0.509804 0.545098 0.478431
0.521569 0.556863 0.490196
0.541176 0.568627 0.505882
0.564706 0.580392 0.521569
0.576471 0.592157 0.533333
0.596078 0.603922 0.549020
0.635294 0.623529 0.564706
0.650980 0.639216 0.580392
0.674510 0.650980 0.596078
0.701961 0.670588 0.619608
0.729412 0.690196 0.650980
0.756863 0.705882 0.670588
0.784314 0.729412 0.694118
0.803922 0.749020 0.713725
0.823529 0.772549 0.749020
0.854902 0.796078 0.768627
0.870588 0.811765 0.784314
0.890196 0.835294 0.823529
0.529412 0.600000 0.513725
0.525490 0.592157 0.521569
0.521569 0.588235 0.513725
0.533333 0.584314 0.513725
0.533333 0.592157 0.509804
0.541176 0.592157 0.521569
0.549020 0.600000 0.529412
0.572549 0.607843 0.541176
0.572549 0.615686 0.549020
0.600000 0.627451 0.564706
0.615686 0.643137 0.580392
0.635294 0.650980 0.592157
0.654902 0.658824 0.596078
0.678431 0.670588 0.611765
0.698039 0.690196 0.631373
0.721569 0.705882 0.658824
0.741176 0.717647 0.670588
0.764706 0.729412 0.694118
0.780392 0.745098 0.709804
0.803922 0.764706 0.729412
0.827451 0.784314 0.760784
0.847059 0.803922 0.780392
0.862745 0.819608 0.796078
0.894118 0.843137 0.819608
0.909804 0.854902 0.843137
0.541176 0.600000 0.525490
0.545098 0.603922 0.529412
0.545098 0.603922 0.529412
0.552941 0.611765 0.537255
0.552941 0.611765 0.537255
0.560784 0.619608 0.545098
0.568627 0.619608 0.549020
0.584314 0.635294 0.564706
0.596078 0.643137 0.564706
0.611765 0.658824 0.580392
0.635294 0.670588 0.596078
0.650980 0.678431 0.615686
0.670588 0.686275 0.627451
0.690196 0.698039 0.643137
0.709804 0.713725 0.658824
0.733333 0.725490 0.674510
0.756863 0.741176 0.694118
0.780392 0.752941 0.713725
0.792157 0.764706 0.725490
0.819608 0.784314 0.749020
0.839216 0.803922 0.776471
0.854902 0.819608 0.792157
0.870588 0.835294 0.815686
0.886275 0.850980 0.831373
0.913725 0.866667 0.866667
0.623529 0.690196 0.627451
0.627451 0.694118 0.619608
0.631373 0.678431 0.623529
0.631373 0.682353 0.615686
0.615686 0.690196 0.611765
0.643137 0.686275 0.623529
0.643137 0.694118 0.623529
0.654902 0.698039 0.631373
0.670588 0.705882 0.639216
0.682353 0.717647 0.650980
0.694118 0.717647 0.662745
0.701961 0.725490 0.670588
0.721569 0.737255 0.682353
0.737255 0.749020 0.705882
0.752941 0.760784 0.717647
0.768627 0.768627 0.721569
0.788235 0.780392 0.733333
0.807843 0.792157 0.749020
0.827451 0.800000 0.760784
0.843137 0.815686 0.784314
0.858824 0.831373 0.800000
0.878431 0.843137 0.823529
0.894118 0.858824 0.839216
0.909804 0.874510 0.854902
0.925490 0.890196 0.870588
0.694118 0.737255 0.682353
0.694118 0.741176 0.686275
0.694118 0.741176 0.686275
0.690196 0.745098 0.678431
0.694118 0.741176 0.694118
0.694118 0.741176 0.686275
0.701961 0.752941 0.686275
0.705882 0.756863 0.690196
0.717647 0.760784 0.698039
0.733333 0.764706 0.705882
0.745098 0.768627 0.721569
0.752941 0.776471 0.729412
0.772549 0.780392 0.737255
0.780392 0.788235 0.745098
0.796078 0.803922 0.752941
0.803922 0.811765 0.760784
0.823529 0.823529 0.776471
0.835294 0.823529 0.788235
0.847059 0.835294 0.800000
0.866667 0.847059 0.823529
0.886275 0.858824 0.835294
0.898039 0.870588 0.847059
0.909804 0.890196 0.866667
0.913725 0.901961 0.874510
0.925490 0.921569 0.901961
0.756863 0.800000 0.745098
0.745098 0.800000 0.741176
0.749020 0.796078 0.749020
0.752941 0.792157 0.749020
0.745098 0.792157 0.745098
0.756863 0.800000 0.745098
0.756863 0.800000 0.745098
0.760784 0.803922 0.749020
0.772549 0.803922 0.752941
0.784314 0.815686 0.764706
0.796078 0.819608 0.772549
0.800000 0.823529 0.776471
0.811765 0.823529 0.780392
0.815686 0.839216 0.792157
0.831373 0.843137 0.800000
0.839216 0.850980 0.815686
0.850980 0.854902 0.823529
0.862745 0.862745 0.831373
0.874510 0.874510 0.843137
0.890196 0.878431 0.850980
0.898039 0.886275 0.858824
0.917647 0.898039 0.874510
0.925490 0.905882 0.882353
0.941176 0.921569 0.898039
0.949020 0.929412 0.913725
0.800000 0.847059 0.792157
0.792157 0.839216 0.792157
0.792157 0.839216 0.792157
0.792157 0.831373 0.788235
0.796078 0.839216 0.784314
0.796078 0.843137 0.788235
0.800000 0.843137 0.788235
0.803922 0.850980 0.803922
0.819608 0.850980 0.807843
0.811765 0.858824 0.811765
0.831373 0.862745 0.819608
0.835294 0.866667 0.815686
0.847059 0.866667 0.839216
0.850980 0.870588 0.843137
0.862745 0.874510 0.839216
0.874510 0.878431 0.847059
0.882353 0.886275 0.854902
0.894118 0.894118 0.862745
0.901961 0.901961 0.870588
0.913725 0.913725 0.882353
0.913725 0.913725 0.882353
0.929412 0.917647 0.890196
0.941176 0.929412 0.909804
0.952941 0.941176 0.921569
0.960784 0.949020 0.929412
0.811765 0.850980 0.807843
0.811765 0.850980 0.807843
0.807843 0.847059 0.803922
0.815686 0.854902 0.811765
0.815686 0.854902 0.811765
0.819608 0.858824 0.815686
0.827451 0.858824 0.815686
0.835294 0.866667 0.823529
0.843137 0.866667 0.827451
0.847059 0.870588 0.831373
0.850980 0.874510 0.835294
0.858824 0.882353 0.843137
0.862745 0.886275 0.847059
0.870588 0.894118 0.854902
0.882353 0.894118 0.858824
0.890196 0.901961 0.866667
0.898039 0.909804 0.882353
0.909804 0.913725 0.890196
0.913725 0.917647 0.894118
0.929412 0.925490 0.905882
0.933333 0.929412 0.909804
0.933333 0.929412 0.909804
0.941176 0.937255 0.917647
0.949020 0.945098 0.925490
0.960784 0.956863 0.937255
0.874510 0.901961 0.874510
0.882353 0.894118 0.858824
0.866667 0.894118 0.862745
0.878431 0.905882 0.874510
0.862745 0.901961 0.858824
0.870588 0.890196 0.862745
0.874510 0.901961 0.870588
0.870588 0.909804 0.874510
0.878431 0.905882 0.874510
0.886275 0.905882 0.878431
0.890196 0.909804 0.882353
0.894118 0.913725 0.886275
0.905882 0.917647 0.890196
0.909804 0.921569 0.894118
0.917647 0.921569 0.901961
0.913725 0.933333 0.905882
0.925490 0.937255 0.909804
0.933333 0.937255 0.913725
0.941176 0.945098 0.921569
0.945098 0.949020 0.925490
0.949020 0.952941 0.929412
0.952941 0.949020 0.933333
0.960784 0.956863 0.941176
0.960784 0.964706 0.945098
0.980392 0.968627 0.941176
0.901961 0.937255 0.917647
0.905882 0.933333 0.905882
0.905882 0.929412 0.890196
0.905882 0.937255 0.894118
0.905882 0.925490 0.901961
0.905882 0.933333 0.901961
0.913725 0.933333 0.905882
0.921569 0.933333 0.905882
0.921569 0.933333 0.905882
0.917647 0.937255 0.909804
0.921569 0.941176 0.913725
0.921569 0.941176 0.913725
0.929412 0.949020 0.921569
0.941176 0.952941 0.925490
0.941176 0.949020 0.929412
0.945098 0.952941 0.933333
0.956863 0.960784 0.941176
0.956863 0.960784 0.941176
0.964706 0.968627 0.949020
0.968627 0.972549 0.952941
0.972549 0.968627 0.952941
0.976471 0.972549 0.956863
0.976471 0.972549 0.956863
0.984314 0.988235 0.968627
0.996078 0.984314 0.964706
0.941176 0.960784 0.937255
0.952941 0.960784 0.941176
0.933333 0.960784 0.933333
0.941176 0.960784 0.933333
0.937255 0.964706 0.933333
0.937255 0.964706 0.937255
0.941176 0.960784 0.937255
0.941176 0.960784 0.937255
0.941176 0.960784 0.937255
0.945098 0.964706 0.941176
0.949020 0.968627 0.945098
0.956863 0.968627 0.941176
0.964706 0.976471 0.949020
0.960784 0.972549 0.945098
0.972549 0.976471 0.956863
0.972549 0.976471 0.956863
0.976471 0.976471 0.968627
0.980392 0.980392 0.972549
0.984314 0.984314 0.976471
0.984314 0.984314 0.976471
0.988235 0.988235 0.980392
0.988235 0.988235 0.980392
0.992157 0.992157 0.984314
0.984314 0.992157 0.980392
0.996078 1.000000 0.980392
0.976471 0.984314 0.980392
0.976471 0.984314 0.972549
0.968627 0.976471 0.964706
0.972549 0.980392 0.960784
0.960784 0.980392 0.964706
0.972549 0.980392 0.968627
0.964706 0.984314 0.968627
0.972549 0.980392 0.968627
0.964706 0.984314 0.968627
0.976471 0.976471 0.968627
0.976471 0.984314 0.964706
0.984314 0.988235 0.968627
0.984314 0.992157 0.980392
0.984314 0.992157 0.980392
0.984314 0.984314 0.976471
0.988235 0.988235 0.980392
0.988235 0.996078 0.984314
0.992157 1.000000 0.988235
0.992157 1.000000 0.988235
0.992157 1.000000 0.988235
1.000000 1.000000 0.992157
1.000000 1.000000 0.992157
1.000000 1.000000 0.992157
0.996078 0.996078 0.996078
1.000000 1.000000 1.000000
0.000000 0.003922 0.000000
0.000000 0.003922 0.000000
0.000000 0.000000 0.000000
0.003922 0.003922 0.003922
0.011765 0.003922 0.007843
0.027451 0.011765 0.015686
0.035294 0.019608 0.015686
0.050980 0.027451 0.027451
0.078431 0.039216 0.043137
0.101961 0.054902 0.054902
0.141176 0.078431 0.082353
0.172549 0.101961 0.101961
0.207843 0.121569 0.129412
0.243137 0.149020 0.149020
0.286275 0.172549 0.180392
0.325490 0.207843 0.207843
0.372549 0.239216 0.235294
0.407843 0.266667 0.266667
0.458824 0.301961 0.301961
0.517647 0.345098 0.349020
0.564706 0.384314 0.384314
0.623529 0.427451 0.431373
0.678431 0.478431 0.474510
0.725490 0.525490 0.521569
0.768627 0.564706 0.572549
0.003922 0.000000 0.000000
0.000000 0.003922 0.000000
0.003922 0.003922 0.000000
0.003922 0.003922 0.000000
0.015686 0.011765 0.003922
0.035294 0.011765 0.019608
0.043137 0.027451 0.023529
0.070588 0.035294 0.039216
0.090196 0.050980 0.054902
0.125490 0.070588 0.070588
0.152941 0.090196 0.090196
0.184314 0.113725 0.113725
0.219608 0.137255 0.133333
0.258824 0.164706 0.156863
0.294118 0.192157 0.188235
0.337255 0.211765 0.215686
0.380392 0.247059 0.243137
0.427451 0.274510 0.278431
0.470588 0.313725 0.313725
0.521569 0.349020 0.345098
0.572549 0.392157 0.392157
0.631373 0.443137 0.443137
0.678431 0.482353 0.486275
0.729412 0.525490 0.533333
0.776471 0.588235 0.580392
0.007843 0.000000 0.003922
0.007843 0.007843 0.015686
0.015686 0.015686 0.007843
0.023529 0.019608 0.011765
0.031373 0.015686 0.011765
0.047059 0.031373 0.019608
0.062745 0.039216 0.039216
0.086275 0.050980 0.054902
0.109804 0.070588 0.066667
0.141176 0.086275 0.086275
0.164706 0.101961 0.101961
0.203922 0.125490 0.129412
0.239216 0.156863 0.152941
0.270588 0.176471 0.176471
0.313725 0.203922 0.200000
0.345098 0.227451 0.227451
0.388235 0.266667 0.258824
0.435294 0.298039 0.290196
0.486275 0.329412 0.329412
0.529412 0.368627 0.360784
0.588235 0.407843 0.407843
0.643137 0.454902 0.454902
0.698039 0.501961 0.505882
0.741176 0.545098 0.556863
0.784314 0.596078 0.596078
0.019608 0.027451 0.015686
0.023529 0.023529 0.023529
0.031373 0.031373 0.031373
0.050980 0.035294 0.031373
0.050980 0.047059 0.039216
0.070588 0.054902 0.043137
0.086275 0.066667 0.054902
0.109804 0.078431 0.070588
0.129412 0.090196 0.086275
0.160784 0.105882 0.101961
0.188235 0.125490 0.125490
0.219608 0.149020 0.149020
0.247059 0.168627 0.164706
0.290196 0.196078 0.188235
0.321569 0.219608 0.215686
0.368627 0.250980 0.250980
0.415686 0.282353 0.278431
0.458824 0.309804 0.305882
0.505882 0.349020 0.341176
0.556863 0.396078 0.388235
0.603922 0.431373 0.419608
0.658824 0.470588 0.462745
0.709804 0.521569 0.521569
0.749020 0.568627 0.568627
0.807843 0.611765 0.615686
0.035294 0.062745 0.035294
0.054902 0.062745 0.043137
0.050980 0.058824 0.039216
0.066667 0.074510 0.054902
0.090196 0.074510 0.062745
0.101961 0.086275 0.074510
0.117647 0.098039 0.086275
0.129412 0.109804 0.098039
0.160784 0.121569 0.113725
0.184314 0.145098 0.137255
0.215686 0.160784 0.156863
0.231373 0.176471 0.164706
0.278431 0.200000 0.196078
0.305882 0.223529 0.211765
0.349020 0.247059 0.243137
0.396078 0.278431 0.270588
0.435294 0.301961 0.294118
0.478431 0.341176 0.333333
0.529412 0.372549 0.364706
0.568627 0.411765 0.403922
0.627451 0.447059 0.447059
0.670588 0.490196 0.490196
0.721569 0.541176 0.541176
0.764706 0.584314 0.584314
0.811765 0.631373 0.631373
0.066667 0.074510 0.054902
0.074510 0.082353 0.062745
0.082353 0.090196 0.070588
0.090196 0.094118 0.074510
0.098039 0.101961 0.082353
0.109804 0.105882 0.090196
0.137255 0.125490 0.105882
0.152941 0.133333 0.117647
0.172549 0.141176 0.129412
0.196078 0.160784 0.141176
0.219608 0.176471 0.160784
0.250980 0.200000 0.176471
0.282353 0.211765 0.196078
0.313725 0.239216 0.215686
0.356863 0.262745 0.247059
0.392157 0.294118 0.274510
0.431373 0.317647 0.301961
0.474510 0.341176 0.333333
0.517647 0.380392 0.372549
0.576471 0.419608 0.411765
0.623529 0.462745 0.454902
0.662745 0.501961 0.486275
0.713725 0.541176 0.529412
0.756863 0.584314 0.572549
0.792157 0.631373 0.615686
0.098039 0.137255 0.105882
0.098039 0.141176 0.117647
0.113725 0.141176 0.109804
0.129412 0.133333 0.113725
0.141176 0.145098 0.125490
0.152941 0.156863 0.137255
0.172549 0.168627 0.149020
0.192157 0.180392 0.152941
0.211765 0.192157 0.168627
0.235294 0.207843 0.184314
0.254902 0.219608 0.200000
0.282353 0.239216 0.215686
0.313725 0.254902 0.235294
0.349020 0.282353 0.254902
0.380392 0.305882 0.282353
0.427451 0.317647 0.305882
0.462745 0.352941 0.337255
0.505882 0.384314 0.372549
0.549020 0.419608 0.400000
0.588235 0.450980 0.435294
0.635294 0.486275 0.474510
0.682353 0.529412 0.509804
0.725490 0.572549 0.552941
0.768627 0.611765 0.611765
0.811765 0.650980 0.643137
0.145098 0.184314 0.149020
0.156863 0.184314 0.152941
0.156863 0.176471 0.149020
0.176471 0.188235 0.160784
0.184314 0.196078 0.160784
0.196078 0.200000 0.168627
0.211765 0.207843 0.188235
0.235294 0.223529 0.196078
0.258824 0.239216 0.215686
0.282353 0.254902 0.223529
0.298039 0.262745 0.235294
0.321569 0.278431 0.254902
0.360784 0.301961 0.274510
0.396078 0.329412 0.301961
0.423529 0.341176 0.321569
0.458824 0.368627 0.345098
0.490196 0.392157 0.372549
0.533333 0.419608 0.403922
0.580392 0.458824 0.439216
0.627451 0.490196 0.474510
0.674510 0.525490 0.513725
0.713725 0.564706 0.552941
0.741176 0.603922 0.580392
0.780392 0.650980 0.623529
0.819608 0.682353 0.674510
0.200000 0.239216 0.196078
0.211765 0.231373 0.203922
0.203922 0.243137 0.200000
0.211765 0.243137 0.200000
0.235294 0.239216 0.207843
0.243137 0.254902 0.219608
0.258824 0.262745 0.231373
0.278431 0.278431 0.247059
0.301961 0.290196 0.254902
0.321569 0.305882 0.270588
0.349020 0.321569 0.282353
0.376471 0.337255 0.301961
0.400000 0.360784 0.325490
0.431373 0.376471 0.341176
0.462745 0.396078 0.364706
0.498039 0.419608 0.392157
0.537255 0.447059 0.415686
0.568627 0.470588 0.443137
0.615686 0.501961 0.478431
0.650980 0.537255 0.513725
0.690196 0.568627 0.549020
0.733333 0.603922 0.584314
0.776471 0.639216 0.623529
0.811765 0.678431 0.670588
0.835294 0.721569 0.705882
0.262745 0.294118 0.243137
0.254902 0.294118 0.250980
0.254902 0.294118 0.250980
0.266667 0.298039 0.254902
0.274510 0.305882 0.254902
0.290196 0.313725 0.266667
0.298039 0.321569 0.274510
0.325490 0.333333 0.282353
0.341176 0.349020 0.298039
0.372549 0.364706 0.317647
0.396078 0.380392 0.333333
0.427451 0.403922 0.356863
0.450980 0.411765 0.372549
0.478431 0.427451 0.392157
0.505882 0.450980 0.415686
0.545098 0.470588 0.443137
0.572549 0.494118 0.466667
0.611765 0.521569 0.498039
0.643137 0.545098 0.525490
0.682353 0.572549 0.556863
0.717647 0.611765 0.584314
0.752941 0.647059 0.619608
0.788235 0.682353 0.654902
0.819608 0.709804 0.694118
0.854902 0.745098 0.729412
0.270588 0.317647 0.270588
0.274510 0.313725 0.270588
0.282353 0.325490 0.270588
0.286275 0.329412 0.274510
0.298039 0.341176 0.286275
0.309804 0.341176 0.290196
0.329412 0.352941 0.305882
0.341176 0.364706 0.317647
0.364706 0.372549 0.321569
0.388235 0.388235 0.341176
0.415686 0.407843 0.356863
