resources/LUTs/Black and White/12.cube
TITLE "B&W Preset #12"
#LUT size
LUT_3D_SIZE 9
#LUT data points
0.000000 0.000000 0.000000
0.000000 0.000000 0.000000
0.039216 0.015686 0.015686
0.094118 0.047059 0.047059
0.192157 0.113725 0.117647
0.313725 0.196078 0.196078
0.454902 0.298039 0.298039
0.615686 0.419608 0.423529
0.756863 0.560784 0.564706
0.019608 0.027451 0.015686
0.039216 0.035294 0.027451
0.082353 0.058824 0.058824
0.156863 0.101961 0.098039
0.243137 0.164706 0.160784
0.356863 0.247059 0.235294
0.498039 0.341176 0.341176
0.654902 0.466667 0.458824
0.788235 0.607843 0.607843
0.105882 0.133333 0.101961
0.109804 0.129412 0.101961
0.156863 0.160784 0.137255
0.227451 0.200000 0.176471
0.305882 0.247059 0.227451
0.415686 0.317647 0.298039
0.541176 0.411765 0.392157
0.686275 0.513725 0.501961
0.796078 0.635294 0.619608
0.247059 0.290196 0.235294
0.250980 0.290196 0.247059
0.298039 0.309804 0.266667
0.364706 0.356863 0.309804
0.450980 0.400000 0.364706
0.537255 0.462745 0.435294
0.639216 0.541176 0.513725
0.752941 0.639216 0.623529
0.854902 0.737255 0.729412
0.403922 0.462745 0.388235
0.396078 0.462745 0.388235
0.427451 0.470588 0.407843
0.490196 0.505882 0.447059
0.560784 0.552941 0.494118
0.643137 0.596078 0.549020
0.717647 0.662745 0.619608
0.803922 0.729412 0.701961
0.882353 0.803922 0.807843
0.541176 0.600000 0.525490
0.552941 0.611765 0.537255
0.568627 0.619608 0.549020
0.611765 0.658824 0.580392
0.670588 0.686275 0.627451
0.733333 0.725490 0.674510
0.792157 0.764706 0.725490
0.854902 0.819608 0.792157
0.913725 0.866667 0.866667
0.756863 0.800000 0.745098
0.752941 0.792157 0.749020
0.756863 0.800000 0.745098
0.784314 0.815686 0.764706
0.811765 0.823529 0.780392
0.839216 0.850980 0.815686
0.874510 0.874510 0.843137
0.917647 0.898039 0.874510
0.949020 0.929412 0.913725
0.874510 0.901961 0.874510
0.878431 0.905882 0.874510
0.874510 0.901961 0.870588
0.886275 0.905882 0.878431
0.905882 0.917647 0.890196
0.913725 0.933333 0.905882
0.941176 0.945098 0.921569
0.952941 0.949020 0.933333
0.980392 0.968627 0.941176
0.976471 0.984314 0.980392
0.972549 0.980392 0.960784
0.964706 0.984314 0.968627
0.976471 0.976471 0.968627
0.984314 0.992157 0.980392
0.988235 0.988235 0.980392
0.992157 1.000000 0.988235
1.000000 1.000000 0.992157
1.000000 1.000000 1.000000
0.000000 0.003922 0.000000
0.007843 0.000000 0.003922
0.047059 0.023529 0.031373
0.121569 0.074510 0.082353
0.223529 0.145098 0.149020
0.345098 0.227451 0.227451
0.486275 0.329412 0.333333
0.647059 0.450980 0.462745
0.772549 0.592157 0.603922
0.023529 0.031373 0.027451
0.050980 0.050980 0.050980
0.098039 0.078431 0.066667
0.168627 0.121569 0.121569
0.270588 0.192157 0.200000
0.388235 0.278431 0.274510
0.517647 0.360784 0.360784
0.666667 0.486275 0.486275
0.800000 0.627451 0.631373
0.117647 0.137255 0.113725
0.141176 0.149020 0.137255
0.184314 0.172549 0.152941
0.243137 0.211765 0.200000
0.329412 0.270588 0.250980
0.431373 0.333333 0.317647
0.564706 0.431373 0.423529
0.698039 0.541176 0.533333
0.819608 0.670588 0.658824
0.266667 0.305882 0.270588
0.282353 0.321569 0.278431
0.325490 0.337255 0.301961
0.388235 0.372549 0.337255
0.462745 0.423529 0.384314
0.552941 0.478431 0.450980
0.658824 0.552941 0.525490
0.760784 0.647059 0.631373
0.858824 0.749020 0.737255
0.427451 0.482353 0.415686
0.415686 0.482353 0.411765
0.458824 0.490196 0.431373
0.509804 0.525490 0.466667
0.580392 0.572549 0.521569
0.650980 0.619608 0.576471
0.733333 0.678431 0.643137
0.811765 0.745098 0.717647
0.890196 0.819608 0.803922
0.568627 0.627451 0.552941
0.576471 0.631373 0.564706
0.596078 0.647059 0.580392
0.635294 0.670588 0.603922
0.682353 0.698039 0.643137
0.745098 0.729412 0.686275
0.803922 0.776471 0.737255
0.862745 0.827451 0.800000
0.913725 0.874510 0.866667
0.760784 0.811765 0.745098
0.760784 0.807843 0.760784
0.776471 0.807843 0.764706
0.792157 0.823529 0.780392
0.823529 0.835294 0.800000
0.850980 0.858824 0.815686
0.882353 0.882353 0.850980
0.913725 0.894118 0.870588
0.952941 0.937255 0.925490
0.878431 0.905882 0.874510
0.882353 0.901961 0.874510
0.894118 0.901961 0.882353
0.890196 0.909804 0.882353
0.898039 0.925490 0.894118
0.925490 0.929412 0.909804
0.945098 0.941176 0.921569
0.952941 0.956863 0.933333
0.976471 0.972549 0.964706
0.980392 0.980392 0.972549
0.976471 0.984314 0.964706
0.976471 0.984314 0.972549
0.984314 0.988235 0.968627
0.984314 0.992157 0.980392
0.992157 0.992157 0.984314
0.996078 0.996078 0.988235
1.000000 1.000000 0.992157
1.000000 1.000000 0.992157
0.000000 0.000000 0.015686
0.007843 0.003922 0.023529
0.054902 0.031373 0.047059
0.129412 0.082353 0.098039
0.235294 0.156863 0.164706
0.352941 0.239216 0.254902
0.498039 0.345098 0.356863
0.647059 0.466667 0.478431
0.780392 0.600000 0.607843
0.031373 0.035294 0.050980
0.054902 0.054902 0.054902
0.101961 0.082353 0.098039
0.180392 0.133333 0.149020
0.282353 0.207843 0.223529
0.396078 0.294118 0.305882
0.541176 0.380392 0.396078
0.682353 0.509804 0.505882
0.807843 0.635294 0.631373
0.129412 0.145098 0.149020
0.149020 0.156863 0.152941
0.188235 0.184314 0.176471
0.254902 0.219608 0.223529
0.341176 0.278431 0.278431
0.450980 0.356863 0.349020
0.568627 0.447059 0.439216
0.705882 0.552941 0.556863
0.811765 0.670588 0.670588
0.274510 0.321569 0.282353
0.294118 0.321569 0.294118
0.325490 0.345098 0.317647
0.396078 0.384314 0.356863
0.470588 0.427451 0.403922
0.552941 0.486275 0.458824
0.658824 0.564706 0.549020
0.764706 0.654902 0.643137
0.862745 0.752941 0.741176
0.439216 0.486275 0.431373
0.435294 0.490196 0.439216
0.470588 0.501961 0.458824
0.513725 0.525490 0.482353
0.580392 0.572549 0.525490
0.658824 0.619608 0.584314
0.733333 0.682353 0.650980
0.815686 0.749020 0.721569
0.878431 0.815686 0.815686
0.576471 0.643137 0.580392
0.592157 0.647059 0.588235
0.607843 0.654902 0.600000
0.639216 0.682353 0.619608
0.690196 0.701961 0.658824
0.749020 0.737255 0.701961
0.807843 0.780392 0.749020
0.870588 0.835294 0.815686
0.929412 0.874510 0.874510
0.768627 0.811765 0.756863
0.772549 0.811765 0.768627
0.780392 0.811765 0.768627
0.796078 0.827451 0.784314
0.819608 0.843137 0.803922
0.850980 0.854902 0.823529
0.878431 0.878431 0.847059
0.917647 0.901961 0.890196
0.945098 0.941176 0.933333
0.886275 0.913725 0.882353
0.882353 0.913725 0.870588
0.886275 0.905882 0.878431
0.894118 0.913725 0.886275
0.905882 0.925490 0.901961
0.929412 0.929412 0.921569
0.945098 0.941176 0.925490
0.956863 0.960784 0.941176
0.976471 0.972549 0.952941
0.968627 0.988235 0.972549
0.976471 0.984314 0.964706
0.968627 0.984314 0.980392
0.980392 0.988235 0.976471
0.988235 0.988235 0.980392
0.988235 0.988235 0.980392
0.988235 0.996078 0.992157
1.000000 1.000000 0.992157
1.000000 1.000000 0.992157
0.003922 0.003922 0.035294
0.011765 0.007843 0.039216
0.058824 0.035294 0.074510
0.149020 0.086275 0.137255
0.247059 0.160784 0.207843
0.356863 0.250980 0.286275
0.498039 0.352941 0.380392
0.654902 0.478431 0.505882
0.792157 0.600000 0.615686
0.047059 0.058824 0.094118
0.074510 0.062745 0.098039
0.105882 0.094118 0.129412
0.188235 0.137255 0.176471
0.294118 0.211765 0.247059
0.403922 0.298039 0.325490
0.545098 0.388235 0.419608
0.678431 0.513725 0.521569
0.815686 0.639216 0.658824
0.145098 0.164706 0.180392
0.152941 0.172549 0.188235
0.196078 0.192157 0.211765
0.266667 0.231373 0.250980
0.341176 0.294118 0.301961
0.462745 0.364706 0.380392
0.584314 0.458824 0.470588
0.709804 0.568627 0.576471
0.823529 0.670588 0.674510
0.282353 0.321569 0.317647
0.290196 0.325490 0.321569
0.329412 0.349020 0.333333
0.388235 0.384314 0.368627
0.478431 0.439216 0.435294
0.560784 0.501961 0.490196
0.670588 0.576471 0.576471
0.764706 0.662745 0.658824
0.854902 0.752941 0.749020
0.435294 0.498039 0.458824
0.439216 0.490196 0.454902
0.466667 0.513725 0.474510
0.525490 0.537255 0.509804
0.592157 0.572549 0.549020
0.662745 0.627451 0.600000
0.745098 0.686275 0.666667
0.811765 0.752941 0.741176
0.890196 0.819608 0.811765
0.580392 0.643137 0.600000
0.596078 0.647059 0.607843
0.623529 0.662745 0.619608
0.650980 0.682353 0.639216
0.698039 0.709804 0.674510
0.752941 0.741176 0.713725
0.803922 0.784314 0.760784
0.862745 0.835294 0.811765
0.913725 0.878431 0.858824
0.768627 0.807843 0.764706
0.764706 0.819608 0.768627
0.776471 0.815686 0.780392
0.796078 0.823529 0.792157
0.819608 0.843137 0.803922
0.854902 0.858824 0.835294
0.882353 0.882353 0.850980
0.921569 0.909804 0.890196
0.952941 0.941176 0.921569
0.870588 0.905882 0.886275
0.882353 0.901961 0.878431
0.870588 0.909804 0.878431
0.894118 0.913725 0.886275
0.905882 0.925490 0.901961
0.925490 0.937255 0.909804
0.941176 0.945098 0.921569
0.960784 0.956863 0.941176
0.976471 0.972549 0.952941
0.972549 0.980392 0.968627
0.976471 0.984314 0.964706
0.980392 0.988235 0.976471
0.976471 0.984314 0.972549
0.984314 0.992157 0.980392
0.988235 0.996078 0.984314
0.996078 0.996078 0.988235
1.000000 1.000000 0.992157
1.000000 1.000000 0.992157
0.019608 0.015686 0.078431
0.027451 0.019608 0.074510
0.078431 0.050980 0.113725
0.149020 0.105882 0.172549
0.258824 0.176471 0.243137
0.384314 0.262745 0.333333
0.525490 0.364706 0.419608
0.674510 0.494118 0.545098
0.807843 0.611765 0.658824
0.058824 0.074510 0.121569
0.090196 0.078431 0.152941
0.137255 0.109804 0.180392
0.207843 0.156863 0.223529
0.309804 0.227451 0.294118
0.423529 0.313725 0.372549
0.556863 0.407843 0.458824
0.694118 0.525490 0.564706
0.823529 0.643137 0.694118
0.160784 0.176471 0.223529
0.180392 0.188235 0.235294
0.215686 0.207843 0.258824
0.274510 0.243137 0.294118
0.368627 0.305882 0.349020
0.474510 0.384314 0.423529
0.600000 0.478431 0.509804
0.721569 0.584314 0.607843
0.835294 0.682353 0.701961
0.298039 0.325490 0.356863
0.301961 0.333333 0.345098
0.341176 0.352941 0.372549
0.403922 0.396078 0.415686
0.486275 0.443137 0.458824
0.576471 0.513725 0.525490
0.670588 0.584314 0.596078
0.772549 0.666667 0.686275
0.862745 0.749020 0.764706
0.454902 0.501961 0.501961
0.458824 0.505882 0.498039
0.482353 0.517647 0.513725
0.529412 0.545098 0.541176
0.600000 0.584314 0.580392
0.666667 0.635294 0.627451
0.745098 0.690196 0.686275
0.823529 0.752941 0.745098
0.890196 0.819608 0.811765
0.588235 0.647059 0.619608
0.603922 0.654902 0.619608
0.623529 0.666667 0.635294
0.658824 0.686275 0.658824
0.701961 0.713725 0.686275
0.760784 0.749020 0.729412
0.815686 0.784314 0.772549
0.866667 0.835294 0.823529
0.925490 0.882353 0.874510
0.772549 0.819608 0.780392
0.772549 0.811765 0.780392
0.780392 0.819608 0.784314
0.800000 0.827451 0.796078
0.831373 0.843137 0.815686
0.854902 0.858824 0.835294
0.882353 0.878431 0.862745
0.913725 0.898039 0.886275
0.956863 0.941176 0.929412
0.874510 0.913725 0.882353
0.878431 0.905882 0.874510
0.882353 0.909804 0.882353
0.898039 0.917647 0.890196
0.909804 0.929412 0.905882
0.925490 0.933333 0.913725
0.945098 0.949020 0.929412
0.956863 0.960784 0.941176
0.984314 0.976471 0.980392
0.972549 0.980392 0.960784
0.976471 0.984314 0.972549
0.972549 0.980392 0.968627
0.980392 0.988235 0.976471
0.972549 0.992157 0.976471
0.984314 0.992157 0.980392
0.996078 0.996078 0.988235
0.996078 0.996078 0.996078
1.000000 1.000000 0.992157
0.043137 0.043137 0.145098
0.062745 0.050980 0.156863
0.105882 0.082353 0.192157
0.180392 0.129412 0.231373
0.286275 0.196078 0.305882
0.415686 0.286275 0.392157
0.549020 0.392157 0.486275
0.690196 0.513725 0.592157
0.815686 0.647059 0.713725
0.094118 0.101961 0.192157
0.129412 0.109804 0.227451
0.164706 0.141176 0.250980
0.231373 0.180392 0.282353
0.321569 0.250980 0.352941
0.443137 0.333333 0.423529
0.580392 0.423529 0.517647
0.709804 0.549020 0.619608
0.819608 0.670588 0.713725
0.188235 0.211765 0.305882
0.192157 0.223529 0.305882
0.243137 0.235294 0.321569
0.305882 0.274510 0.356863
0.392157 0.333333 0.407843
0.505882 0.407843 0.490196
0.619608 0.490196 0.556863
0.741176 0.600000 0.647059
0.847059 0.701961 0.733333
0.309804 0.356863 0.411765
0.333333 0.368627 0.427451
0.372549 0.384314 0.443137
0.435294 0.419608 0.474510
0.509804 0.462745 0.517647
0.596078 0.525490 0.572549
0.686275 0.596078 0.635294
0.784314 0.682353 0.717647
0.870588 0.764706 0.792157
0.478431 0.533333 0.545098
0.494118 0.537255 0.560784
0.517647 0.552941 0.572549
0.564706 0.576471 0.596078
0.623529 0.603922 0.627451
0.686275 0.650980 0.662745
0.749020 0.701961 0.709804
0.823529 0.760784 0.764706
0.886275 0.807843 0.815686
0.623529 0.682353 0.670588
0.623529 0.682353 0.670588
0.650980 0.690196 0.686275
0.686275 0.709804 0.709804
0.725490 0.733333 0.729412
0.764706 0.756863 0.760784
0.823529 0.800000 0.800000
0.870588 0.839216 0.831373
0.917647 0.882353 0.886275
0.776471 0.819608 0.803922
0.784314 0.819608 0.807843
0.792157 0.827451 0.807843
0.811765 0.835294 0.819608
0.831373 0.850980 0.835294
0.858824 0.866667 0.847059
0.886275 0.882353 0.866667
0.925490 0.909804 0.898039
0.956863 0.933333 0.933333
0.882353 0.925490 0.909804
0.890196 0.917647 0.890196
0.882353 0.917647 0.905882
0.898039 0.921569 0.905882
0.913725 0.933333 0.909804
0.929412 0.937255 0.925490
0.945098 0.949020 0.929412
0.956863 0.956863 0.949020
0.984314 0.980392 0.964706
0.964706 0.980392 0.976471
0.964706 0.988235 0.972549
0.972549 0.992157 0.976471
0.972549 0.992157 0.976471
0.984314 0.992157 0.988235
0.988235 0.996078 0.992157
0.996078 0.996078 0.988235
0.996078 0.996078 0.988235
1.000000 1.000000 0.992157
0.078431 0.074510 0.239216
0.098039 0.086275 0.254902
0.149020 0.113725 0.282353
0.223529 0.164706 0.333333
0.333333 0.235294 0.392157
0.454902 0.321569 0.466667
0.584314 0.419608 0.560784
0.717647 0.537255 0.650980
0.827451 0.662745 0.749020
0.113725 0.125490 0.286275
0.149020 0.145098 0.309804
0.196078 0.168627 0.333333
0.262745 0.215686 0.372549
0.356863 0.274510 0.427451
0.478431 0.360784 0.501961
0.600000 0.454902 0.576471
0.721569 0.564706 0.658824
0.835294 0.690196 0.760784
0.211765 0.235294 0.376471
0.223529 0.247059 0.388235
0.270588 0.266667 0.400000
0.333333 0.305882 0.439216
0.427451 0.360784 0.494118
0.545098 0.431373 0.549020
0.654902 0.521569 0.619608
0.749020 0.615686 0.682353
0.858824 0.713725 0.780392
0.337255 0.384314 0.486275
0.360784 0.388235 0.490196
0.388235 0.411765 0.513725
0.450980 0.443137 0.537255
0.529412 0.490196 0.584314
0.619608 0.552941 0.627451
0.713725 0.619608 0.682353
0.800000 0.698039 0.749020
0.878431 0.776471 0.811765
0.505882 0.552941 0.600000
0.509804 0.564706 0.615686
0.541176 0.576471 0.635294
0.580392 0.592157 0.650980
0.631373 0.623529 0.678431
0.705882 0.666667 0.709804
0.764706 0.713725 0.752941
0.831373 0.764706 0.796078
0.901961 0.827451 0.850980
0.666667 0.709804 0.733333
0.670588 0.713725 0.737255
0.686275 0.721569 0.741176
0.705882 0.737255 0.749020
0.737255 0.752941 0.764706
0.776471 0.776471 0.784314
0.827451 0.811765 0.815686
0.878431 0.835294 0.850980
0.925490 0.878431 0.886275
0.796078 0.839216 0.823529
0.792157 0.831373 0.827451
0.800000 0.839216 0.835294
0.811765 0.847059 0.843137
0.835294 0.850980 0.847059
0.862745 0.870588 0.866667
0.886275 0.886275 0.886275
0.925490 0.905882 0.921569
0.964706 0.941176 0.941176
0.886275 0.921569 0.917647
0.905882 0.921569 0.917647
0.890196 0.925490 0.913725
0.905882 0.929412 0.913725
0.917647 0.941176 0.925490
0.925490 0.941176 0.937255
0.945098 0.945098 0.937255
0.964706 0.964706 0.956863
0.984314 0.984314 0.976471
0.980392 0.988235 0.976471
0.976471 0.984314 0.980392
0.976471 0.984314 0.972549
0.980392 0.988235 0.976471
0.976471 0.992157 0.988235
0.984314 0.992157 0.980392
0.996078 0.996078 0.988235
1.000000 1.000000 1.000000
1.000000 1.000000 1.000000
0.125490 0.121569 0.388235
0.156863 0.137255 0.400000
0.211765 0.160784 0.431373
0.286275 0.211765 0.462745
0.396078 0.282353 0.533333
0.521569 0.372549 0.603922
0.650980 0.486275 0.674510
0.760784 0.596078 0.737255
0.854902 0.701961 0.784314
0.176471 0.172549 0.447059
0.196078 0.172549 0.447059
0.235294 0.207843 0.470588
0.317647 0.254902 0.501961
0.423529 0.325490 0.552941
0.545098 0.407843 0.619608
0.666667 0.513725 0.690196
0.776471 0.623529 0.745098
0.858824 0.709804 0.800000
0.235294 0.270588 0.501961
0.274510 0.274510 0.509804
0.301961 0.298039 0.533333
0.384314 0.341176 0.560784
0.482353 0.403922 0.611765
0.596078 0.482353 0.662745
0.701961 0.576471 0.721569
0.796078 0.662745 0.768627
0.866667 0.745098 0.815686
0.352941 0.400000 0.596078
0.368627 0.419608 0.592157
0.411765 0.439216 0.619608
0.482353 0.470588 0.639216
0.568627 0.521569 0.670588
0.654902 0.588235 0.713725
0.752941 0.658824 0.760784
0.823529 0.725490 0.807843
0.882353 0.788235 0.843137
0.517647 0.584314 0.701961
0.525490 0.584314 0.698039
0.545098 0.588235 0.705882
0.588235 0.607843 0.721569
0.654902 0.647059 0.741176
0.729412 0.694118 0.776471
0.796078 0.741176 0.807843
0.858824 0.788235 0.835294
0.921569 0.839216 0.874510
0.698039 0.745098 0.792157
0.694118 0.749020 0.792157
0.705882 0.752941 0.800000
0.725490 0.756863 0.800000
0.745098 0.760784 0.807843
0.792157 0.792157 0.831373
0.843137 0.823529 0.850980
0.894118 0.854902 0.886275
0.933333 0.890196 0.913725
0.823529 0.858824 0.878431
0.823529 0.870588 0.870588
0.827451 0.858824 0.870588
0.835294 0.866667 0.878431
0.850980 0.870588 0.882353
0.874510 0.878431 0.894118
0.898039 0.898039 0.905882
0.925490 0.917647 0.929412
0.952941 0.949020 0.941176
0.901961 0.937255 0.933333
0.909804 0.925490 0.921569
0.909804 0.933333 0.925490
0.913725 0.937255 0.937255
0.917647 0.941176 0.941176
0.929412 0.945098 0.949020
0.952941 0.952941 0.952941
0.972549 0.968627 0.960784
0.988235 0.988235 0.980392
0.968627 0.984314 0.996078
0.972549 0.988235 0.984314
0.972549 0.988235 0.984314
0.984314 0.992157 0.988235
0.976471 0.992157 0.996078
0.992157 0.992157 0.992157
0.992157 0.992157 0.992157
1.000000 0.992157 0.996078
1.000000 1.000000 1.000000
0.203922 0.196078 0.627451
0.223529 0.207843 0.643137
0.301961 0.239216 0.658824
0.392157 0.294118 0.690196
0.513725 0.384314 0.741176
0.635294 0.494118 0.784314
0.756863 0.603922 0.819608
0.843137 0.709804 0.854902
0.913725 0.784314 0.898039
0.235294 0.243137 0.670588
0.262745 0.250980 0.662745
0.321569 0.290196 0.686275
0.419608 0.341176 0.713725
0.529412 0.419608 0.752941
0.647059 0.517647 0.788235
0.760784 0.627451 0.827451
0.854902 0.721569 0.866667
0.929412 0.796078 0.890196
0.290196 0.329412 0.701961
0.313725 0.333333 0.701961
0.376471 0.364706 0.721569
0.462745 0.415686 0.745098
0.568627 0.490196 0.772549
0.678431 0.580392 0.807843
0.780392 0.666667 0.847059
0.862745 0.749020 0.870588
0.929412 0.811765 0.913725
0.392157 0.454902 0.749020
0.403922 0.458824 0.752941
0.458824 0.486275 0.768627
0.533333 0.533333 0.784314
0.635294 0.592157 0.811765
0.725490 0.658824 0.831373
0.811765 0.729412 0.858824
0.882353 0.792157 0.894118
0.929412 0.847059 0.913725
0.505882 0.588235 0.796078
0.509804 0.584314 0.803922
0.549020 0.600000 0.803922
0.611765 0.639216 0.819608
0.686275 0.686275 0.835294
0.772549 0.733333 0.866667
0.835294 0.788235 0.882353
0.894118 0.839216 0.905882
0.933333 0.878431 0.929412
0.717647 0.780392 0.878431
0.717647 0.780392 0.870588
0.729412 0.776471 0.870588
0.725490 0.772549 0.874510
0.745098 0.768627 0.862745
0.807843 0.811765 0.894118
0.874510 0.847059 0.909804
0.929412 0.886275 0.941176
0.960784 0.917647 0.949020
0.858824 0.898039 0.937255
0.850980 0.901961 0.937255
0.858824 0.898039 0.933333
0.862745 0.898039 0.933333
0.866667 0.894118 0.925490
0.874510 0.886275 0.921569
0.909804 0.905882 0.937255
0.949020 0.929412 0.952941
0.980392 0.956863 0.972549
0.945098 0.964706 0.976471
0.937255 0.972549 0.968627
0.937255 0.972549 0.968627
0.945098 0.968627 0.968627
0.949020 0.972549 0.972549
0.949020 0.968627 0.980392
0.960784 0.964706 0.972549
0.972549 0.972549 0.980392
0.996078 0.980392 0.984314
0.980392 0.996078 0.992157
0.984314 0.988235 0.996078
0.976471 0.992157 0.996078
0.980392 0.996078 0.992157
0.988235 0.996078 0.984314
0.992157 1.000000 0.996078
0.992157 1.000000 0.996078
1.000000 1.000000 1.000000
1.000000 1.000000 1.000000
