resources/LUTs/Black and White/13.cube
TITLE "B&W Preset #13"
#LUT size
LUT_3D_SIZE 5
#LUT data points
0.000000 0.000000 0.000000
0.011765 0.011765 0.011765
0.098039 0.098039 0.098039
0.266667 0.266667 0.266667
0.525490 0.525490 0.525490
0.094118 0.094118 0.094118
0.133333 0.133333 0.133333
0.215686 0.215686 0.215686
0.368627 0.368627 0.368627
0.600000 0.600000 0.600000
0.400000 0.400000 0.400000
0.423529 0.423529 0.423529
0.498039 0.498039 0.498039
0.596078 0.596078 0.596078
0.756863 0.756863 0.756863
0.737255 0.737255 0.737255
0.741176 0.741176 0.741176
0.772549 0.772549 0.772549
0.819608 0.819608 0.819608
0.898039 0.898039 0.898039
0.964706 0.964706 0.964706
0.964706 0.964706 0.964706
0.976471 0.976471 0.976471
0.984314 0.984314 0.984314
1.000000 1.000000 1.000000
0.000000 0.000000 0.000000
0.019608 0.019608 0.019608
0.133333 0.133333 0.133333
0.309804 0.309804 0.309804
0.552941 0.552941 0.552941
0.109804 0.109804 0.109804
0.145098 0.145098 0.145098
0.243137 0.243137 0.243137
0.392157 0.392157 0.392157
0.615686 0.615686 0.615686
0.415686 0.415686 0.415686
0.435294 0.435294 0.435294
0.505882 0.505882 0.505882
0.603922 0.603922 0.603922
0.760784 0.760784 0.760784
0.737255 0.737255 0.737255
0.745098 0.745098 0.745098
0.776471 0.776471 0.776471
0.823529 0.823529 0.823529
0.905882 0.905882 0.905882
0.964706 0.964706 0.964706
0.968627 0.968627 0.968627
0.972549 0.972549 0.972549
0.984314 0.984314 0.984314
0.996078 0.996078 0.996078
0.011765 0.011765 0.011765
0.043137 0.043137 0.043137
0.160784 0.160784 0.160784
0.337255 0.337255 0.337255
0.572549 0.572549 0.572549
0.141176 0.141176 0.141176
0.176471 0.176471 0.176471
0.270588 0.270588 0.270588
0.427451 0.427451 0.427451
0.631373 0.631373 0.631373
0.435294 0.435294 0.435294
0.458824 0.458824 0.458824
0.521569 0.521569 0.521569
0.619608 0.619608 0.619608
0.764706 0.764706 0.764706
0.745098 0.745098 0.745098
0.752941 0.752941 0.752941
0.784314 0.784314 0.784314
0.827451 0.827451 0.827451
0.909804 0.909804 0.909804
0.968627 0.968627 0.968627
0.964706 0.964706 0.964706
0.972549 0.972549 0.972549
0.980392 0.980392 0.980392
0.996078 0.996078 0.996078
0.070588 0.070588 0.070588
0.109804 0.109804 0.109804
0.219608 0.219608 0.219608
0.392157 0.392157 0.392157
0.619608 0.619608 0.619608
0.207843 0.207843 0.207843
0.235294 0.235294 0.235294
0.329412 0.329412 0.329412
0.478431 0.478431 0.478431
0.666667 0.666667 0.666667
0.486275 0.486275 0.486275
0.501961 0.501961 0.501961
0.556863 0.556863 0.556863
0.650980 0.650980 0.650980
0.780392 0.780392 0.780392
0.772549 0.772549 0.772549
0.772549 0.772549 0.772549
0.800000 0.800000 0.800000
0.839216 0.839216 0.839216
0.913725 0.913725 0.913725
0.968627 0.968627 0.968627
0.968627 0.968627 0.968627
0.976471 0.976471 0.976471
0.984314 0.984314 0.984314
1.000000 1.000000 1.000000
0.223529 0.223529 0.223529
0.266667 0.266667 0.266667
0.384314 0.384314 0.384314
0.568627 0.568627 0.568627
0.741176 0.741176 0.741176
0.325490 0.325490 0.325490
0.368627 0.368627 0.368627
0.470588 0.470588 0.470588
0.623529 0.623529 0.623529
0.772549 0.772549 0.772549
0.549020 0.549020 0.549020
0.564706 0.564706 0.564706
0.635294 0.635294 0.635294
0.737255 0.737255 0.737255
0.839216 0.839216 0.839216
0.847059 0.847059 0.847059
0.850980 0.850980 0.850980
0.850980 0.850980 0.850980
0.866667 0.866667 0.866667
0.929412 0.929412 0.929412
0.988235 0.988235 0.988235
0.988235 0.988235 0.988235
0.988235 0.988235 0.988235
0.996078 0.996078 0.996078
1.000000 1.000000 1.000000
