resources/LUTs/Black and White/13.cube
TITLE "B&W Preset #13"
#LUT size
LUT_3D_SIZE 9
#LUT data points
0.000000 0.000000 0.000000
0.000000 0.000000 0.000000
0.011765 0.011765 0.011765
0.035294 0.035294 0.035294
0.098039 0.098039 0.098039
0.172549 0.172549 0.172549
0.266667 0.266667 0.266667
0.384314 0.384314 0.384314
0.525490 0.525490 0.525490
0.011765 0.011765 0.011765
0.015686 0.015686 0.015686
0.039216 0.039216 0.039216
0.078431 0.078431 0.078431
0.133333 0.133333 0.133333
0.207843 0.207843 0.207843
0.298039 0.298039 0.298039
0.407843 0.407843 0.407843
0.552941 0.552941 0.552941
0.094118 0.094118 0.094118
0.109804 0.109804 0.109804
0.133333 0.133333 0.133333
0.168627 0.168627 0.168627
0.215686 0.215686 0.215686
0.282353 0.282353 0.282353
0.368627 0.368627 0.368627
0.474510 0.474510 0.474510
0.600000 0.600000 0.600000
0.231373 0.231373 0.231373
0.239216 0.239216 0.239216
0.262745 0.262745 0.262745
0.305882 0.305882 0.305882
0.349020 0.349020 0.349020
0.400000 0.400000 0.400000
0.474510 0.474510 0.474510
0.564706 0.564706 0.564706
0.674510 0.674510 0.674510
0.400000 0.400000 0.400000
0.407843 0.407843 0.407843
0.423529 0.423529 0.423529
0.454902 0.454902 0.454902
0.498039 0.498039 0.498039
0.537255 0.537255 0.537255
0.596078 0.596078 0.596078
0.670588 0.670588 0.670588
0.756863 0.756863 0.756863
0.568627 0.568627 0.568627
0.576471 0.576471 0.576471
0.588235 0.588235 0.588235
0.607843 0.607843 0.607843
0.635294 0.635294 0.635294
0.678431 0.678431 0.678431
0.713725 0.713725 0.713725
0.768627 0.768627 0.768627
0.843137 0.843137 0.843137
0.737255 0.737255 0.737255
0.737255 0.737255 0.737255
0.741176 0.741176 0.741176
0.760784 0.760784 0.760784
0.772549 0.772549 0.772549
0.796078 0.796078 0.796078
0.819608 0.819608 0.819608
0.854902 0.854902 0.854902
0.898039 0.898039 0.898039
0.866667 0.866667 0.866667
0.870588 0.870588 0.870588
0.874510 0.874510 0.874510
0.882353 0.882353 0.882353
0.894118 0.894118 0.894118
0.901961 0.901961 0.901961
0.917647 0.917647 0.917647
0.933333 0.933333 0.933333
0.956863 0.956863 0.956863
0.964706 0.964706 0.964706
0.964706 0.964706 0.964706
0.964706 0.964706 0.964706
0.968627 0.968627 0.968627
0.976471 0.976471 0.976471
0.976471 0.976471 0.976471
0.984314 0.984314 0.984314
0.988235 0.988235 0.988235
1.000000 1.000000 1.000000
0.000000 0.000000 0.000000
0.003922 0.003922 0.003922
0.015686 0.015686 0.015686
0.054902 0.054902 0.054902
0.117647 0.117647 0.117647
0.196078 0.196078 0.196078
0.282353 0.282353 0.282353
0.400000 0.400000 0.400000
0.537255 0.537255 0.537255
0.015686 0.015686 0.015686
0.023529 0.023529 0.023529
0.050980 0.050980 0.050980
0.098039 0.098039 0.098039
0.152941 0.152941 0.152941
0.223529 0.223529 0.223529
0.313725 0.313725 0.313725
0.423529 0.423529 0.423529
0.560784 0.560784 0.560784
0.101961 0.101961 0.101961
0.113725 0.113725 0.113725
0.137255 0.137255 0.137255
0.176471 0.176471 0.176471
0.227451 0.227451 0.227451
0.294118 0.294118 0.294118
0.376471 0.376471 0.376471
0.482353 0.482353 0.482353
0.603922 0.603922 0.603922
0.235294 0.235294 0.235294
0.247059 0.247059 0.247059
0.270588 0.270588 0.270588
0.305882 0.305882 0.305882
0.352941 0.352941 0.352941
0.407843 0.407843 0.407843
0.478431 0.478431 0.478431
0.568627 0.568627 0.568627
0.674510 0.674510 0.674510
0.403922 0.403922 0.403922
0.411765 0.411765 0.411765
0.427451 0.427451 0.427451
0.458824 0.458824 0.458824
0.501961 0.501961 0.501961
0.541176 0.541176 0.541176
0.600000 0.600000 0.600000
0.674510 0.674510 0.674510
0.760784 0.760784 0.760784
0.572549 0.572549 0.572549
0.576471 0.576471 0.576471
0.588235 0.588235 0.588235
0.611765 0.611765 0.611765
0.631373 0.631373 0.631373
0.670588 0.670588 0.670588
0.713725 0.713725 0.713725
0.772549 0.772549 0.772549
0.839216 0.839216 0.839216
0.733333 0.733333 0.733333
0.737255 0.737255 0.737255
0.741176 0.741176 0.741176
0.756863 0.756863 0.756863
0.768627 0.768627 0.768627
0.796078 0.796078 0.796078
0.823529 0.823529 0.823529
0.854902 0.854902 0.854902
0.905882 0.905882 0.905882
0.870588 0.870588 0.870588
0.874510 0.874510 0.874510
0.874510 0.874510 0.874510
0.882353 0.882353 0.882353
0.890196 0.890196 0.890196
0.905882 0.905882 0.905882
0.917647 0.917647 0.917647
0.929412 0.929412 0.929412
0.949020 0.949020 0.949020
0.964706 0.964706 0.964706
0.968627 0.968627 0.968627
0.968627 0.968627 0.968627
0.972549 0.972549 0.972549
0.972549 0.972549 0.972549
0.980392 0.980392 0.980392
0.980392 0.980392 0.980392
0.988235 0.988235 0.988235
1.000000 1.000000 1.000000
0.000000 0.000000 0.000000
0.003922 0.003922 0.003922
0.019608 0.019608 0.019608
0.066667 0.066667 0.066667
0.133333 0.133333 0.133333
0.211765 0.211765 0.211765
0.309804 0.309804 0.309804
0.423529 0.423529 0.423529
0.552941 0.552941 0.552941
0.023529 0.023529 0.023529
0.027451 0.027451 0.027451
0.058824 0.058824 0.058824
0.105882 0.105882 0.105882
0.168627 0.168627 0.168627
0.243137 0.243137 0.243137
0.333333 0.333333 0.333333
0.443137 0.443137 0.443137
0.572549 0.572549 0.572549
0.109804 0.109804 0.109804
0.121569 0.121569 0.121569
0.145098 0.145098 0.145098
0.188235 0.188235 0.188235
0.243137 0.243137 0.243137
0.313725 0.313725 0.313725
0.392157 0.392157 0.392157
0.498039 0.498039 0.498039
0.615686 0.615686 0.615686
0.247059 0.247059 0.247059
0.250980 0.250980 0.250980
0.282353 0.282353 0.282353
0.313725 0.313725 0.313725
0.360784 0.360784 0.360784
0.415686 0.415686 0.415686
0.490196 0.490196 0.490196
0.576471 0.576471 0.576471
0.682353 0.682353 0.682353
0.415686 0.415686 0.415686
0.411765 0.411765 0.411765
0.435294 0.435294 0.435294
0.462745 0.462745 0.462745
0.505882 0.505882 0.505882
0.545098 0.545098 0.545098
0.603922 0.603922 0.603922
0.678431 0.678431 0.678431
0.760784 0.760784 0.760784
0.580392 0.580392 0.580392
0.580392 0.580392 0.580392
0.592157 0.592157 0.592157
0.615686 0.615686 0.615686
0.643137 0.643137 0.643137
0.674510 0.674510 0.674510
0.713725 0.713725 0.713725
0.780392 0.780392 0.780392
0.839216 0.839216 0.839216
0.737255 0.737255 0.737255
0.741176 0.741176 0.741176
0.745098 0.745098 0.745098
0.756863 0.756863 0.756863
0.776471 0.776471 0.776471
0.800000 0.800000 0.800000
0.823529 0.823529 0.823529
0.858824 0.858824 0.858824
0.905882 0.905882 0.905882
0.870588 0.870588 0.870588
0.866667 0.866667 0.866667
0.874510 0.874510 0.874510
0.882353 0.882353 0.882353
0.890196 0.890196 0.890196
0.905882 0.905882 0.905882
0.917647 0.917647 0.917647
0.937255 0.937255 0.937255
0.956863 0.956863 0.956863
0.964706 0.964706 0.964706
0.964706 0.964706 0.964706
0.968627 0.968627 0.968627
0.972549 0.972549 0.972549
0.972549 0.972549 0.972549
0.976471 0.976471 0.976471
0.984314 0.984314 0.984314
0.988235 0.988235 0.988235
0.996078 0.996078 0.996078
0.003922 0.003922 0.003922
0.007843 0.007843 0.007843
0.027451 0.027451 0.027451
0.074510 0.074510 0.074510
0.145098 0.145098 0.145098
0.223529 0.223529 0.223529
0.317647 0.317647 0.317647
0.439216 0.439216 0.439216
0.560784 0.560784 0.560784
0.035294 0.035294 0.035294
0.043137 0.043137 0.043137
0.070588 0.070588 0.070588
0.117647 0.117647 0.117647
0.180392 0.180392 0.180392
0.254902 0.254902 0.254902
0.349020 0.349020 0.349020
0.458824 0.458824 0.458824
0.576471 0.576471 0.576471
0.125490 0.125490 0.125490
0.133333 0.133333 0.133333
0.160784 0.160784 0.160784
0.200000 0.200000 0.200000
0.254902 0.254902 0.254902
0.325490 0.325490 0.325490
0.411765 0.411765 0.411765
0.513725 0.513725 0.513725
0.619608 0.619608 0.619608
0.258824 0.258824 0.258824
0.266667 0.266667 0.266667
0.290196 0.290196 0.290196
0.325490 0.325490 0.325490
0.372549 0.372549 0.372549
0.435294 0.435294 0.435294
0.505882 0.505882 0.505882
0.588235 0.588235 0.588235
0.690196 0.690196 0.690196
0.423529 0.423529 0.423529
0.423529 0.423529 0.423529
0.447059 0.447059 0.447059
0.470588 0.470588 0.470588
0.509804 0.509804 0.509804
0.556863 0.556863 0.556863
0.615686 0.615686 0.615686
0.682353 0.682353 0.682353
0.764706 0.764706 0.764706
0.588235 0.588235 0.588235
0.592157 0.592157 0.592157
0.603922 0.603922 0.603922
0.619608 0.619608 0.619608
0.647059 0.647059 0.647059
0.682353 0.682353 0.682353
0.721569 0.721569 0.721569
0.780392 0.780392 0.780392
0.839216 0.839216 0.839216
0.737255 0.737255 0.737255
0.745098 0.745098 0.745098
0.749020 0.749020 0.749020
0.760784 0.760784 0.760784
0.780392 0.780392 0.780392
0.800000 0.800000 0.800000
0.823529 0.823529 0.823529
0.862745 0.862745 0.862745
0.905882 0.905882 0.905882
0.870588 0.870588 0.870588
0.870588 0.870588 0.870588
0.878431 0.878431 0.878431
0.882353 0.882353 0.882353
0.894118 0.894118 0.894118
0.905882 0.905882 0.905882
0.921569 0.921569 0.921569
0.937255 0.937255 0.937255
0.956863 0.956863 0.956863
0.960784 0.960784 0.960784
0.968627 0.968627 0.968627
0.968627 0.968627 0.968627
0.972549 0.972549 0.972549
0.968627 0.968627 0.968627
0.976471 0.976471 0.976471
0.984314 0.984314 0.984314
0.988235 0.988235 0.988235
1.000000 1.000000 1.000000
0.011765 0.011765 0.011765
0.019608 0.019608 0.019608
0.043137 0.043137 0.043137
0.094118 0.094118 0.094118
0.160784 0.160784 0.160784
0.239216 0.239216 0.239216
0.337255 0.337255 0.337255
0.447059 0.447059 0.447059
0.572549 0.572549 0.572549
0.054902 0.054902 0.054902
0.066667 0.066667 0.066667
0.090196 0.090196 0.090196
0.133333 0.133333 0.133333
0.192157 0.192157 0.192157
0.270588 0.270588 0.270588
0.364706 0.364706 0.364706
0.470588 0.470588 0.470588
0.592157 0.592157 0.592157
0.141176 0.141176 0.141176
0.156863 0.156863 0.156863
0.176471 0.176471 0.176471
0.215686 0.215686 0.215686
0.270588 0.270588 0.270588
0.341176 0.341176 0.341176
0.427451 0.427451 0.427451
0.525490 0.525490 0.525490
0.631373 0.631373 0.631373
0.274510 0.274510 0.274510
0.286275 0.286275 0.286275
0.301961 0.301961 0.301961
0.341176 0.341176 0.341176
0.388235 0.388235 0.388235
0.447059 0.447059 0.447059
0.517647 0.517647 0.517647
0.596078 0.596078 0.596078
0.686275 0.686275 0.686275
0.435294 0.435294 0.435294
0.443137 0.443137 0.443137
0.458824 0.458824 0.458824
0.486275 0.486275 0.486275
0.521569 0.521569 0.521569
0.568627 0.568627 0.568627
0.619608 0.619608 0.619608
0.690196 0.690196 0.690196
0.764706 0.764706 0.764706
0.596078 0.596078 0.596078
0.600000 0.600000 0.600000
0.607843 0.607843 0.607843
0.627451 0.627451 0.627451
0.654902 0.654902 0.654902
0.686275 0.686275 0.686275
0.729412 0.729412 0.729412
0.784314 0.784314 0.784314
0.843137 0.843137 0.843137
0.745098 0.745098 0.745098
0.749020 0.749020 0.749020
0.752941 0.752941 0.752941
0.764706 0.764706 0.764706
0.784314 0.784314 0.784314
0.803922 0.803922 0.803922
0.827451 0.827451 0.827451
0.866667 0.866667 0.866667
0.909804 0.909804 0.909804
0.870588 0.870588 0.870588
0.870588 0.870588 0.870588
0.878431 0.878431 0.878431
0.886275 0.886275 0.886275
0.898039 0.898039 0.898039
0.909804 0.909804 0.909804
0.921569 0.921569 0.921569
0.937255 0.937255 0.937255
0.960784 0.960784 0.960784
0.968627 0.968627 0.968627
0.964706 0.964706 0.964706
0.964706 0.964706 0.964706
0.968627 0.968627 0.968627
0.972549 0.972549 0.972549
0.976471 0.976471 0.976471
0.980392 0.980392 0.980392
0.992157 0.992157 0.992157
0.996078 0.996078 0.996078
0.035294 0.035294 0.035294
0.050980 0.050980 0.050980
0.074510 0.074510 0.074510
0.117647 0.117647 0.117647
0.180392 0.180392 0.180392
0.262745 0.262745 0.262745
0.360784 0.360784 0.360784
0.470588 0.470588 0.470588
0.596078 0.596078 0.596078
0.074510 0.074510 0.074510
0.094118 0.094118 0.094118
0.113725 0.113725 0.113725
0.156863 0.156863 0.156863
0.211765 0.211765 0.211765
0.294118 0.294118 0.294118
0.384314 0.384314 0.384314
0.490196 0.490196 0.490196
0.611765 0.611765 0.611765
0.172549 0.172549 0.172549
0.180392 0.180392 0.180392
0.200000 0.200000 0.200000
0.239216 0.239216 0.239216
0.294118 0.294118 0.294118
0.364706 0.364706 0.364706
0.447059 0.447059 0.447059
0.541176 0.541176 0.541176
0.647059 0.647059 0.647059
0.294118 0.294118 0.294118
0.305882 0.305882 0.305882
0.329412 0.329412 0.329412
0.360784 0.360784 0.360784
0.407843 0.407843 0.407843
0.462745 0.462745 0.462745
0.533333 0.533333 0.533333
0.611765 0.611765 0.611765
0.701961 0.701961 0.701961
0.454902 0.454902 0.454902
0.462745 0.462745 0.462745
0.478431 0.478431 0.478431
0.505882 0.505882 0.505882
0.533333 0.533333 0.533333
0.576471 0.576471 0.576471
0.635294 0.635294 0.635294
0.694118 0.694118 0.694118
0.764706 0.764706 0.764706
0.611765 0.611765 0.611765
0.615686 0.615686 0.615686
0.627451 0.627451 0.627451
0.639216 0.639216 0.639216
0.662745 0.662745 0.662745
0.694118 0.694118 0.694118
0.737255 0.737255 0.737255
0.784314 0.784314 0.784314
0.843137 0.843137 0.843137
0.752941 0.752941 0.752941
0.756863 0.756863 0.756863
0.760784 0.760784 0.760784
0.772549 0.772549 0.772549
0.788235 0.788235 0.788235
0.811765 0.811765 0.811765
0.831373 0.831373 0.831373
0.866667 0.866667 0.866667
0.909804 0.909804 0.909804
0.878431 0.878431 0.878431
0.878431 0.878431 0.878431
0.878431 0.878431 0.878431
0.886275 0.886275 0.886275
0.894118 0.894118 0.894118
0.913725 0.913725 0.913725
0.921569 0.921569 0.921569
0.941176 0.941176 0.941176
0.960784 0.960784 0.960784
0.964706 0.964706 0.964706
0.968627 0.968627 0.968627
0.968627 0.968627 0.968627
0.972549 0.972549 0.972549
0.972549 0.972549 0.972549
0.980392 0.980392 0.980392
0.984314 0.984314 0.984314
0.988235 0.988235 0.988235
0.996078 0.996078 0.996078
0.070588 0.070588 0.070588
0.086275 0.086275 0.086275
0.109804 0.109804 0.109804
0.152941 0.152941 0.152941
0.219608 0.219608 0.219608
0.298039 0.298039 0.298039
0.392157 0.392157 0.392157
0.498039 0.498039 0.498039
0.619608 0.619608 0.619608
0.113725 0.113725 0.113725
0.121569 0.121569 0.121569
0.152941 0.152941 0.152941
0.192157 0.192157 0.192157
0.247059 0.247059 0.247059
0.329412 0.329412 0.329412
0.419608 0.419608 0.419608
0.517647 0.517647 0.517647
0.635294 0.635294 0.635294
0.207843 0.207843 0.207843
0.207843 0.207843 0.207843
0.235294 0.235294 0.235294
0.270588 0.270588 0.270588
0.329412 0.329412 0.329412
0.396078 0.396078 0.396078
0.478431 0.478431 0.478431
0.564706 0.564706 0.564706
0.666667 0.666667 0.666667
0.329412 0.329412 0.329412
0.337255 0.337255 0.337255
0.356863 0.356863 0.356863
0.388235 0.388235 0.388235
0.435294 0.435294 0.435294
0.498039 0.498039 0.498039
0.560784 0.560784 0.560784
0.631373 0.631373 0.631373
0.717647 0.717647 0.717647
0.486275 0.486275 0.486275
0.490196 0.490196 0.490196
0.501961 0.501961 0.501961
0.525490 0.525490 0.525490
0.556863 0.556863 0.556863
0.600000 0.600000 0.600000
0.650980 0.650980 0.650980
0.705882 0.705882 0.705882
0.780392 0.780392 0.780392
0.639216 0.639216 0.639216
0.647059 0.647059 0.647059
0.650980 0.650980 0.650980
0.662745 0.662745 0.662745
0.682353 0.682353 0.682353
0.709804 0.709804 0.709804
0.749020 0.749020 0.749020
0.788235 0.788235 0.788235
0.843137 0.843137 0.843137
0.772549 0.772549 0.772549
0.768627 0.768627 0.768627
0.772549 0.772549 0.772549
0.784314 0.784314 0.784314
0.800000 0.800000 0.800000
0.819608 0.819608 0.819608
0.839216 0.839216 0.839216
0.874510 0.874510 0.874510
0.913725 0.913725 0.913725
0.878431 0.878431 0.878431
0.886275 0.886275 0.886275
0.882353 0.882353 0.882353
0.890196 0.890196 0.890196
0.901961 0.901961 0.901961
0.913725 0.913725 0.913725
0.925490 0.925490 0.925490
0.945098 0.945098 0.945098
0.968627 0.968627 0.968627
0.968627 0.968627 0.968627
0.964706 0.964706 0.964706
0.968627 0.968627 0.968627
0.972549 0.972549 0.972549
0.976471 0.976471 0.976471
0.976471 0.976471 0.976471
0.984314 0.984314 0.984314
0.996078 0.996078 0.996078
1.000000 1.000000 1.000000
0.129412 0.129412 0.129412
0.145098 0.145098 0.145098
0.168627 0.168627 0.168627
0.207843 0.207843 0.207843
0.278431 0.278431 0.278431
0.364706 0.364706 0.364706
0.462745 0.462745 0.462745
0.560784 0.560784 0.560784
0.650980 0.650980 0.650980
0.168627 0.168627 0.168627
0.176471 0.176471 0.176471
0.203922 0.203922 0.203922
0.247059 0.247059 0.247059
0.313725 0.313725 0.313725
0.392157 0.392157 0.392157
0.478431 0.478431 0.478431
0.576471 0.576471 0.576471
0.658824 0.658824 0.658824
0.250980 0.250980 0.250980
0.262745 0.262745 0.262745
0.282353 0.282353 0.282353
0.321569 0.321569 0.321569
0.380392 0.380392 0.380392
0.454902 0.454902 0.454902
0.537255 0.537255 0.537255
0.615686 0.615686 0.615686
0.694118 0.694118 0.694118
0.368627 0.368627 0.368627
0.372549 0.372549 0.372549
0.400000 0.400000 0.400000
0.431373 0.431373 0.431373
0.482353 0.482353 0.482353
0.537255 0.537255 0.537255
0.607843 0.607843 0.607843
0.670588 0.670588 0.670588
0.741176 0.741176 0.741176
0.517647 0.517647 0.517647
0.521569 0.521569 0.521569
0.529412 0.529412 0.529412
0.552941 0.552941 0.552941
0.588235 0.588235 0.588235
0.631373 0.631373 0.631373
0.686275 0.686275 0.686275
0.737255 0.737255 0.737255
0.788235 0.788235 0.788235
0.674510 0.674510 0.674510
0.678431 0.678431 0.678431
0.682353 0.682353 0.682353
0.690196 0.690196 0.690196
0.698039 0.698039 0.698039
0.729412 0.729412 0.729412
0.764706 0.764706 0.764706
0.811765 0.811765 0.811765
0.854902 0.854902 0.854902
0.803922 0.803922 0.803922
0.807843 0.807843 0.807843
0.807843 0.807843 0.807843
0.815686 0.815686 0.815686
0.823529 0.823529 0.823529
0.831373 0.831373 0.831373
0.854902 0.854902 0.854902
0.882353 0.882353 0.882353
0.917647 0.917647 0.917647
0.901961 0.901961 0.901961
0.898039 0.898039 0.898039
0.898039 0.898039 0.898039
0.901961 0.901961 0.901961
0.909804 0.909804 0.909804
0.913725 0.913725 0.913725
0.929412 0.929412 0.929412
0.945098 0.945098 0.945098
0.968627 0.968627 0.968627
0.968627 0.968627 0.968627
0.972549 0.972549 0.972549
0.972549 0.972549 0.972549
0.972549 0.972549 0.972549
0.976471 0.976471 0.976471
0.980392 0.980392 0.980392
0.984314 0.984314 0.984314
0.992157 0.992157 0.992157
1.000000 1.000000 1.000000
0.223529 0.223529 0.223529
0.235294 0.235294 0.235294
0.266667 0.266667 0.266667
0.313725 0.313725 0.313725
0.384314 0.384314 0.384314
0.474510 0.474510 0.474510
0.568627 0.568627 0.568627
0.658824 0.658824 0.658824
0.741176 0.741176 0.741176
0.258824 0.258824 0.258824
0.262745 0.262745 0.262745
0.298039 0.298039 0.298039
0.345098 0.345098 0.345098
0.411765 0.411765 0.411765
0.490196 0.490196 0.490196
0.584314 0.584314 0.584314
0.670588 0.670588 0.670588
0.749020 0.749020 0.749020
0.325490 0.325490 0.325490
0.341176 0.341176 0.341176
0.368627 0.368627 0.368627
0.407843 0.407843 0.407843
0.470588 0.470588 0.470588
0.545098 0.545098 0.545098
0.623529 0.623529 0.623529
0.701961 0.701961 0.701961
0.772549 0.772549 0.772549
0.431373 0.431373 0.431373
0.439216 0.439216 0.439216
0.462745 0.462745 0.462745
0.501961 0.501961 0.501961
0.552941 0.552941 0.552941
0.607843 0.607843 0.607843
0.678431 0.678431 0.678431
0.745098 0.745098 0.745098
0.800000 0.800000 0.800000
0.549020 0.549020 0.549020
0.549020 0.549020 0.549020
0.564706 0.564706 0.564706
0.596078 0.596078 0.596078
0.635294 0.635294 0.635294
0.682353 0.682353 0.682353
0.737255 0.737255 0.737255
0.792157 0.792157 0.792157
0.839216 0.839216 0.839216
0.717647 0.717647 0.717647
0.717647 0.717647 0.717647
0.721569 0.721569 0.721569
0.713725 0.713725 0.713725
0.721569 0.721569 0.721569
0.760784 0.760784 0.760784
0.800000 0.800000 0.800000
0.847059 0.847059 0.847059
0.882353 0.882353 0.882353
0.847059 0.847059 0.847059
0.850980 0.850980 0.850980
0.850980 0.850980 0.850980
0.850980 0.850980 0.850980
0.850980 0.850980 0.850980
0.847059 0.847059 0.847059
0.866667 0.866667 0.866667
0.901961 0.901961 0.901961
0.929412 0.929412 0.929412
0.949020 0.949020 0.949020
0.937255 0.937255 0.937255
0.941176 0.941176 0.941176
0.941176 0.941176 0.941176
0.945098 0.945098 0.945098
0.945098 0.945098 0.945098
0.952941 0.952941 0.952941
0.960784 0.960784 0.960784
0.976471 0.976471 0.976471
0.988235 0.988235 0.988235
0.984314 0.984314 0.984314
0.988235 0.988235 0.988235
0.988235 0.988235 0.988235
0.988235 0.988235 0.988235
0.992157 0.992157 0.992157
0.996078 0.996078 0.996078
0.996078 0.996078 0.996078
1.000000 1.000000 1.000000
