resources/LUTs/Black and White/14.cube
TITLE "B&W Preset #14"
#LUT size
LUT_3D_SIZE 5
#LUT data points
0.000000 0.000000 0.000000
0.066667 0.066667 0.066667
0.196078 0.196078 0.196078
0.349020 0.349020 0.349020
0.552941 0.552941 0.552941
0.196078 0.196078 0.196078
0.231373 0.231373 0.231373
0.305882 0.305882 0.305882
0.427451 0.427451 0.427451
0.611765 0.611765 0.611765
0.450980 0.450980 0.450980
0.462745 0.462745 0.462745
0.525490 0.525490 0.525490
0.611765 0.611765 0.611765
0.745098 0.745098 0.745098
0.721569 0.721569 0.721569
0.729412 0.729412 0.729412
0.756863 0.756863 0.756863
0.800000 0.800000 0.800000
0.882353 0.882353 0.882353
0.952941 0.952941 0.952941
0.949020 0.949020 0.949020
0.960784 0.960784 0.960784
0.976471 0.976471 0.976471
0.992157 0.992157 0.992157
0.011765 0.011765 0.011765
0.098039 0.098039 0.098039
0.235294 0.235294 0.235294
0.380392 0.380392 0.380392
0.572549 0.572549 0.572549
0.211765 0.211765 0.211765
0.247059 0.247059 0.247059
0.329412 0.329412 0.329412
0.447059 0.447059 0.447059
0.627451 0.627451 0.627451
0.462745 0.462745 0.462745
0.478431 0.478431 0.478431
0.533333 0.533333 0.533333
0.623529 0.623529 0.623529
0.749020 0.749020 0.749020
0.729412 0.729412 0.729412
0.733333 0.733333 0.733333
0.760784 0.760784 0.760784
0.803922 0.803922 0.803922
0.878431 0.878431 0.878431
0.945098 0.945098 0.945098
0.952941 0.952941 0.952941
0.960784 0.960784 0.960784
0.972549 0.972549 0.972549
0.992157 0.992157 0.992157
0.082353 0.082353 0.082353
0.141176 0.141176 0.141176
0.258824 0.258824 0.258824
0.400000 0.400000 0.400000
0.588235 0.588235 0.588235
0.247059 0.247059 0.247059
0.274510 0.274510 0.274510
0.352941 0.352941 0.352941
0.474510 0.474510 0.474510
0.639216 0.639216 0.639216
0.478431 0.478431 0.478431
0.498039 0.498039 0.498039
0.549020 0.549020 0.549020
0.631373 0.631373 0.631373
0.749020 0.749020 0.749020
0.737255 0.737255 0.737255
0.741176 0.741176 0.741176
0.768627 0.768627 0.768627
0.807843 0.807843 0.807843
0.894118 0.894118 0.894118
0.952941 0.952941 0.952941
0.952941 0.952941 0.952941
0.960784 0.960784 0.960784
0.976471 0.976471 0.976471
0.996078 0.996078 0.996078
0.180392 0.180392 0.180392
0.219608 0.219608 0.219608
0.317647 0.317647 0.317647
0.450980 0.450980 0.450980
0.627451 0.627451 0.627451
0.305882 0.305882 0.305882
0.325490 0.325490 0.325490
0.400000 0.400000 0.400000
0.509804 0.509804 0.509804
0.666667 0.666667 0.666667
0.517647 0.517647 0.517647
0.533333 0.533333 0.533333
0.568627 0.568627 0.568627
0.650980 0.650980 0.650980
0.760784 0.760784 0.760784
0.749020 0.749020 0.749020
0.756863 0.756863 0.756863
0.776471 0.776471 0.776471
0.811765 0.811765 0.811765
0.878431 0.878431 0.878431
0.945098 0.945098 0.945098
0.952941 0.952941 0.952941
0.960784 0.960784 0.960784
0.976471 0.976471 0.976471
1.000000 1.000000 1.000000
0.317647 0.317647 0.317647
0.349020 0.349020 0.349020
0.435294 0.435294 0.435294
0.568627 0.568627 0.568627
0.713725 0.713725 0.713725
0.388235 0.388235 0.388235
0.423529 0.423529 0.423529
0.498039 0.498039 0.498039
0.619608 0.619608 0.619608
0.741176 0.741176 0.741176
0.564706 0.564706 0.564706
0.576471 0.576471 0.576471
0.631373 0.631373 0.631373
0.713725 0.713725 0.713725
0.807843 0.807843 0.807843
0.819608 0.819608 0.819608
0.819608 0.819608 0.819608
0.823529 0.823529 0.823529
0.839216 0.839216 0.839216
0.901961 0.901961 0.901961
0.976471 0.976471 0.976471
0.972549 0.972549 0.972549
0.976471 0.976471 0.976471
0.988235 0.988235 0.988235
1.000000 1.000000 1.000000
