resources/LUTs/Black and White/14.cube
TITLE "B&W Preset #14"
#LUT size
LUT_3D_SIZE 9
#LUT data points
0.000000 0.000000 0.000000
0.015686 0.015686 0.015686
0.066667 0.066667 0.066667
0.125490 0.125490 0.125490
0.196078 0.196078 0.196078
0.270588 0.270588 0.270588
0.349020 0.349020 0.349020
0.439216 0.439216 0.439216
0.552941 0.552941 0.552941
0.082353 0.082353 0.082353
0.098039 0.098039 0.098039
0.133333 0.133333 0.133333
0.180392 0.180392 0.180392
0.231373 0.231373 0.231373
0.301961 0.301961 0.301961
0.376471 0.376471 0.376471
0.466667 0.466667 0.466667
0.576471 0.576471 0.576471
0.196078 0.196078 0.196078
0.207843 0.207843 0.207843
0.231373 0.231373 0.231373
0.262745 0.262745 0.262745
0.305882 0.305882 0.305882
0.360784 0.360784 0.360784
0.427451 0.427451 0.427451
0.509804 0.509804 0.509804
0.611765 0.611765 0.611765
0.321569 0.321569 0.321569
0.325490 0.325490 0.325490
0.345098 0.345098 0.345098
0.376471 0.376471 0.376471
0.411765 0.411765 0.411765
0.454902 0.454902 0.454902
0.509804 0.509804 0.509804
0.584314 0.584314 0.584314
0.674510 0.674510 0.674510
0.450980 0.450980 0.450980
0.454902 0.454902 0.454902
0.462745 0.462745 0.462745
0.490196 0.490196 0.490196
0.525490 0.525490 0.525490
0.560784 0.560784 0.560784
0.611765 0.611765 0.611765
0.670588 0.670588 0.670588
0.745098 0.745098 0.745098
0.576471 0.576471 0.576471
0.580392 0.580392 0.580392
0.588235 0.588235 0.588235
0.607843 0.607843 0.607843
0.635294 0.635294 0.635294
0.670588 0.670588 0.670588
0.705882 0.705882 0.705882
0.752941 0.752941 0.752941
0.807843 0.807843 0.807843
0.721569 0.721569 0.721569
0.729412 0.729412 0.729412
0.729412 0.729412 0.729412
0.741176 0.741176 0.741176
0.756863 0.756863 0.756863
0.780392 0.780392 0.780392
0.800000 0.800000 0.800000
0.827451 0.827451 0.827451
0.882353 0.882353 0.882353
0.843137 0.843137 0.843137
0.839216 0.839216 0.839216
0.847059 0.847059 0.847059
0.854902 0.854902 0.854902
0.862745 0.862745 0.862745
0.882353 0.882353 0.882353
0.894118 0.894118 0.894118
0.909804 0.909804 0.909804
0.933333 0.933333 0.933333
0.952941 0.952941 0.952941
0.949020 0.949020 0.949020
0.949020 0.949020 0.949020
0.952941 0.952941 0.952941
0.960784 0.960784 0.960784
0.968627 0.968627 0.968627
0.976471 0.976471 0.976471
0.984314 0.984314 0.984314
0.992157 0.992157 0.992157
0.003922 0.003922 0.003922
0.027451 0.027451 0.027451
0.086275 0.086275 0.086275
0.152941 0.152941 0.152941
0.223529 0.223529 0.223529
0.294118 0.294118 0.294118
0.368627 0.368627 0.368627
0.454902 0.454902 0.454902
0.560784 0.560784 0.560784
0.094118 0.094118 0.094118
0.113725 0.113725 0.113725
0.149020 0.149020 0.149020
0.196078 0.196078 0.196078
0.254902 0.254902 0.254902
0.317647 0.317647 0.317647
0.384314 0.384314 0.384314
0.462745 0.462745 0.462745
0.576471 0.576471 0.576471
0.207843 0.207843 0.207843
0.219608 0.219608 0.219608
0.239216 0.239216 0.239216
0.274510 0.274510 0.274510
0.317647 0.317647 0.317647
0.368627 0.368627 0.368627
0.431373 0.431373 0.431373
0.517647 0.517647 0.517647
0.623529 0.623529 0.623529
0.325490 0.325490 0.325490
0.337255 0.337255 0.337255
0.352941 0.352941 0.352941
0.380392 0.380392 0.380392
0.415686 0.415686 0.415686
0.454902 0.454902 0.454902
0.505882 0.505882 0.505882
0.576471 0.576471 0.576471
0.662745 0.662745 0.662745
0.462745 0.462745 0.462745
0.458824 0.458824 0.458824
0.470588 0.470588 0.470588
0.494118 0.494118 0.494118
0.529412 0.529412 0.529412
0.560784 0.560784 0.560784
0.615686 0.615686 0.615686
0.674510 0.674510 0.674510
0.745098 0.745098 0.745098
0.580392 0.580392 0.580392
0.584314 0.584314 0.584314
0.596078 0.596078 0.596078
0.615686 0.615686 0.615686
0.639216 0.639216 0.639216
0.666667 0.666667 0.666667
0.705882 0.705882 0.705882
0.752941 0.752941 0.752941
0.815686 0.815686 0.815686
0.717647 0.717647 0.717647
0.725490 0.725490 0.725490
0.729412 0.729412 0.729412
0.741176 0.741176 0.741176
0.760784 0.760784 0.760784
0.776471 0.776471 0.776471
0.800000 0.800000 0.800000
0.827451 0.827451 0.827451
0.882353 0.882353 0.882353
0.843137 0.843137 0.843137
0.847059 0.847059 0.847059
0.847059 0.847059 0.847059
0.854902 0.854902 0.854902
0.866667 0.866667 0.866667
0.878431 0.878431 0.878431
0.894118 0.894118 0.894118
0.913725 0.913725 0.913725
0.937255 0.937255 0.937255
0.945098 0.945098 0.945098
0.949020 0.949020 0.949020
0.952941 0.952941 0.952941
0.956863 0.956863 0.956863
0.960784 0.960784 0.960784
0.968627 0.968627 0.968627
0.972549 0.972549 0.972549
0.984314 0.984314 0.984314
0.996078 0.996078 0.996078
0.011765 0.011765 0.011765
0.039216 0.039216 0.039216
0.098039 0.098039 0.098039
0.164706 0.164706 0.164706
0.235294 0.235294 0.235294
0.305882 0.305882 0.305882
0.380392 0.380392 0.380392
0.466667 0.466667 0.466667
0.572549 0.572549 0.572549
0.105882 0.105882 0.105882
0.121569 0.121569 0.121569
0.160784 0.160784 0.160784
0.207843 0.207843 0.207843
0.270588 0.270588 0.270588
0.333333 0.333333 0.333333
0.400000 0.400000 0.400000
0.482353 0.482353 0.482353
0.588235 0.588235 0.588235
0.211765 0.211765 0.211765
0.227451 0.227451 0.227451
0.247059 0.247059 0.247059
0.286275 0.286275 0.286275
0.329412 0.329412 0.329412
0.384314 0.384314 0.384314
0.447059 0.447059 0.447059
0.529412 0.529412 0.529412
0.627451 0.627451 0.627451
0.337255 0.337255 0.337255
0.345098 0.345098 0.345098
0.360784 0.360784 0.360784
0.388235 0.388235 0.388235
0.423529 0.423529 0.423529
0.462745 0.462745 0.462745
0.517647 0.517647 0.517647
0.584314 0.584314 0.584314
0.670588 0.670588 0.670588
0.462745 0.462745 0.462745
0.462745 0.462745 0.462745
0.478431 0.478431 0.478431
0.498039 0.498039 0.498039
0.533333 0.533333 0.533333
0.568627 0.568627 0.568627
0.623529 0.623529 0.623529
0.678431 0.678431 0.678431
0.749020 0.749020 0.749020
0.592157 0.592157 0.592157
0.596078 0.596078 0.596078
0.603922 0.603922 0.603922
0.623529 0.623529 0.623529
0.639216 0.639216 0.639216
0.674510 0.674510 0.674510
0.713725 0.713725 0.713725
0.760784 0.760784 0.760784
0.815686 0.815686 0.815686
0.729412 0.729412 0.729412
0.733333 0.733333 0.733333
0.733333 0.733333 0.733333
0.745098 0.745098 0.745098
0.760784 0.760784 0.760784
0.776471 0.776471 0.776471
0.803922 0.803922 0.803922
0.831373 0.831373 0.831373
0.878431 0.878431 0.878431
0.847059 0.847059 0.847059
0.847059 0.847059 0.847059
0.847059 0.847059 0.847059
0.858824 0.858824 0.858824
0.870588 0.870588 0.870588
0.878431 0.878431 0.878431
0.898039 0.898039 0.898039
0.917647 0.917647 0.917647
0.937255 0.937255 0.937255
0.945098 0.945098 0.945098
0.945098 0.945098 0.945098
0.952941 0.952941 0.952941
0.956863 0.956863 0.956863
0.960784 0.960784 0.960784
0.964706 0.964706 0.964706
0.972549 0.972549 0.972549
0.984314 0.984314 0.984314
0.992157 0.992157 0.992157
0.043137 0.043137 0.043137
0.066667 0.066667 0.066667
0.113725 0.113725 0.113725
0.176471 0.176471 0.176471
0.247059 0.247059 0.247059
0.313725 0.313725 0.313725
0.388235 0.388235 0.388235
0.482353 0.482353 0.482353
0.584314 0.584314 0.584314
0.133333 0.133333 0.133333
0.145098 0.145098 0.145098
0.172549 0.172549 0.172549
0.219608 0.219608 0.219608
0.278431 0.278431 0.278431
0.341176 0.341176 0.341176
0.415686 0.415686 0.415686
0.498039 0.498039 0.498039
0.600000 0.600000 0.600000
0.227451 0.227451 0.227451
0.235294 0.235294 0.235294
0.258824 0.258824 0.258824
0.294118 0.294118 0.294118
0.341176 0.341176 0.341176
0.396078 0.396078 0.396078
0.462745 0.462745 0.462745
0.541176 0.541176 0.541176
0.627451 0.627451 0.627451
0.345098 0.345098 0.345098
0.352941 0.352941 0.352941
0.368627 0.368627 0.368627
0.396078 0.396078 0.396078
0.435294 0.435294 0.435294
0.478431 0.478431 0.478431
0.529412 0.529412 0.529412
0.600000 0.600000 0.600000
0.678431 0.678431 0.678431
0.466667 0.466667 0.466667
0.474510 0.474510 0.474510
0.482353 0.482353 0.482353
0.505882 0.505882 0.505882
0.537255 0.537255 0.537255
0.576471 0.576471 0.576471
0.627451 0.627451 0.627451
0.678431 0.678431 0.678431
0.749020 0.749020 0.749020
0.596078 0.596078 0.596078
0.600000 0.600000 0.600000
0.611765 0.611765 0.611765
0.623529 0.623529 0.623529
0.650980 0.650980 0.650980
0.678431 0.678431 0.678431
0.713725 0.713725 0.713725
0.764706 0.764706 0.764706
0.819608 0.819608 0.819608
0.733333 0.733333 0.733333
0.729412 0.729412 0.729412
0.737255 0.737255 0.737255
0.749020 0.749020 0.749020
0.764706 0.764706 0.764706
0.784314 0.784314 0.784314
0.803922 0.803922 0.803922
0.831373 0.831373 0.831373
0.886275 0.886275 0.886275
0.847059 0.847059 0.847059
0.847059 0.847059 0.847059
0.850980 0.850980 0.850980
0.858824 0.858824 0.858824
0.866667 0.866667 0.866667
0.878431 0.878431 0.878431
0.898039 0.898039 0.898039
0.917647 0.917647 0.917647
0.941176 0.941176 0.941176
0.949020 0.949020 0.949020
0.949020 0.949020 0.949020
0.952941 0.952941 0.952941
0.952941 0.952941 0.952941
0.960784 0.960784 0.960784
0.968627 0.968627 0.968627
0.976471 0.976471 0.976471
0.984314 0.984314 0.984314
0.996078 0.996078 0.996078
0.082353 0.082353 0.082353
0.101961 0.101961 0.101961
0.141176 0.141176 0.141176
0.196078 0.196078 0.196078
0.258824 0.258824 0.258824
0.333333 0.333333 0.333333
0.400000 0.400000 0.400000
0.494118 0.494118 0.494118
0.588235 0.588235 0.588235
0.152941 0.152941 0.152941
0.172549 0.172549 0.172549
0.196078 0.196078 0.196078
0.239216 0.239216 0.239216
0.294118 0.294118 0.294118
0.356863 0.356863 0.356863
0.423529 0.423529 0.423529
0.505882 0.505882 0.505882
0.600000 0.600000 0.600000
0.247059 0.247059 0.247059
0.258824 0.258824 0.258824
0.274510 0.274510 0.274510
0.309804 0.309804 0.309804
0.352941 0.352941 0.352941
0.407843 0.407843 0.407843
0.474510 0.474510 0.474510
0.552941 0.552941 0.552941
0.639216 0.639216 0.639216
0.356863 0.356863 0.356863
0.360784 0.360784 0.360784
0.380392 0.380392 0.380392
0.407843 0.407843 0.407843
0.443137 0.443137 0.443137
0.490196 0.490196 0.490196
0.541176 0.541176 0.541176
0.603922 0.603922 0.603922
0.674510 0.674510 0.674510
0.478431 0.478431 0.478431
0.486275 0.486275 0.486275
0.498039 0.498039 0.498039
0.517647 0.517647 0.517647
0.549020 0.549020 0.549020
0.584314 0.584314 0.584314
0.631373 0.631373 0.631373
0.686275 0.686275 0.686275
0.749020 0.749020 0.749020
0.603922 0.603922 0.603922
0.607843 0.607843 0.607843
0.619608 0.619608 0.619608
0.631373 0.631373 0.631373
0.654902 0.654902 0.654902
0.686275 0.686275 0.686275
0.721569 0.721569 0.721569
0.768627 0.768627 0.768627
0.819608 0.819608 0.819608
0.737255 0.737255 0.737255
0.737255 0.737255 0.737255
0.741176 0.741176 0.741176
0.752941 0.752941 0.752941
0.768627 0.768627 0.768627
0.788235 0.788235 0.788235
0.807843 0.807843 0.807843
0.839216 0.839216 0.839216
0.894118 0.894118 0.894118
0.847059 0.847059 0.847059
0.847059 0.847059 0.847059
0.850980 0.850980 0.850980
0.854902 0.854902 0.854902
0.870588 0.870588 0.870588
0.882353 0.882353 0.882353
0.898039 0.898039 0.898039
0.917647 0.917647 0.917647
0.945098 0.945098 0.945098
0.952941 0.952941 0.952941
0.949020 0.949020 0.949020
0.952941 0.952941 0.952941
0.956863 0.956863 0.956863
0.960784 0.960784 0.960784
0.968627 0.968627 0.968627
0.976471 0.976471 0.976471
0.984314 0.984314 0.984314
0.996078 0.996078 0.996078
0.129412 0.129412 0.129412
0.141176 0.141176 0.141176
0.180392 0.180392 0.180392
0.223529 0.223529 0.223529
0.282353 0.282353 0.282353
0.349020 0.349020 0.349020
0.419608 0.419608 0.419608
0.505882 0.505882 0.505882
0.615686 0.615686 0.615686
0.184314 0.184314 0.184314
0.196078 0.196078 0.196078
0.223529 0.223529 0.223529
0.258824 0.258824 0.258824
0.305882 0.305882 0.305882
0.368627 0.368627 0.368627
0.435294 0.435294 0.435294
0.513725 0.513725 0.513725
0.611765 0.611765 0.611765
0.274510 0.274510 0.274510
0.278431 0.278431 0.278431
0.298039 0.298039 0.298039
0.333333 0.333333 0.333333
0.372549 0.372549 0.372549
0.427451 0.427451 0.427451
0.486275 0.486275 0.486275
0.560784 0.560784 0.560784
0.654902 0.654902 0.654902
0.372549 0.372549 0.372549
0.380392 0.380392 0.380392
0.396078 0.396078 0.396078
0.423529 0.423529 0.423529
0.458824 0.458824 0.458824
0.498039 0.498039 0.498039
0.545098 0.545098 0.545098
0.611765 0.611765 0.611765
0.682353 0.682353 0.682353
0.501961 0.501961 0.501961
0.505882 0.505882 0.505882
0.517647 0.517647 0.517647
0.537255 0.537255 0.537255
0.560784 0.560784 0.560784
0.592157 0.592157 0.592157
0.635294 0.635294 0.635294
0.686275 0.686275 0.686275
0.745098 0.745098 0.745098
0.619608 0.619608 0.619608
0.619608 0.619608 0.619608
0.631373 0.631373 0.631373
0.650980 0.650980 0.650980
0.666667 0.666667 0.666667
0.690196 0.690196 0.690196
0.725490 0.725490 0.725490
0.764706 0.764706 0.764706
0.823529 0.823529 0.823529
0.741176 0.741176 0.741176
0.741176 0.741176 0.741176
0.749020 0.749020 0.749020
0.756863 0.756863 0.756863
0.772549 0.772549 0.772549
0.788235 0.788235 0.788235
0.807843 0.807843 0.807843
0.843137 0.843137 0.843137
0.886275 0.886275 0.886275
0.858824 0.858824 0.858824
0.854902 0.854902 0.854902
0.854902 0.854902 0.854902
0.862745 0.862745 0.862745
0.874510 0.874510 0.874510
0.882353 0.882353 0.882353
0.901961 0.901961 0.901961
0.921569 0.921569 0.921569
0.952941 0.952941 0.952941
0.945098 0.945098 0.945098
0.949020 0.949020 0.949020
0.949020 0.949020 0.949020
0.956863 0.956863 0.956863
0.960784 0.960784 0.960784
0.968627 0.968627 0.968627
0.976471 0.976471 0.976471
0.984314 0.984314 0.984314
0.992157 0.992157 0.992157
0.180392 0.180392 0.180392
0.196078 0.196078 0.196078
0.219608 0.219608 0.219608
0.262745 0.262745 0.262745
0.317647 0.317647 0.317647
0.376471 0.376471 0.376471
0.450980 0.450980 0.450980
0.525490 0.525490 0.525490
0.627451 0.627451 0.627451
0.219608 0.219608 0.219608
0.235294 0.235294 0.235294
0.254902 0.254902 0.254902
0.294118 0.294118 0.294118
0.337255 0.337255 0.337255
0.396078 0.396078 0.396078
0.462745 0.462745 0.462745
0.533333 0.533333 0.533333
0.635294 0.635294 0.635294
0.305882 0.305882 0.305882
0.305882 0.305882 0.305882
0.325490 0.325490 0.325490
0.356863 0.356863 0.356863
0.400000 0.400000 0.400000
0.447059 0.447059 0.447059
0.509804 0.509804 0.509804
0.580392 0.580392 0.580392
0.666667 0.666667 0.666667
0.392157 0.392157 0.392157
0.400000 0.400000 0.400000
0.415686 0.415686 0.415686
0.443137 0.443137 0.443137
0.478431 0.478431 0.478431
0.517647 0.517647 0.517647
0.568627 0.568627 0.568627
0.627451 0.627451 0.627451
0.698039 0.698039 0.698039
0.517647 0.517647 0.517647
0.525490 0.525490 0.525490
0.533333 0.533333 0.533333
0.552941 0.552941 0.552941
0.568627 0.568627 0.568627
0.607843 0.607843 0.607843
0.650980 0.650980 0.650980
0.694118 0.694118 0.694118
0.760784 0.760784 0.760784
0.643137 0.643137 0.643137
0.650980 0.650980 0.650980
0.658824 0.658824 0.658824
0.666667 0.666667 0.666667
0.682353 0.682353 0.682353
0.698039 0.698039 0.698039
0.733333 0.733333 0.733333
0.768627 0.768627 0.768627
0.819608 0.819608 0.819608
0.749020 0.749020 0.749020
0.752941 0.752941 0.752941
0.756863 0.756863 0.756863
0.764706 0.764706 0.764706
0.776471 0.776471 0.776471
0.796078 0.796078 0.796078
0.811765 0.811765 0.811765
0.843137 0.843137 0.843137
0.878431 0.878431 0.878431
0.850980 0.850980 0.850980
0.858824 0.858824 0.858824
0.854902 0.854902 0.854902
0.862745 0.862745 0.862745
0.878431 0.878431 0.878431
0.894118 0.894118 0.894118
0.901961 0.901961 0.901961
0.921569 0.921569 0.921569
0.952941 0.952941 0.952941
0.945098 0.945098 0.945098
0.949020 0.949020 0.949020
0.952941 0.952941 0.952941
0.956863 0.956863 0.956863
0.960784 0.960784 0.960784
0.964706 0.964706 0.964706
0.976471 0.976471 0.976471
0.984314 0.984314 0.984314
1.000000 1.000000 1.000000
0.239216 0.239216 0.239216
0.250980 0.250980 0.250980
0.278431 0.278431 0.278431
0.313725 0.313725 0.313725
0.364706 0.364706 0.364706
0.427451 0.427451 0.427451
0.498039 0.498039 0.498039
0.576471 0.576471 0.576471
0.654902 0.654902 0.654902
0.270588 0.270588 0.270588
0.274510 0.274510 0.274510
0.298039 0.298039 0.298039
0.337255 0.337255 0.337255
0.384314 0.384314 0.384314
0.443137 0.443137 0.443137
0.505882 0.505882 0.505882
0.584314 0.584314 0.584314
0.658824 0.658824 0.658824
0.337255 0.337255 0.337255
0.352941 0.352941 0.352941
0.372549 0.372549 0.372549
0.396078 0.396078 0.396078
0.435294 0.435294 0.435294
0.494118 0.494118 0.494118
0.556863 0.556863 0.556863
0.623529 0.623529 0.623529
0.686275 0.686275 0.686275
0.423529 0.423529 0.423529
0.431373 0.431373 0.431373
0.447059 0.447059 0.447059
0.474510 0.474510 0.474510
0.509804 0.509804 0.509804
0.552941 0.552941 0.552941
0.603922 0.603922 0.603922
0.658824 0.658824 0.658824
0.713725 0.713725 0.713725
0.541176 0.541176 0.541176
0.545098 0.545098 0.545098
0.552941 0.552941 0.552941
0.568627 0.568627 0.568627
0.600000 0.600000 0.600000
0.635294 0.635294 0.635294
0.674510 0.674510 0.674510
0.721569 0.721569 0.721569
0.768627 0.768627 0.768627
0.678431 0.678431 0.678431
0.678431 0.678431 0.678431
0.682353 0.682353 0.682353
0.686275 0.686275 0.686275
0.694118 0.694118 0.694118
0.717647 0.717647 0.717647
0.752941 0.752941 0.752941
0.788235 0.788235 0.788235
0.827451 0.827451 0.827451
0.776471 0.776471 0.776471
0.784314 0.784314 0.784314
0.784314 0.784314 0.784314
0.792157 0.792157 0.792157
0.796078 0.796078 0.796078
0.803922 0.803922 0.803922
0.827451 0.827451 0.827451
0.854902 0.854902 0.854902
0.890196 0.890196 0.890196
0.870588 0.870588 0.870588
0.874510 0.874510 0.874510
0.874510 0.874510 0.874510
0.882353 0.882353 0.882353
0.886275 0.886275 0.886275
0.894118 0.894118 0.894118
0.909804 0.909804 0.909804
0.925490 0.925490 0.925490
0.952941 0.952941 0.952941
0.949020 0.949020 0.949020
0.960784 0.960784 0.960784
0.956863 0.956863 0.956863
0.956863 0.956863 0.956863
0.964706 0.964706 0.964706
0.968627 0.968627 0.968627
0.976471 0.976471 0.976471
0.988235 0.988235 0.988235
1.000000 1.000000 1.000000
0.317647 0.317647 0.317647
0.325490 0.325490 0.325490
0.349020 0.349020 0.349020
0.380392 0.380392 0.380392
0.435294 0.435294 0.435294
0.498039 0.498039 0.498039
0.568627 0.568627 0.568627
0.643137 0.643137 0.643137
0.713725 0.713725 0.713725
0.337255 0.337255 0.337255
0.349020 0.349020 0.349020
0.368627 0.368627 0.368627
0.403922 0.403922 0.403922
0.450980 0.450980 0.450980
0.509804 0.509804 0.509804
0.580392 0.580392 0.580392
0.650980 0.650980 0.650980
0.717647 0.717647 0.717647
0.388235 0.388235 0.388235
0.400000 0.400000 0.400000
0.423529 0.423529 0.423529
0.450980 0.450980 0.450980
0.498039 0.498039 0.498039
0.552941 0.552941 0.552941
0.619608 0.619608 0.619608
0.678431 0.678431 0.678431
0.741176 0.741176 0.741176
0.462745 0.462745 0.462745
0.474510 0.474510 0.474510
0.490196 0.490196 0.490196
0.517647 0.517647 0.517647
0.556863 0.556863 0.556863
0.600000 0.600000 0.600000
0.658824 0.658824 0.658824
0.713725 0.713725 0.713725
0.768627 0.768627 0.768627
0.564706 0.564706 0.564706
0.564706 0.564706 0.564706
0.576471 0.576471 0.576471
0.600000 0.600000 0.600000
0.631373 0.631373 0.631373
0.666667 0.666667 0.666667
0.713725 0.713725 0.713725
0.760784 0.760784 0.760784
0.807843 0.807843 0.807843
0.705882 0.705882 0.705882
0.705882 0.705882 0.705882
0.709804 0.709804 0.709804
0.705882 0.705882 0.705882
0.709804 0.709804 0.709804
0.741176 0.741176 0.741176
0.776471 0.776471 0.776471
0.815686 0.815686 0.815686
0.850980 0.850980 0.850980
0.819608 0.819608 0.819608
0.819608 0.819608 0.819608
0.819608 0.819608 0.819608
0.819608 0.819608 0.819608
0.823529 0.823529 0.823529
0.823529 0.823529 0.823529
0.839216 0.839216 0.839216
0.874510 0.874510 0.874510
0.901961 0.901961 0.901961
0.913725 0.913725 0.913725
0.909804 0.909804 0.909804
0.909804 0.909804 0.909804
0.913725 0.913725 0.913725
0.917647 0.917647 0.917647
0.921569 0.921569 0.921569
0.929412 0.929412 0.929412
0.945098 0.945098 0.945098
0.960784 0.960784 0.960784
0.976471 0.976471 0.976471
0.968627 0.968627 0.968627
0.972549 0.972549 0.972549
0.976471 0.976471 0.976471
0.976471 0.976471 0.976471
0.984314 0.984314 0.984314
0.988235 0.988235 0.988235
0.996078 0.996078 0.996078
1.000000 1.000000 1.000000
