resources/LUTs/Black and White/15.cube
TITLE "B&W Preset #15"
#LUT size
LUT_3D_SIZE 5
#LUT data points
0.000000 0.000000 0.000000
0.082353 0.082353 0.082353
0.192157 0.192157 0.192157
0.317647 0.317647 0.317647
0.486275 0.486275 0.486275
0.188235 0.188235 0.188235
0.211765 0.211765 0.211765
0.282353 0.282353 0.282353
0.376471 0.376471 0.376471
0.533333 0.533333 0.533333
0.403922 0.403922 0.403922
0.419608 0.419608 0.419608
0.443137 0.443137 0.443137
0.513725 0.513725 0.513725
0.647059 0.647059 0.647059
0.635294 0.635294 0.635294
0.650980 0.650980 0.650980
0.658824 0.658824 0.658824
0.678431 0.678431 0.678431
0.780392 0.780392 0.780392
0.886275 0.886275 0.886275
0.898039 0.898039 0.898039
0.905882 0.905882 0.905882
0.917647 0.917647 0.917647
0.956863 0.956863 0.956863
0.047059 0.047059 0.047059
0.094118 0.094118 0.094118
0.215686 0.215686 0.215686
0.329412 0.329412 0.329412
0.482353 0.482353 0.482353
0.180392 0.180392 0.180392
0.219608 0.219608 0.219608
0.290196 0.290196 0.290196
0.372549 0.372549 0.372549
0.521569 0.521569 0.521569
0.396078 0.396078 0.396078
0.411765 0.411765 0.411765
0.431373 0.431373 0.431373
0.501961 0.501961 0.501961
0.631373 0.631373 0.631373
0.615686 0.615686 0.615686
0.631373 0.631373 0.631373
0.639216 0.639216 0.639216
0.662745 0.662745 0.662745
0.772549 0.772549 0.772549
0.870588 0.870588 0.870588
0.886275 0.886275 0.886275
0.894118 0.894118 0.894118
0.913725 0.913725 0.913725
0.949020 0.949020 0.949020
0.133333 0.133333 0.133333
0.160784 0.160784 0.160784
0.223529 0.223529 0.223529
0.337255 0.337255 0.337255
0.490196 0.490196 0.490196
0.243137 0.243137 0.243137
0.266667 0.266667 0.266667
0.298039 0.298039 0.298039
0.388235 0.388235 0.388235
0.529412 0.529412 0.529412
0.376471 0.376471 0.376471
0.403922 0.403922 0.403922
0.450980 0.450980 0.450980
0.513725 0.513725 0.513725
0.635294 0.635294 0.635294
0.631373 0.631373 0.631373
0.647059 0.647059 0.647059
0.658824 0.658824 0.658824
0.678431 0.678431 0.678431
0.788235 0.788235 0.788235
0.882353 0.882353 0.882353
0.890196 0.890196 0.890196
0.898039 0.898039 0.898039
0.921569 0.921569 0.921569
0.952941 0.952941 0.952941
0.235294 0.235294 0.235294
0.254902 0.254902 0.254902
0.286275 0.286275 0.286275
0.333333 0.333333 0.333333
0.478431 0.478431 0.478431
0.305882 0.305882 0.305882
0.317647 0.317647 0.317647
0.345098 0.345098 0.345098
0.388235 0.388235 0.388235
0.517647 0.517647 0.517647
0.396078 0.396078 0.396078
0.427451 0.427451 0.427451
0.474510 0.474510 0.474510
0.498039 0.498039 0.498039
0.623529 0.623529 0.623529
0.568627 0.568627 0.568627
0.592157 0.592157 0.592157
0.623529 0.623529 0.623529
0.678431 0.678431 0.678431
0.776471 0.776471 0.776471
0.878431 0.878431 0.878431
0.882353 0.882353 0.882353
0.898039 0.898039 0.898039
0.921569 0.921569 0.921569
0.964706 0.964706 0.964706
0.407843 0.407843 0.407843
0.419608 0.419608 0.419608
0.435294 0.435294 0.435294
0.466667 0.466667 0.466667
0.549020 0.549020 0.549020
0.443137 0.443137 0.443137
0.462745 0.462745 0.462745
0.478431 0.478431 0.478431
0.505882 0.505882 0.505882
0.584314 0.584314 0.584314
0.552941 0.552941 0.552941
0.568627 0.568627 0.568627
0.576471 0.576471 0.576471
0.600000 0.600000 0.600000
0.662745 0.662745 0.662745
0.674510 0.674510 0.674510
0.682353 0.682353 0.682353
0.686275 0.686275 0.686275
0.752941 0.752941 0.752941
0.796078 0.796078 0.796078
0.882353 0.882353 0.882353
0.882353 0.882353 0.882353
0.894118 0.894118 0.894118
0.917647 0.917647 0.917647
0.988235 0.988235 0.988235
