resources/LUTs/Black and White/15.cube
TITLE "B&W Preset #15"
#LUT size
LUT_3D_SIZE 9
#LUT data points
0.000000 0.000000 0.000000
0.035294 0.035294 0.035294
0.082353 0.082353 0.082353
0.133333 0.133333 0.133333
0.192157 0.192157 0.192157
0.250980 0.250980 0.250980
0.317647 0.317647 0.317647
0.388235 0.388235 0.388235
0.486275 0.486275 0.486275
0.090196 0.090196 0.090196
0.101961 0.101961 0.101961
0.133333 0.133333 0.133333
0.168627 0.168627 0.168627
0.215686 0.215686 0.215686
0.270588 0.270588 0.270588
0.325490 0.325490 0.325490
0.384314 0.384314 0.384314
0.478431 0.478431 0.478431
0.188235 0.188235 0.188235
0.196078 0.196078 0.196078
0.211765 0.211765 0.211765
0.247059 0.247059 0.247059
0.282353 0.282353 0.282353
0.325490 0.325490 0.325490
0.376471 0.376471 0.376471
0.439216 0.439216 0.439216
0.533333 0.533333 0.533333
0.290196 0.290196 0.290196
0.294118 0.294118 0.294118
0.309804 0.309804 0.309804
0.325490 0.325490 0.325490
0.360784 0.360784 0.360784
0.384314 0.384314 0.384314
0.415686 0.415686 0.415686
0.474510 0.474510 0.474510
0.549020 0.549020 0.549020
0.403922 0.403922 0.403922
0.415686 0.415686 0.415686
0.419608 0.419608 0.419608
0.427451 0.427451 0.427451
0.443137 0.443137 0.443137
0.478431 0.478431 0.478431
0.513725 0.513725 0.513725
0.568627 0.568627 0.568627
0.647059 0.647059 0.647059
0.556863 0.556863 0.556863
0.556863 0.556863 0.556863
0.552941 0.552941 0.552941
0.556863 0.556863 0.556863
0.564706 0.564706 0.564706
0.572549 0.572549 0.572549
0.615686 0.615686 0.615686
0.658824 0.658824 0.658824
0.729412 0.729412 0.729412
0.635294 0.635294 0.635294
0.647059 0.647059 0.647059
0.650980 0.650980 0.650980
0.654902 0.654902 0.654902
0.658824 0.658824 0.658824
0.670588 0.670588 0.670588
0.678431 0.678431 0.678431
0.717647 0.717647 0.717647
0.780392 0.780392 0.780392
0.768627 0.768627 0.768627
0.776471 0.776471 0.776471
0.784314 0.784314 0.784314
0.784314 0.784314 0.784314
0.788235 0.788235 0.788235
0.796078 0.796078 0.796078
0.807843 0.807843 0.807843
0.819608 0.819608 0.819608
0.858824 0.858824 0.858824
0.886275 0.886275 0.886275
0.898039 0.898039 0.898039
0.898039 0.898039 0.898039
0.898039 0.898039 0.898039
0.905882 0.905882 0.905882
0.909804 0.909804 0.909804
0.917647 0.917647 0.917647
0.933333 0.933333 0.933333
0.956863 0.956863 0.956863
0.019608 0.019608 0.019608
0.035294 0.035294 0.035294
0.090196 0.090196 0.090196
0.149020 0.149020 0.149020
0.203922 0.203922 0.203922
0.262745 0.262745 0.262745
0.317647 0.317647 0.317647
0.380392 0.380392 0.380392
0.470588 0.470588 0.470588
0.086275 0.086275 0.086275
0.105882 0.105882 0.105882
0.137255 0.137255 0.137255
0.176471 0.176471 0.176471
0.223529 0.223529 0.223529
0.270588 0.270588 0.270588
0.313725 0.313725 0.313725
0.368627 0.368627 0.368627
0.450980 0.450980 0.450980
0.192157 0.192157 0.192157
0.200000 0.200000 0.200000
0.211765 0.211765 0.211765
0.243137 0.243137 0.243137
0.282353 0.282353 0.282353
0.321569 0.321569 0.321569
0.364706 0.364706 0.364706
0.431373 0.431373 0.431373
0.513725 0.513725 0.513725
0.278431 0.278431 0.278431
0.286275 0.286275 0.286275
0.298039 0.298039 0.298039
0.309804 0.309804 0.309804
0.345098 0.345098 0.345098
0.368627 0.368627 0.368627
0.403922 0.403922 0.403922
0.447059 0.447059 0.447059
0.517647 0.517647 0.517647
0.392157 0.392157 0.392157
0.400000 0.400000 0.400000
0.407843 0.407843 0.407843
0.415686 0.415686 0.415686
0.431373 0.431373 0.431373
0.466667 0.466667 0.466667
0.501961 0.501961 0.501961
0.552941 0.552941 0.552941
0.631373 0.631373 0.631373
0.529412 0.529412 0.529412
0.533333 0.533333 0.533333
0.533333 0.533333 0.533333
0.541176 0.541176 0.541176
0.549020 0.549020 0.549020
0.560784 0.560784 0.560784
0.600000 0.600000 0.600000
0.647059 0.647059 0.647059
0.713725 0.713725 0.713725
0.619608 0.619608 0.619608
0.631373 0.631373 0.631373
0.631373 0.631373 0.631373
0.635294 0.635294 0.635294
0.643137 0.643137 0.643137
0.654902 0.654902 0.654902
0.662745 0.662745 0.662745
0.698039 0.698039 0.698039
0.764706 0.764706 0.764706
0.760784 0.760784 0.760784
0.772549 0.772549 0.772549
0.776471 0.776471 0.776471
0.780392 0.780392 0.780392
0.780392 0.780392 0.780392
0.788235 0.788235 0.788235
0.796078 0.796078 0.796078
0.811765 0.811765 0.811765
0.854902 0.854902 0.854902
0.874510 0.874510 0.874510
0.878431 0.878431 0.878431
0.886275 0.886275 0.886275
0.890196 0.890196 0.890196
0.894118 0.894118 0.894118
0.901961 0.901961 0.901961
0.909804 0.909804 0.909804
0.929412 0.929412 0.929412
0.949020 0.949020 0.949020
0.047059 0.047059 0.047059
0.062745 0.062745 0.062745
0.094118 0.094118 0.094118
0.149020 0.149020 0.149020
0.215686 0.215686 0.215686
0.274510 0.274510 0.274510
0.329412 0.329412 0.329412
0.392157 0.392157 0.392157
0.482353 0.482353 0.482353
0.109804 0.109804 0.109804
0.125490 0.125490 0.125490
0.141176 0.141176 0.141176
0.188235 0.188235 0.188235
0.235294 0.235294 0.235294
0.282353 0.282353 0.282353
0.329412 0.329412 0.329412
0.384314 0.384314 0.384314
0.474510 0.474510 0.474510
0.180392 0.180392 0.180392
0.196078 0.196078 0.196078
0.219608 0.219608 0.219608
0.250980 0.250980 0.250980
0.290196 0.290196 0.290196
0.333333 0.333333 0.333333
0.372549 0.372549 0.372549
0.435294 0.435294 0.435294
0.521569 0.521569 0.521569
0.286275 0.286275 0.286275
0.294118 0.294118 0.294118
0.305882 0.305882 0.305882
0.317647 0.317647 0.317647
0.345098 0.345098 0.345098
0.372549 0.372549 0.372549
0.411765 0.411765 0.411765
0.462745 0.462745 0.462745
0.537255 0.537255 0.537255
0.396078 0.396078 0.396078
0.400000 0.400000 0.400000
0.411765 0.411765 0.411765
0.419608 0.419608 0.419608
0.431373 0.431373 0.431373
0.466667 0.466667 0.466667
0.501961 0.501961 0.501961
0.552941 0.552941 0.552941
0.631373 0.631373 0.631373
0.533333 0.533333 0.533333
0.529412 0.529412 0.529412
0.529412 0.529412 0.529412
0.537255 0.537255 0.537255
0.549020 0.549020 0.549020
0.560784 0.560784 0.560784
0.600000 0.600000 0.600000
0.647059 0.647059 0.647059
0.717647 0.717647 0.717647
0.615686 0.615686 0.615686
0.623529 0.623529 0.623529
0.631373 0.631373 0.631373
0.639216 0.639216 0.639216
0.639216 0.639216 0.639216
0.654902 0.654902 0.654902
0.662745 0.662745 0.662745
0.705882 0.705882 0.705882
0.772549 0.772549 0.772549
0.760784 0.760784 0.760784
0.764706 0.764706 0.764706
0.768627 0.768627 0.768627
0.772549 0.772549 0.772549
0.780392 0.780392 0.780392
0.784314 0.784314 0.784314
0.792157 0.792157 0.792157
0.807843 0.807843 0.807843
0.847059 0.847059 0.847059
0.870588 0.870588 0.870588
0.882353 0.882353 0.882353
0.886275 0.886275 0.886275
0.890196 0.890196 0.890196
0.894118 0.894118 0.894118
0.905882 0.905882 0.905882
0.913725 0.913725 0.913725
0.929412 0.929412 0.929412
0.949020 0.949020 0.949020
0.090196 0.090196 0.090196
0.101961 0.101961 0.101961
0.125490 0.125490 0.125490
0.156863 0.156863 0.156863
0.215686 0.215686 0.215686
0.282353 0.282353 0.282353
0.337255 0.337255 0.337255
0.396078 0.396078 0.396078
0.490196 0.490196 0.490196
0.145098 0.145098 0.145098
0.152941 0.152941 0.152941
0.168627 0.168627 0.168627
0.188235 0.188235 0.188235
0.231373 0.231373 0.231373
0.290196 0.290196 0.290196
0.341176 0.341176 0.341176
0.400000 0.400000 0.400000
0.486275 0.486275 0.486275
0.203922 0.203922 0.203922
0.203922 0.203922 0.203922
0.247059 0.247059 0.247059
0.258824 0.258824 0.258824
0.298039 0.298039 0.298039
0.341176 0.341176 0.341176
0.388235 0.388235 0.388235
0.443137 0.443137 0.443137
0.521569 0.521569 0.521569
0.274510 0.274510 0.274510
0.286275 0.286275 0.286275
0.305882 0.305882 0.305882
0.329412 0.329412 0.329412
0.352941 0.352941 0.352941
0.384314 0.384314 0.384314
0.423529 0.423529 0.423529
0.474510 0.474510 0.474510
0.541176 0.541176 0.541176
0.400000 0.400000 0.400000
0.407843 0.407843 0.407843
0.423529 0.423529 0.423529
0.431373 0.431373 0.431373
0.443137 0.443137 0.443137
0.474510 0.474510 0.474510
0.509804 0.509804 0.509804
0.564706 0.564706 0.564706
0.635294 0.635294 0.635294
0.537255 0.537255 0.537255
0.541176 0.541176 0.541176
0.541176 0.541176 0.541176
0.545098 0.545098 0.545098
0.556863 0.556863 0.556863
0.568627 0.568627 0.568627
0.603922 0.603922 0.603922
0.650980 0.650980 0.650980
0.717647 0.717647 0.717647
0.627451 0.627451 0.627451
0.639216 0.639216 0.639216
0.639216 0.639216 0.639216
0.643137 0.643137 0.643137
0.650980 0.650980 0.650980
0.658824 0.658824 0.658824
0.670588 0.670588 0.670588
0.713725 0.713725 0.713725
0.784314 0.784314 0.784314
0.760784 0.760784 0.760784
0.776471 0.776471 0.776471
0.772549 0.772549 0.772549
0.776471 0.776471 0.776471
0.776471 0.776471 0.776471
0.784314 0.784314 0.784314
0.796078 0.796078 0.796078
0.815686 0.815686 0.815686
0.858824 0.858824 0.858824
0.882353 0.882353 0.882353
0.886275 0.886275 0.886275
0.890196 0.890196 0.890196
0.894118 0.894118 0.894118
0.898039 0.898039 0.898039
0.905882 0.905882 0.905882
0.913725 0.913725 0.913725
0.933333 0.933333 0.933333
0.956863 0.956863 0.956863
0.133333 0.133333 0.133333
0.145098 0.145098 0.145098
0.160784 0.160784 0.160784
0.188235 0.188235 0.188235
0.223529 0.223529 0.223529
0.270588 0.270588 0.270588
0.337255 0.337255 0.337255
0.403922 0.403922 0.403922
0.490196 0.490196 0.490196
0.176471 0.176471 0.176471
0.188235 0.188235 0.188235
0.196078 0.196078 0.196078
0.215686 0.215686 0.215686
0.243137 0.243137 0.243137
0.282353 0.282353 0.282353
0.341176 0.341176 0.341176
0.396078 0.396078 0.396078
0.482353 0.482353 0.482353
0.243137 0.243137 0.243137
0.254902 0.254902 0.254902
0.266667 0.266667 0.266667
0.282353 0.282353 0.282353
0.298039 0.298039 0.298039
0.329412 0.329412 0.329412
0.388235 0.388235 0.388235
0.447059 0.447059 0.447059
0.529412 0.529412 0.529412
0.290196 0.290196 0.290196
0.301961 0.301961 0.301961
0.321569 0.321569 0.321569
0.349020 0.349020 0.349020
0.356863 0.356863 0.356863
0.388235 0.388235 0.388235
0.427451 0.427451 0.427451
0.470588 0.470588 0.470588
0.533333 0.533333 0.533333
0.376471 0.376471 0.376471
0.392157 0.392157 0.392157
0.403922 0.403922 0.403922
0.427451 0.427451 0.427451
0.450980 0.450980 0.450980
0.478431 0.478431 0.478431
0.513725 0.513725 0.513725
0.560784 0.560784 0.560784
0.635294 0.635294 0.635294
0.533333 0.533333 0.533333
0.533333 0.533333 0.533333
0.537255 0.537255 0.537255
0.552941 0.552941 0.552941
0.560784 0.560784 0.560784
0.572549 0.572549 0.572549
0.611765 0.611765 0.611765
0.654902 0.654902 0.654902
0.721569 0.721569 0.721569
0.631373 0.631373 0.631373
0.643137 0.643137 0.643137
0.647059 0.647059 0.647059
0.650980 0.650980 0.650980
0.658824 0.658824 0.658824
0.666667 0.666667 0.666667
0.678431 0.678431 0.678431
0.721569 0.721569 0.721569
0.788235 0.788235 0.788235
0.764706 0.764706 0.764706
0.772549 0.772549 0.772549
0.776471 0.776471 0.776471
0.776471 0.776471 0.776471
0.784314 0.784314 0.784314
0.792157 0.792157 0.792157
0.800000 0.800000 0.800000
0.815686 0.815686 0.815686
0.870588 0.870588 0.870588
0.882353 0.882353 0.882353
0.890196 0.890196 0.890196
0.890196 0.890196 0.890196
0.894118 0.894118 0.894118
0.898039 0.898039 0.898039
0.905882 0.905882 0.905882
0.921569 0.921569 0.921569
0.937255 0.937255 0.937255
0.952941 0.952941 0.952941
0.180392 0.180392 0.180392
0.188235 0.188235 0.188235
0.203922 0.203922 0.203922
0.219608 0.219608 0.219608
0.247059 0.247059 0.247059
0.278431 0.278431 0.278431
0.317647 0.317647 0.317647
0.392157 0.392157 0.392157
0.490196 0.490196 0.490196
0.203922 0.203922 0.203922
0.215686 0.215686 0.215686
0.223529 0.223529 0.223529
0.239216 0.239216 0.239216
0.254902 0.254902 0.254902
0.286275 0.286275 0.286275
0.321569 0.321569 0.321569
0.384314 0.384314 0.384314
0.474510 0.474510 0.474510
0.278431 0.278431 0.278431
0.278431 0.278431 0.278431
0.286275 0.286275 0.286275
0.298039 0.298039 0.298039
0.313725 0.313725 0.313725
0.337255 0.337255 0.337255
0.372549 0.372549 0.372549
0.439216 0.439216 0.439216
0.517647 0.517647 0.517647
0.305882 0.305882 0.305882
0.321569 0.321569 0.321569
0.345098 0.345098 0.345098
0.356863 0.356863 0.356863
0.364706 0.364706 0.364706
0.380392 0.380392 0.380392
0.407843 0.407843 0.407843
0.458824 0.458824 0.458824
0.525490 0.525490 0.525490
0.380392 0.380392 0.380392
0.392157 0.392157 0.392157
0.403922 0.403922 0.403922
0.427451 0.427451 0.427451
0.458824 0.458824 0.458824
0.466667 0.466667 0.466667
0.501961 0.501961 0.501961
0.552941 0.552941 0.552941
0.611765 0.611765 0.611765
0.490196 0.490196 0.490196
0.494118 0.494118 0.494118
0.505882 0.505882 0.505882
0.521569 0.521569 0.521569
0.541176 0.541176 0.541176
0.568627 0.568627 0.568627
0.600000 0.600000 0.600000
0.639216 0.639216 0.639216
0.705882 0.705882 0.705882
0.607843 0.607843 0.607843
0.611765 0.611765 0.611765
0.627451 0.627451 0.627451
0.635294 0.635294 0.635294
0.647059 0.647059 0.647059
0.658824 0.658824 0.658824
0.674510 0.674510 0.674510
0.713725 0.713725 0.713725
0.776471 0.776471 0.776471
0.752941 0.752941 0.752941
0.760784 0.760784 0.760784
0.764706 0.764706 0.764706
0.768627 0.768627 0.768627
0.780392 0.780392 0.780392
0.784314 0.784314 0.784314
0.800000 0.800000 0.800000
0.819608 0.819608 0.819608
0.866667 0.866667 0.866667
0.878431 0.878431 0.878431
0.886275 0.886275 0.886275
0.886275 0.886275 0.886275
0.894118 0.894118 0.894118
0.898039 0.898039 0.898039
0.901961 0.901961 0.901961
0.913725 0.913725 0.913725
0.933333 0.933333 0.933333
0.960784 0.960784 0.960784
0.235294 0.235294 0.235294
0.247059 0.247059 0.247059
0.254902 0.254902 0.254902
0.266667 0.266667 0.266667
0.286275 0.286275 0.286275
0.309804 0.309804 0.309804
0.333333 0.333333 0.333333
0.384314 0.384314 0.384314
0.478431 0.478431 0.478431
0.247059 0.247059 0.247059
0.258824 0.258824 0.258824
0.266667 0.266667 0.266667
0.282353 0.282353 0.282353
0.294118 0.294118 0.294118
0.317647 0.317647 0.317647
0.341176 0.341176 0.341176
0.372549 0.372549 0.372549
0.470588 0.470588 0.470588
0.305882 0.305882 0.305882
0.317647 0.317647 0.317647
0.317647 0.317647 0.317647
0.329412 0.329412 0.329412
0.345098 0.345098 0.345098
0.360784 0.360784 0.360784
0.388235 0.388235 0.388235
0.423529 0.423529 0.423529
0.517647 0.517647 0.517647
0.356863 0.356863 0.356863
0.368627 0.368627 0.368627
0.376471 0.376471 0.376471
0.384314 0.384314 0.384314
0.388235 0.388235 0.388235
0.403922 0.403922 0.403922
0.419608 0.419608 0.419608
0.450980 0.450980 0.450980
0.529412 0.529412 0.529412
0.396078 0.396078 0.396078
0.407843 0.407843 0.407843
0.427451 0.427451 0.427451
0.458824 0.458824 0.458824
0.474510 0.474510 0.474510
0.486275 0.486275 0.486275
0.498039 0.498039 0.498039
0.541176 0.541176 0.541176
0.623529 0.623529 0.623529
0.501961 0.501961 0.501961
0.509804 0.509804 0.509804
0.513725 0.513725 0.513725
0.529412 0.529412 0.529412
0.549020 0.549020 0.549020
0.584314 0.584314 0.584314
0.596078 0.596078 0.596078
0.631373 0.631373 0.631373
0.694118 0.694118 0.694118
0.568627 0.568627 0.568627
0.580392 0.580392 0.580392
0.592157 0.592157 0.592157
0.603922 0.603922 0.603922
0.623529 0.623529 0.623529
0.647059 0.647059 0.647059
0.678431 0.678431 0.678431
0.713725 0.713725 0.713725
0.776471 0.776471 0.776471
0.741176 0.741176 0.741176
0.745098 0.745098 0.745098
0.752941 0.752941 0.752941
0.756863 0.756863 0.756863
0.772549 0.772549 0.772549
0.784314 0.784314 0.784314
0.800000 0.800000 0.800000
0.823529 0.823529 0.823529
0.870588 0.870588 0.870588
0.878431 0.878431 0.878431
0.878431 0.878431 0.878431
0.882353 0.882353 0.882353
0.890196 0.890196 0.890196
0.898039 0.898039 0.898039
0.905882 0.905882 0.905882
0.921569 0.921569 0.921569
0.937255 0.937255 0.937255
0.964706 0.964706 0.964706
0.305882 0.305882 0.305882
0.309804 0.309804 0.309804
0.317647 0.317647 0.317647
0.329412 0.329412 0.329412
0.341176 0.341176 0.341176
0.364706 0.364706 0.364706
0.392157 0.392157 0.392157
0.419608 0.419608 0.419608
0.470588 0.470588 0.470588
0.309804 0.309804 0.309804
0.317647 0.317647 0.317647
0.325490 0.325490 0.325490
0.333333 0.333333 0.333333
0.352941 0.352941 0.352941
0.368627 0.368627 0.368627
0.388235 0.388235 0.388235
0.419608 0.419608 0.419608
0.466667 0.466667 0.466667
0.356863 0.356863 0.356863
0.368627 0.368627 0.368627
0.372549 0.372549 0.372549
0.380392 0.380392 0.380392
0.392157 0.392157 0.392157
0.411765 0.411765 0.411765
0.435294 0.435294 0.435294
0.458824 0.458824 0.458824
0.501961 0.501961 0.501961
0.407843 0.407843 0.407843
0.419608 0.419608 0.419608
0.423529 0.423529 0.423529
0.431373 0.431373 0.431373
0.439216 0.439216 0.439216
0.443137 0.443137 0.443137
0.458824 0.458824 0.458824
0.478431 0.478431 0.478431
0.517647 0.517647 0.517647
0.458824 0.458824 0.458824
0.474510 0.474510 0.474510
0.490196 0.490196 0.490196
0.505882 0.505882 0.505882
0.513725 0.513725 0.513725
0.525490 0.525490 0.525490
0.533333 0.533333 0.533333
0.556863 0.556863 0.556863
0.607843 0.607843 0.607843
0.529412 0.529412 0.529412
0.529412 0.529412 0.529412
0.537255 0.537255 0.537255
0.552941 0.552941 0.552941
0.592157 0.592157 0.592157
0.611765 0.611765 0.611765
0.619608 0.619608 0.619608
0.639216 0.639216 0.639216
0.690196 0.690196 0.690196
0.603922 0.603922 0.603922
0.611765 0.611765 0.611765
0.623529 0.623529 0.623529
0.635294 0.635294 0.635294
0.647059 0.647059 0.647059
0.666667 0.666667 0.666667
0.701961 0.701961 0.701961
0.721569 0.721569 0.721569
0.772549 0.772549 0.772549
0.717647 0.717647 0.717647
0.725490 0.725490 0.725490
0.729412 0.729412 0.729412
0.737255 0.737255 0.737255
0.749020 0.749020 0.749020
0.768627 0.768627 0.768627
0.792157 0.792157 0.792157
0.827451 0.827451 0.827451
0.870588 0.870588 0.870588
0.866667 0.866667 0.866667
0.874510 0.874510 0.874510
0.878431 0.878431 0.878431
0.882353 0.882353 0.882353
0.890196 0.890196 0.890196
0.905882 0.905882 0.905882
0.917647 0.917647 0.917647
0.941176 0.941176 0.941176
0.972549 0.972549 0.972549
0.407843 0.407843 0.407843
0.407843 0.407843 0.407843
0.419608 0.419608 0.419608
0.423529 0.423529 0.423529
0.435294 0.435294 0.435294
0.450980 0.450980 0.450980
0.466667 0.466667 0.466667
0.494118 0.494118 0.494118
0.549020 0.549020 0.549020
0.400000 0.400000 0.400000
0.407843 0.407843 0.407843
0.415686 0.415686 0.415686
0.423529 0.423529 0.423529
0.435294 0.435294 0.435294
0.447059 0.447059 0.447059
0.466667 0.466667 0.466667
0.494118 0.494118 0.494118
0.549020 0.549020 0.549020
0.443137 0.443137 0.443137
0.454902 0.454902 0.454902
0.462745 0.462745 0.462745
0.466667 0.466667 0.466667
0.478431 0.478431 0.478431
0.494118 0.494118 0.494118
0.505882 0.505882 0.505882
0.533333 0.533333 0.533333
0.584314 0.584314 0.584314
0.490196 0.490196 0.490196
0.490196 0.490196 0.490196
0.494118 0.494118 0.494118
0.501961 0.501961 0.501961
0.505882 0.505882 0.505882
0.513725 0.513725 0.513725
0.533333 0.533333 0.533333
0.556863 0.556863 0.556863
0.600000 0.600000 0.600000
0.552941 0.552941 0.552941
0.564706 0.564706 0.564706
0.568627 0.568627 0.568627
0.576471 0.576471 0.576471
0.576471 0.576471 0.576471
0.588235 0.588235 0.588235
0.600000 0.600000 0.600000
0.623529 0.623529 0.623529
0.662745 0.662745 0.662745
0.596078 0.596078 0.596078
0.603922 0.603922 0.603922
0.615686 0.615686 0.615686
0.635294 0.635294 0.635294
0.658824 0.658824 0.658824
0.658824 0.658824 0.658824
0.674510 0.674510 0.674510
0.698039 0.698039 0.698039
0.737255 0.737255 0.737255
0.674510 0.674510 0.674510
0.678431 0.678431 0.678431
0.682353 0.682353 0.682353
0.682353 0.682353 0.682353
0.686275 0.686275 0.686275
0.721569 0.721569 0.721569
0.752941 0.752941 0.752941
0.768627 0.768627 0.768627
0.796078 0.796078 0.796078
0.788235 0.788235 0.788235
0.792157 0.792157 0.792157
0.792157 0.792157 0.792157
0.792157 0.792157 0.792157
0.807843 0.807843 0.807843
0.807843 0.807843 0.807843
0.819608 0.819608 0.819608
0.854902 0.854902 0.854902
0.874510 0.874510 0.874510
0.882353 0.882353 0.882353
0.886275 0.886275 0.886275
0.882353 0.882353 0.882353
0.886275 0.886275 0.886275
0.894118 0.894118 0.894118
0.901961 0.901961 0.901961
0.917647 0.917647 0.917647
0.941176 0.941176 0.941176
0.988235 0.988235 0.988235
