resources/LUTs/Black and White/16.cube
TITLE "B&W Preset #16"
#LUT size
LUT_3D_SIZE 9
#LUT data points
0.000000 0.000000 0.000000
0.007843 0.007843 0.007843
0.035294 0.035294 0.035294
0.078431 0.078431 0.078431
0.137255 0.137255 0.137255
0.196078 0.196078 0.196078
0.262745 0.262745 0.262745
0.341176 0.341176 0.341176
0.439216 0.439216 0.439216
0.047059 0.047059 0.047059
0.062745 0.062745 0.062745
0.086275 0.086275 0.086275
0.121569 0.121569 0.121569
0.168627 0.168627 0.168627
0.227451 0.227451 0.227451
0.294118 0.294118 0.294118
0.368627 0.368627 0.368627
0.474510 0.474510 0.474510
0.137255 0.137255 0.137255
0.137255 0.137255 0.137255
0.160784 0.160784 0.160784
0.188235 0.188235 0.188235
0.227451 0.227451 0.227451
0.270588 0.270588 0.270588
0.329412 0.329412 0.329412
0.400000 0.400000 0.400000
0.498039 0.498039 0.498039
0.247059 0.247059 0.247059
0.239216 0.239216 0.239216
0.258824 0.258824 0.258824
0.286275 0.286275 0.286275
0.317647 0.317647 0.317647
0.352941 0.352941 0.352941
0.407843 0.407843 0.407843
0.482353 0.482353 0.482353
0.576471 0.576471 0.576471
0.341176 0.341176 0.341176
0.345098 0.345098 0.345098
0.352941 0.352941 0.352941
0.376471 0.376471 0.376471
0.407843 0.407843 0.407843
0.443137 0.443137 0.443137
0.494118 0.494118 0.494118
0.564706 0.564706 0.564706
0.650980 0.650980 0.650980
0.443137 0.443137 0.443137
0.447059 0.447059 0.447059
0.458824 0.458824 0.458824
0.482353 0.482353 0.482353
0.513725 0.513725 0.513725
0.552941 0.552941 0.552941
0.600000 0.600000 0.600000
0.662745 0.662745 0.662745
0.733333 0.733333 0.733333
0.623529 0.623529 0.623529
0.615686 0.615686 0.615686
0.619608 0.619608 0.619608
0.639216 0.639216 0.639216
0.658824 0.658824 0.658824
0.690196 0.690196 0.690196
0.725490 0.725490 0.725490
0.764706 0.764706 0.764706
0.819608 0.819608 0.819608
0.760784 0.760784 0.760784
0.760784 0.760784 0.760784
0.764706 0.764706 0.764706
0.776471 0.776471 0.776471
0.792157 0.792157 0.792157
0.807843 0.807843 0.807843
0.831373 0.831373 0.831373
0.850980 0.850980 0.850980
0.882353 0.882353 0.882353
0.909804 0.909804 0.909804
0.905882 0.905882 0.905882
0.905882 0.905882 0.905882
0.913725 0.913725 0.913725
0.925490 0.925490 0.925490
0.937255 0.937255 0.937255
0.952941 0.952941 0.952941
0.964706 0.964706 0.964706
0.984314 0.984314 0.984314
0.000000 0.000000 0.000000
0.011765 0.011765 0.011765
0.050980 0.050980 0.050980
0.101961 0.101961 0.101961
0.156863 0.156863 0.156863
0.219608 0.219608 0.219608
0.282353 0.282353 0.282353
0.360784 0.360784 0.360784
0.454902 0.454902 0.454902
0.054902 0.054902 0.054902
0.070588 0.070588 0.070588
0.098039 0.098039 0.098039
0.137255 0.137255 0.137255
0.188235 0.188235 0.188235
0.243137 0.243137 0.243137
0.301961 0.301961 0.301961
0.372549 0.372549 0.372549
0.474510 0.474510 0.474510
0.141176 0.141176 0.141176
0.152941 0.152941 0.152941
0.168627 0.168627 0.168627
0.200000 0.200000 0.200000
0.239216 0.239216 0.239216
0.282353 0.282353 0.282353
0.341176 0.341176 0.341176
0.415686 0.415686 0.415686
0.509804 0.509804 0.509804
0.247059 0.247059 0.247059
0.250980 0.250980 0.250980
0.270588 0.270588 0.270588
0.294118 0.294118 0.294118
0.325490 0.325490 0.325490
0.360784 0.360784 0.360784
0.411765 0.411765 0.411765
0.478431 0.478431 0.478431
0.572549 0.572549 0.572549
0.352941 0.352941 0.352941
0.352941 0.352941 0.352941
0.364706 0.364706 0.364706
0.388235 0.388235 0.388235
0.419608 0.419608 0.419608
0.454902 0.454902 0.454902
0.505882 0.505882 0.505882
0.572549 0.572549 0.572549
0.662745 0.662745 0.662745
0.454902 0.454902 0.454902
0.458824 0.458824 0.458824
0.470588 0.470588 0.470588
0.490196 0.490196 0.490196
0.517647 0.517647 0.517647
0.556863 0.556863 0.556863
0.607843 0.607843 0.607843
0.666667 0.666667 0.666667
0.737255 0.737255 0.737255
0.627451 0.627451 0.627451
0.623529 0.623529 0.623529
0.631373 0.631373 0.631373
0.647059 0.647059 0.647059
0.670588 0.670588 0.670588
0.698039 0.698039 0.698039
0.725490 0.725490 0.725490
0.756863 0.756863 0.756863
0.823529 0.823529 0.823529
0.764706 0.764706 0.764706
0.768627 0.768627 0.768627
0.764706 0.764706 0.764706
0.780392 0.780392 0.780392
0.796078 0.796078 0.796078
0.815686 0.815686 0.815686
0.835294 0.835294 0.835294
0.854902 0.854902 0.854902
0.890196 0.890196 0.890196
0.905882 0.905882 0.905882
0.905882 0.905882 0.905882
0.913725 0.913725 0.913725
0.921569 0.921569 0.921569
0.925490 0.925490 0.925490
0.937255 0.937255 0.937255
0.949020 0.949020 0.949020
0.964706 0.964706 0.964706
0.988235 0.988235 0.988235
0.007843 0.007843 0.007843
0.015686 0.015686 0.015686
0.054902 0.054902 0.054902
0.109804 0.109804 0.109804
0.168627 0.168627 0.168627
0.227451 0.227451 0.227451
0.294118 0.294118 0.294118
0.372549 0.372549 0.372549
0.462745 0.462745 0.462745
0.066667 0.066667 0.066667
0.074510 0.074510 0.074510
0.105882 0.105882 0.105882
0.149020 0.149020 0.149020
0.200000 0.200000 0.200000
0.258824 0.258824 0.258824
0.317647 0.317647 0.317647
0.388235 0.388235 0.388235
0.490196 0.490196 0.490196
0.149020 0.149020 0.149020
0.156863 0.156863 0.156863
0.180392 0.180392 0.180392
0.207843 0.207843 0.207843
0.247059 0.247059 0.247059
0.298039 0.298039 0.298039
0.352941 0.352941 0.352941
0.427451 0.427451 0.427451
0.517647 0.517647 0.517647
0.254902 0.254902 0.254902
0.262745 0.262745 0.262745
0.274510 0.274510 0.274510
0.301961 0.301961 0.301961
0.329412 0.329412 0.329412
0.364706 0.364706 0.364706
0.419608 0.419608 0.419608
0.486275 0.486275 0.486275
0.580392 0.580392 0.580392
0.360784 0.360784 0.360784
0.352941 0.352941 0.352941
0.372549 0.372549 0.372549
0.388235 0.388235 0.388235
0.419608 0.419608 0.419608
0.458824 0.458824 0.458824
0.509804 0.509804 0.509804
0.576471 0.576471 0.576471
0.662745 0.662745 0.662745
0.466667 0.466667 0.466667
0.470588 0.470588 0.470588
0.478431 0.478431 0.478431
0.498039 0.498039 0.498039
0.525490 0.525490 0.525490
0.560784 0.560784 0.560784
0.615686 0.615686 0.615686
0.670588 0.670588 0.670588
0.741176 0.741176 0.741176
0.631373 0.631373 0.631373
0.631373 0.631373 0.631373
0.639216 0.639216 0.639216
0.654902 0.654902 0.654902
0.674510 0.674510 0.674510
0.698039 0.698039 0.698039
0.725490 0.725490 0.725490
0.764706 0.764706 0.764706
0.819608 0.819608 0.819608
0.772549 0.772549 0.772549
0.768627 0.768627 0.768627
0.772549 0.772549 0.772549
0.784314 0.784314 0.784314
0.800000 0.800000 0.800000
0.815686 0.815686 0.815686
0.839216 0.839216 0.839216
0.858824 0.858824 0.858824
0.890196 0.890196 0.890196
0.905882 0.905882 0.905882
0.909804 0.909804 0.909804
0.917647 0.917647 0.917647
0.921569 0.921569 0.921569
0.925490 0.925490 0.925490
0.937255 0.937255 0.937255
0.949020 0.949020 0.949020
0.964706 0.964706 0.964706
0.988235 0.988235 0.988235
0.019608 0.019608 0.019608
0.035294 0.035294 0.035294
0.066667 0.066667 0.066667
0.117647 0.117647 0.117647
0.176471 0.176471 0.176471
0.231373 0.231373 0.231373
0.298039 0.298039 0.298039
0.380392 0.380392 0.380392
0.466667 0.466667 0.466667
0.078431 0.078431 0.078431
0.086275 0.086275 0.086275
0.113725 0.113725 0.113725
0.156863 0.156863 0.156863
0.207843 0.207843 0.207843
0.258824 0.258824 0.258824
0.325490 0.325490 0.325490
0.400000 0.400000 0.400000
0.494118 0.494118 0.494118
0.152941 0.152941 0.152941
0.164706 0.164706 0.164706
0.184314 0.184314 0.184314
0.215686 0.215686 0.215686
0.254902 0.254902 0.254902
0.301961 0.301961 0.301961
0.364706 0.364706 0.364706
0.435294 0.435294 0.435294
0.521569 0.521569 0.521569
0.254902 0.254902 0.254902
0.262745 0.262745 0.262745
0.282353 0.282353 0.282353
0.301961 0.301961 0.301961
0.337255 0.337255 0.337255
0.380392 0.380392 0.380392
0.427451 0.427451 0.427451
0.498039 0.498039 0.498039
0.588235 0.588235 0.588235
0.364706 0.364706 0.364706
0.368627 0.368627 0.368627
0.376471 0.376471 0.376471
0.396078 0.396078 0.396078
0.423529 0.423529 0.423529
0.466667 0.466667 0.466667
0.517647 0.517647 0.517647
0.584314 0.584314 0.584314
0.666667 0.666667 0.666667
0.470588 0.470588 0.470588
0.474510 0.474510 0.474510
0.486275 0.486275 0.486275
0.505882 0.505882 0.505882
0.533333 0.533333 0.533333
0.568627 0.568627 0.568627
0.615686 0.615686 0.615686
0.678431 0.678431 0.678431
0.741176 0.741176 0.741176
0.635294 0.635294 0.635294
0.635294 0.635294 0.635294
0.639216 0.639216 0.639216
0.650980 0.650980 0.650980
0.674510 0.674510 0.674510
0.701961 0.701961 0.701961
0.729412 0.729412 0.729412
0.764706 0.764706 0.764706
0.827451 0.827451 0.827451
0.776471 0.776471 0.776471
0.768627 0.768627 0.768627
0.772549 0.772549 0.772549
0.784314 0.784314 0.784314
0.800000 0.800000 0.800000
0.819608 0.819608 0.819608
0.839216 0.839216 0.839216
0.862745 0.862745 0.862745
0.894118 0.894118 0.894118
0.909804 0.909804 0.909804
0.909804 0.909804 0.909804
0.917647 0.917647 0.917647
0.921569 0.921569 0.921569
0.929412 0.929412 0.929412
0.937255 0.937255 0.937255
0.949020 0.949020 0.949020
0.968627 0.968627 0.968627
0.988235 0.988235 0.988235
0.047059 0.047059 0.047059
0.054902 0.054902 0.054902
0.090196 0.090196 0.090196
0.133333 0.133333 0.133333
0.188235 0.188235 0.188235
0.247059 0.247059 0.247059
0.313725 0.313725 0.313725
0.392157 0.392157 0.392157
0.482353 0.482353 0.482353
0.101961 0.101961 0.101961
0.109804 0.109804 0.109804
0.129412 0.129412 0.129412
0.168627 0.168627 0.168627
0.219608 0.219608 0.219608
0.274510 0.274510 0.274510
0.333333 0.333333 0.333333
0.407843 0.407843 0.407843
0.498039 0.498039 0.498039
0.172549 0.172549 0.172549
0.184314 0.184314 0.184314
0.200000 0.200000 0.200000
0.227451 0.227451 0.227451
0.266667 0.266667 0.266667
0.313725 0.313725 0.313725
0.372549 0.372549 0.372549
0.443137 0.443137 0.443137
0.533333 0.533333 0.533333
0.266667 0.266667 0.266667
0.270588 0.270588 0.270588
0.282353 0.282353 0.282353
0.313725 0.313725 0.313725
0.341176 0.341176 0.341176
0.388235 0.388235 0.388235
0.439216 0.439216 0.439216
0.501961 0.501961 0.501961
0.584314 0.584314 0.584314
0.368627 0.368627 0.368627
0.372549 0.372549 0.372549
0.380392 0.380392 0.380392
0.403922 0.403922 0.403922
0.431373 0.431373 0.431373
0.474510 0.474510 0.474510
0.525490 0.525490 0.525490
0.588235 0.588235 0.588235
0.662745 0.662745 0.662745
0.478431 0.478431 0.478431
0.482353 0.482353 0.482353
0.490196 0.490196 0.490196
0.509804 0.509804 0.509804
0.541176 0.541176 0.541176
0.572549 0.572549 0.572549
0.623529 0.623529 0.623529
0.678431 0.678431 0.678431
0.741176 0.741176 0.741176
0.639216 0.639216 0.639216
0.631373 0.631373 0.631373
0.643137 0.643137 0.643137
0.654902 0.654902 0.654902
0.678431 0.678431 0.678431
0.705882 0.705882 0.705882
0.733333 0.733333 0.733333
0.772549 0.772549 0.772549
0.831373 0.831373 0.831373
0.772549 0.772549 0.772549
0.768627 0.768627 0.768627
0.776471 0.776471 0.776471
0.788235 0.788235 0.788235
0.800000 0.800000 0.800000
0.823529 0.823529 0.823529
0.843137 0.843137 0.843137
0.862745 0.862745 0.862745
0.894118 0.894118 0.894118
0.901961 0.901961 0.901961
0.909804 0.909804 0.909804
0.909804 0.909804 0.909804
0.917647 0.917647 0.917647
0.925490 0.925490 0.925490
0.937255 0.937255 0.937255
0.952941 0.952941 0.952941
0.968627 0.968627 0.968627
0.984314 0.984314 0.984314
0.074510 0.074510 0.074510
0.086275 0.086275 0.086275
0.113725 0.113725 0.113725
0.152941 0.152941 0.152941
0.203922 0.203922 0.203922
0.262745 0.262745 0.262745
0.329412 0.329412 0.329412
0.403922 0.403922 0.403922
0.501961 0.501961 0.501961
0.121569 0.121569 0.121569
0.129412 0.129412 0.129412
0.152941 0.152941 0.152941
0.188235 0.188235 0.188235
0.227451 0.227451 0.227451
0.286275 0.286275 0.286275
0.341176 0.341176 0.341176
0.419608 0.419608 0.419608
0.509804 0.509804 0.509804
0.203922 0.203922 0.203922
0.200000 0.200000 0.200000
0.211765 0.211765 0.211765
0.243137 0.243137 0.243137
0.286275 0.286275 0.286275
0.333333 0.333333 0.333333
0.384314 0.384314 0.384314
0.458824 0.458824 0.458824
0.549020 0.549020 0.549020
0.282353 0.282353 0.282353
0.290196 0.290196 0.290196
0.301961 0.301961 0.301961
0.329412 0.329412 0.329412
0.356863 0.356863 0.356863
0.396078 0.396078 0.396078
0.443137 0.443137 0.443137
0.513725 0.513725 0.513725
0.596078 0.596078 0.596078
0.388235 0.388235 0.388235
0.396078 0.396078 0.396078
0.403922 0.403922 0.403922
0.423529 0.423529 0.423529
0.450980 0.450980 0.450980
0.486275 0.486275 0.486275
0.533333 0.533333 0.533333
0.596078 0.596078 0.596078
0.662745 0.662745 0.662745
0.501961 0.501961 0.501961
0.501961 0.501961 0.501961
0.513725 0.513725 0.513725
0.529412 0.529412 0.529412
0.556863 0.556863 0.556863
0.588235 0.588235 0.588235
0.635294 0.635294 0.635294
0.682353 0.682353 0.682353
0.749020 0.749020 0.749020
0.647059 0.647059 0.647059
0.650980 0.650980 0.650980
0.654902 0.654902 0.654902
0.666667 0.666667 0.666667
0.686275 0.686275 0.686275
0.709804 0.709804 0.709804
0.733333 0.733333 0.733333
0.776471 0.776471 0.776471
0.827451 0.827451 0.827451
0.784314 0.784314 0.784314
0.784314 0.784314 0.784314
0.784314 0.784314 0.784314
0.792157 0.792157 0.792157
0.807843 0.807843 0.807843
0.823529 0.823529 0.823529
0.843137 0.843137 0.843137
0.866667 0.866667 0.866667
0.905882 0.905882 0.905882
0.909804 0.909804 0.909804
0.909804 0.909804 0.909804
0.913725 0.913725 0.913725
0.917647 0.917647 0.917647
0.925490 0.925490 0.925490
0.941176 0.941176 0.941176
0.952941 0.952941 0.952941
0.968627 0.968627 0.968627
0.992157 0.992157 0.992157
0.117647 0.117647 0.117647
0.125490 0.125490 0.125490
0.149020 0.149020 0.149020
0.184314 0.184314 0.184314
0.231373 0.231373 0.231373
0.286275 0.286275 0.286275
0.352941 0.352941 0.352941
0.419608 0.419608 0.419608
0.521569 0.521569 0.521569
0.145098 0.145098 0.145098
0.156863 0.156863 0.156863
0.180392 0.180392 0.180392
0.211765 0.211765 0.211765
0.250980 0.250980 0.250980
0.305882 0.305882 0.305882
0.364706 0.364706 0.364706
0.427451 0.427451 0.427451
0.533333 0.533333 0.533333
0.223529 0.223529 0.223529
0.227451 0.227451 0.227451
0.239216 0.239216 0.239216
0.266667 0.266667 0.266667
0.305882 0.305882 0.305882
0.349020 0.349020 0.349020
0.403922 0.403922 0.403922
0.470588 0.470588 0.470588
0.564706 0.564706 0.564706
0.305882 0.305882 0.305882
0.301961 0.301961 0.301961
0.321569 0.321569 0.321569
0.341176 0.341176 0.341176
0.376471 0.376471 0.376471
0.415686 0.415686 0.415686
0.466667 0.466667 0.466667
0.525490 0.525490 0.525490
0.611765 0.611765 0.611765
0.403922 0.403922 0.403922
0.411765 0.411765 0.411765
0.419608 0.419608 0.419608
0.439216 0.439216 0.439216
0.458824 0.458824 0.458824
0.498039 0.498039 0.498039
0.545098 0.545098 0.545098
0.600000 0.600000 0.600000
0.678431 0.678431 0.678431
0.529412 0.529412 0.529412
0.533333 0.533333 0.533333
0.541176 0.541176 0.541176
0.560784 0.560784 0.560784
0.572549 0.572549 0.572549
0.600000 0.600000 0.600000
0.643137 0.643137 0.643137
0.686275 0.686275 0.686275
0.749020 0.749020 0.749020
0.654902 0.654902 0.654902
0.662745 0.662745 0.662745
0.666667 0.666667 0.666667
0.678431 0.678431 0.678431
0.694118 0.694118 0.694118
0.713725 0.713725 0.713725
0.745098 0.745098 0.745098
0.780392 0.780392 0.780392
0.827451 0.827451 0.827451
0.788235 0.788235 0.788235
0.788235 0.788235 0.788235
0.792157 0.792157 0.792157
0.800000 0.800000 0.800000
0.815686 0.815686 0.815686
0.827451 0.827451 0.827451
0.843137 0.843137 0.843137
0.870588 0.870588 0.870588
0.913725 0.913725 0.913725
0.909804 0.909804 0.909804
0.909804 0.909804 0.909804
0.913725 0.913725 0.913725
0.921569 0.921569 0.921569
0.933333 0.933333 0.933333
0.937255 0.937255 0.937255
0.949020 0.949020 0.949020
0.968627 0.968627 0.968627
0.992157 0.992157 0.992157
0.160784 0.160784 0.160784
0.168627 0.168627 0.168627
0.192157 0.192157 0.192157
0.223529 0.223529 0.223529
0.270588 0.270588 0.270588
0.325490 0.325490 0.325490
0.392157 0.392157 0.392157
0.466667 0.466667 0.466667
0.549020 0.549020 0.549020
0.184314 0.184314 0.184314
0.196078 0.196078 0.196078
0.215686 0.215686 0.215686
0.247059 0.247059 0.247059
0.286275 0.286275 0.286275
0.341176 0.341176 0.341176
0.403922 0.403922 0.403922
0.478431 0.478431 0.478431
0.556863 0.556863 0.556863
0.247059 0.247059 0.247059
0.254902 0.254902 0.254902
0.270588 0.270588 0.270588
0.298039 0.298039 0.298039
0.333333 0.333333 0.333333
0.384314 0.384314 0.384314
0.447059 0.447059 0.447059
0.513725 0.513725 0.513725
0.592157 0.592157 0.592157
0.321569 0.321569 0.321569
0.329412 0.329412 0.329412
0.345098 0.345098 0.345098
0.368627 0.368627 0.368627
0.400000 0.400000 0.400000
0.443137 0.443137 0.443137
0.498039 0.498039 0.498039
0.560784 0.560784 0.560784
0.631373 0.631373 0.631373
0.431373 0.431373 0.431373
0.435294 0.435294 0.435294
0.435294 0.435294 0.435294
0.454902 0.454902 0.454902
0.482353 0.482353 0.482353
0.521569 0.521569 0.521569
0.580392 0.580392 0.580392
0.627451 0.627451 0.627451
0.690196 0.690196 0.690196
0.564706 0.564706 0.564706
0.568627 0.568627 0.568627
0.572549 0.572549 0.572549
0.576471 0.576471 0.576471
0.588235 0.588235 0.588235
0.619608 0.619608 0.619608
0.658824 0.658824 0.658824
0.709804 0.709804 0.709804
0.764706 0.764706 0.764706
0.694118 0.694118 0.694118
0.698039 0.698039 0.698039
0.698039 0.698039 0.698039
0.709804 0.709804 0.709804
0.717647 0.717647 0.717647
0.733333 0.733333 0.733333
0.752941 0.752941 0.752941
0.792157 0.792157 0.792157
0.835294 0.835294 0.835294
0.811765 0.811765 0.811765
0.811765 0.811765 0.811765
0.811765 0.811765 0.811765
0.815686 0.815686 0.815686
0.823529 0.823529 0.823529
0.835294 0.835294 0.835294
0.850980 0.850980 0.850980
0.874510 0.874510 0.874510
0.909804 0.909804 0.909804
0.917647 0.917647 0.917647
0.917647 0.917647 0.917647
0.921569 0.921569 0.921569
0.921569 0.921569 0.921569
0.933333 0.933333 0.933333
0.937255 0.937255 0.937255
0.952941 0.952941 0.952941
0.976471 0.976471 0.976471
0.996078 0.996078 0.996078
0.227451 0.227451 0.227451
0.231373 0.231373 0.231373
0.254902 0.254902 0.254902
0.286275 0.286275 0.286275
0.337255 0.337255 0.337255
0.400000 0.400000 0.400000
0.470588 0.470588 0.470588
0.556863 0.556863 0.556863
0.643137 0.643137 0.643137
0.247059 0.247059 0.247059
0.254902 0.254902 0.254902
0.274510 0.274510 0.274510
0.305882 0.305882 0.305882
0.352941 0.352941 0.352941
0.411765 0.411765 0.411765
0.486275 0.486275 0.486275
0.564706 0.564706 0.564706
0.650980 0.650980 0.650980
0.290196 0.290196 0.290196
0.298039 0.298039 0.298039
0.317647 0.317647 0.317647
0.345098 0.345098 0.345098
0.392157 0.392157 0.392157
0.450980 0.450980 0.450980
0.517647 0.517647 0.517647
0.596078 0.596078 0.596078
0.674510 0.674510 0.674510
0.360784 0.360784 0.360784
0.364706 0.364706 0.364706
0.380392 0.380392 0.380392
0.407843 0.407843 0.407843
0.450980 0.450980 0.450980
0.501961 0.501961 0.501961
0.568627 0.568627 0.568627
0.635294 0.635294 0.635294
0.705882 0.705882 0.705882
0.435294 0.435294 0.435294
0.443137 0.443137 0.443137
0.454902 0.454902 0.454902
0.482353 0.482353 0.482353
0.521569 0.521569 0.521569
0.568627 0.568627 0.568627
0.627451 0.627451 0.627451
0.694118 0.694118 0.694118
0.741176 0.741176 0.741176
0.607843 0.607843 0.607843
0.607843 0.607843 0.607843
0.607843 0.607843 0.607843
0.603922 0.603922 0.603922
0.600000 0.600000 0.600000
0.650980 0.650980 0.650980
0.698039 0.698039 0.698039
0.752941 0.752941 0.752941
0.807843 0.807843 0.807843
0.752941 0.752941 0.752941
0.756863 0.756863 0.756863
0.752941 0.752941 0.752941
0.752941 0.752941 0.752941
0.752941 0.752941 0.752941
0.745098 0.745098 0.745098
0.772549 0.772549 0.772549
0.815686 0.815686 0.815686
0.858824 0.858824 0.858824
0.866667 0.866667 0.866667
0.862745 0.862745 0.862745
0.866667 0.866667 0.866667
0.866667 0.866667 0.866667
0.870588 0.870588 0.870588
0.870588 0.870588 0.870588
0.874510 0.874510 0.874510
0.886275 0.886275 0.886275
0.917647 0.917647 0.917647
0.949020 0.949020 0.949020
0.949020 0.949020 0.949020
0.949020 0.949020 0.949020
0.952941 0.952941 0.952941
0.956863 0.956863 0.956863
0.960784 0.960784 0.960784
0.968627 0.968627 0.968627
0.980392 0.980392 0.980392
1.000000 1.000000 1.000000
