resources/LUTs/Black and White/16.cube
TITLE "B&W Preset #16"
#LUT size
LUT_3D_SIZE 5
#LUT data points
0.000000 0.000000 0.000000
0.035294 0.035294 0.035294
0.137255 0.137255 0.137255
0.262745 0.262745 0.262745
0.439216 0.439216 0.439216
0.137255 0.137255 0.137255
0.160784 0.160784 0.160784
0.227451 0.227451 0.227451
0.329412 0.329412 0.329412
0.498039 0.498039 0.498039
0.341176 0.341176 0.341176
0.352941 0.352941 0.352941
0.407843 0.407843 0.407843
0.494118 0.494118 0.494118
0.650980 0.650980 0.650980
0.623529 0.623529 0.623529
0.619608 0.619608 0.619608
0.658824 0.658824 0.658824
0.725490 0.725490 0.725490
0.819608 0.819608 0.819608
0.909804 0.909804 0.909804
0.905882 0.905882 0.905882
0.925490 0.925490 0.925490
0.952941 0.952941 0.952941
0.984314 0.984314 0.984314
0.007843 0.007843 0.007843
0.054902 0.054902 0.054902
0.168627 0.168627 0.168627
0.294118 0.294118 0.294118
0.462745 0.462745 0.462745
0.149020 0.149020 0.149020
0.180392 0.180392 0.180392
0.247059 0.247059 0.247059
0.352941 0.352941 0.352941
0.517647 0.517647 0.517647
0.360784 0.360784 0.360784
0.372549 0.372549 0.372549
0.419608 0.419608 0.419608
0.509804 0.509804 0.509804
0.662745 0.662745 0.662745
0.631373 0.631373 0.631373
0.639216 0.639216 0.639216
0.674510 0.674510 0.674510
0.725490 0.725490 0.725490
0.819608 0.819608 0.819608
0.905882 0.905882 0.905882
0.917647 0.917647 0.917647
0.925490 0.925490 0.925490
0.949020 0.949020 0.949020
0.988235 0.988235 0.988235
0.047059 0.047059 0.047059
0.090196 0.090196 0.090196
0.188235 0.188235 0.188235
0.313725 0.313725 0.313725
0.482353 0.482353 0.482353
0.172549 0.172549 0.172549
0.200000 0.200000 0.200000
0.266667 0.266667 0.266667
0.372549 0.372549 0.372549
0.533333 0.533333 0.533333
0.368627 0.368627 0.368627
0.380392 0.380392 0.380392
0.431373 0.431373 0.431373
0.525490 0.525490 0.525490
0.662745 0.662745 0.662745
0.639216 0.639216 0.639216
0.643137 0.643137 0.643137
0.678431 0.678431 0.678431
0.733333 0.733333 0.733333
0.831373 0.831373 0.831373
0.901961 0.901961 0.901961
0.909804 0.909804 0.909804
0.925490 0.925490 0.925490
0.952941 0.952941 0.952941
0.984314 0.984314 0.984314
0.117647 0.117647 0.117647
0.149020 0.149020 0.149020
0.231373 0.231373 0.231373
0.352941 0.352941 0.352941
0.521569 0.521569 0.521569
0.223529 0.223529 0.223529
0.239216 0.239216 0.239216
0.305882 0.305882 0.305882
0.403922 0.403922 0.403922
0.564706 0.564706 0.564706
0.403922 0.403922 0.403922
0.419608 0.419608 0.419608
0.458824 0.458824 0.458824
0.545098 0.545098 0.545098
0.678431 0.678431 0.678431
0.654902 0.654902 0.654902
0.666667 0.666667 0.666667
0.694118 0.694118 0.694118
0.745098 0.745098 0.745098
0.827451 0.827451 0.827451
0.909804 0.909804 0.909804
0.913725 0.913725 0.913725
0.933333 0.933333 0.933333
0.949020 0.949020 0.949020
0.992157 0.992157 0.992157
0.227451 0.227451 0.227451
0.254902 0.254902 0.254902
0.337255 0.337255 0.337255
0.470588 0.470588 0.470588
0.643137 0.643137 0.643137
0.290196 0.290196 0.290196
0.317647 0.317647 0.317647
0.392157 0.392157 0.392157
0.517647 0.517647 0.517647
0.674510 0.674510 0.674510
0.435294 0.435294 0.435294
0.454902 0.454902 0.454902
0.521569 0.521569 0.521569
0.627451 0.627451 0.627451
0.741176 0.741176 0.741176
0.752941 0.752941 0.752941
0.752941 0.752941 0.752941
0.752941 0.752941 0.752941
0.772549 0.772549 0.772549
0.858824 0.858824 0.858824
0.949020 0.949020 0.949020
0.949020 0.949020 0.949020
0.956863 0.956863 0.956863
0.968627 0.968627 0.968627
1.000000 1.000000 1.000000
