resources/LUTs/Black and White/17.cube
TITLE "B&W Preset #17"
#LUT size
LUT_3D_SIZE 9
#LUT data points
0.000000 0.000000 0.000000
0.019608 0.019608 0.019608
0.066667 0.066667 0.066667
0.121569 0.121569 0.121569
0.192157 0.192157 0.192157
0.258824 0.258824 0.258824
0.345098 0.345098 0.345098
0.443137 0.443137 0.443137
0.556863 0.556863 0.556863
0.074510 0.074510 0.074510
0.094118 0.094118 0.094118
0.125490 0.125490 0.125490
0.168627 0.168627 0.168627
0.223529 0.223529 0.223529
0.290196 0.290196 0.290196
0.372549 0.372549 0.372549
0.470588 0.470588 0.470588
0.576471 0.576471 0.576471
0.176471 0.176471 0.176471
0.188235 0.188235 0.188235
0.215686 0.215686 0.215686
0.247059 0.247059 0.247059
0.290196 0.290196 0.290196
0.349020 0.349020 0.349020
0.423529 0.423529 0.423529
0.517647 0.517647 0.517647
0.600000 0.600000 0.600000
0.301961 0.301961 0.301961
0.305882 0.305882 0.305882
0.325490 0.325490 0.325490
0.364706 0.364706 0.364706
0.403922 0.403922 0.403922
0.450980 0.450980 0.450980
0.513725 0.513725 0.513725
0.580392 0.580392 0.580392
0.647059 0.647059 0.647059
0.443137 0.443137 0.443137
0.443137 0.443137 0.443137
0.454902 0.454902 0.454902
0.482353 0.482353 0.482353
0.521569 0.521569 0.521569
0.556863 0.556863 0.556863
0.592157 0.592157 0.592157
0.643137 0.643137 0.643137
0.698039 0.698039 0.698039
0.560784 0.560784 0.560784
0.568627 0.568627 0.568627
0.576471 0.576471 0.576471
0.592157 0.592157 0.592157
0.611765 0.611765 0.611765
0.639216 0.639216 0.639216
0.666667 0.666667 0.666667
0.705882 0.705882 0.705882
0.760784 0.760784 0.760784
0.682353 0.682353 0.682353
0.678431 0.678431 0.678431
0.678431 0.678431 0.678431
0.694118 0.694118 0.694118
0.701961 0.701961 0.701961
0.725490 0.725490 0.725490
0.745098 0.745098 0.745098
0.780392 0.780392 0.780392
0.831373 0.831373 0.831373
0.784314 0.784314 0.784314
0.788235 0.788235 0.788235
0.788235 0.788235 0.788235
0.803922 0.803922 0.803922
0.811765 0.811765 0.811765
0.827451 0.827451 0.827451
0.847059 0.847059 0.847059
0.870588 0.870588 0.870588
0.905882 0.905882 0.905882
0.917647 0.917647 0.917647
0.917647 0.917647 0.917647
0.917647 0.917647 0.917647
0.917647 0.917647 0.917647
0.937255 0.937255 0.937255
0.949020 0.949020 0.949020
0.956863 0.956863 0.956863
0.980392 0.980392 0.980392
0.992157 0.992157 0.992157
0.007843 0.007843 0.007843
0.031373 0.031373 0.031373
0.082353 0.082353 0.082353
0.145098 0.145098 0.145098
0.211765 0.211765 0.211765
0.282353 0.282353 0.282353
0.360784 0.360784 0.360784
0.462745 0.462745 0.462745
0.564706 0.564706 0.564706
0.082353 0.082353 0.082353
0.105882 0.105882 0.105882
0.137255 0.137255 0.137255
0.184314 0.184314 0.184314
0.243137 0.243137 0.243137
0.309804 0.309804 0.309804
0.380392 0.380392 0.380392
0.478431 0.478431 0.478431
0.576471 0.576471 0.576471
0.188235 0.188235 0.188235
0.200000 0.200000 0.200000
0.223529 0.223529 0.223529
0.254902 0.254902 0.254902
0.305882 0.305882 0.305882
0.360784 0.360784 0.360784
0.435294 0.435294 0.435294
0.525490 0.525490 0.525490
0.607843 0.607843 0.607843
0.309804 0.309804 0.309804
0.317647 0.317647 0.317647
0.337255 0.337255 0.337255
0.372549 0.372549 0.372549
0.411765 0.411765 0.411765
0.454902 0.454902 0.454902
0.521569 0.521569 0.521569
0.584314 0.584314 0.584314
0.647059 0.647059 0.647059
0.447059 0.447059 0.447059
0.447059 0.447059 0.447059
0.462745 0.462745 0.462745
0.490196 0.490196 0.490196
0.529412 0.529412 0.529412
0.560784 0.560784 0.560784
0.600000 0.600000 0.600000
0.647059 0.647059 0.647059
0.705882 0.705882 0.705882
0.572549 0.572549 0.572549
0.572549 0.572549 0.572549
0.580392 0.580392 0.580392
0.592157 0.592157 0.592157
0.611765 0.611765 0.611765
0.635294 0.635294 0.635294
0.666667 0.666667 0.666667
0.709804 0.709804 0.709804
0.760784 0.760784 0.760784
0.678431 0.678431 0.678431
0.682353 0.682353 0.682353
0.686275 0.686275 0.686275
0.694118 0.694118 0.694118
0.709804 0.709804 0.709804
0.729412 0.729412 0.729412
0.749020 0.749020 0.749020
0.776471 0.776471 0.776471
0.831373 0.831373 0.831373
0.784314 0.784314 0.784314
0.784314 0.784314 0.784314
0.792157 0.792157 0.792157
0.800000 0.800000 0.800000
0.815686 0.815686 0.815686
0.831373 0.831373 0.831373
0.850980 0.850980 0.850980
0.870588 0.870588 0.870588
0.901961 0.901961 0.901961
0.917647 0.917647 0.917647
0.917647 0.917647 0.917647
0.921569 0.921569 0.921569
0.929412 0.929412 0.929412
0.937255 0.937255 0.937255
0.949020 0.949020 0.949020
0.964706 0.964706 0.964706
0.976471 0.976471 0.976471
0.992157 0.992157 0.992157
0.015686 0.015686 0.015686
0.035294 0.035294 0.035294
0.086275 0.086275 0.086275
0.152941 0.152941 0.152941
0.219608 0.219608 0.219608
0.294118 0.294118 0.294118
0.372549 0.372549 0.372549
0.474510 0.474510 0.474510
0.572549 0.572549 0.572549
0.094118 0.094118 0.094118
0.109804 0.109804 0.109804
0.145098 0.145098 0.145098
0.192157 0.192157 0.192157
0.254902 0.254902 0.254902
0.321569 0.321569 0.321569
0.400000 0.400000 0.400000
0.498039 0.498039 0.498039
0.588235 0.588235 0.588235
0.192157 0.192157 0.192157
0.203922 0.203922 0.203922
0.227451 0.227451 0.227451
0.262745 0.262745 0.262745
0.313725 0.313725 0.313725
0.376471 0.376471 0.376471
0.447059 0.447059 0.447059
0.537255 0.537255 0.537255
0.611765 0.611765 0.611765
0.317647 0.317647 0.317647
0.321569 0.321569 0.321569
0.345098 0.345098 0.345098
0.372549 0.372549 0.372549
0.411765 0.411765 0.411765
0.462745 0.462745 0.462745
0.529412 0.529412 0.529412
0.588235 0.588235 0.588235
0.650980 0.650980 0.650980
0.454902 0.454902 0.454902
0.450980 0.450980 0.450980
0.474510 0.474510 0.474510
0.494118 0.494118 0.494118
0.529412 0.529412 0.529412
0.560784 0.560784 0.560784
0.603922 0.603922 0.603922
0.647059 0.647059 0.647059
0.698039 0.698039 0.698039
0.576471 0.576471 0.576471
0.576471 0.576471 0.576471
0.584314 0.584314 0.584314
0.600000 0.600000 0.600000
0.619608 0.619608 0.619608
0.639216 0.639216 0.639216
0.670588 0.670588 0.670588
0.709804 0.709804 0.709804
0.764706 0.764706 0.764706
0.682353 0.682353 0.682353
0.678431 0.678431 0.678431
0.686275 0.686275 0.686275
0.698039 0.698039 0.698039
0.709804 0.709804 0.709804
0.729412 0.729412 0.729412
0.749020 0.749020 0.749020
0.784314 0.784314 0.784314
0.835294 0.835294 0.835294
0.788235 0.788235 0.788235
0.788235 0.788235 0.788235
0.792157 0.792157 0.792157
0.803922 0.803922 0.803922
0.815686 0.815686 0.815686
0.827451 0.827451 0.827451
0.850980 0.850980 0.850980
0.874510 0.874510 0.874510
0.905882 0.905882 0.905882
0.913725 0.913725 0.913725
0.917647 0.917647 0.917647
0.921569 0.921569 0.921569
0.929412 0.929412 0.929412
0.937255 0.937255 0.937255
0.945098 0.945098 0.945098
0.960784 0.960784 0.960784
0.980392 0.980392 0.980392
0.992157 0.992157 0.992157
0.039216 0.039216 0.039216
0.054902 0.054902 0.054902
0.098039 0.098039 0.098039
0.160784 0.160784 0.160784
0.231373 0.231373 0.231373
0.298039 0.298039 0.298039
0.380392 0.380392 0.380392
0.486275 0.486275 0.486275
0.576471 0.576471 0.576471
0.105882 0.105882 0.105882
0.129412 0.129412 0.129412
0.156863 0.156863 0.156863
0.200000 0.200000 0.200000
0.262745 0.262745 0.262745
0.325490 0.325490 0.325490
0.411765 0.411765 0.411765
0.505882 0.505882 0.505882
0.592157 0.592157 0.592157
0.203922 0.203922 0.203922
0.211765 0.211765 0.211765
0.239216 0.239216 0.239216
0.274510 0.274510 0.274510
0.321569 0.321569 0.321569
0.384314 0.384314 0.384314
0.462745 0.462745 0.462745
0.545098 0.545098 0.545098
0.615686 0.615686 0.615686
0.321569 0.321569 0.321569
0.329412 0.329412 0.329412
0.349020 0.349020 0.349020
0.380392 0.380392 0.380392
0.423529 0.423529 0.423529
0.478431 0.478431 0.478431
0.537255 0.537255 0.537255
0.592157 0.592157 0.592157
0.654902 0.654902 0.654902
0.462745 0.462745 0.462745
0.462745 0.462745 0.462745
0.482353 0.482353 0.482353
0.501961 0.501961 0.501961
0.529412 0.529412 0.529412
0.564706 0.564706 0.564706
0.607843 0.607843 0.607843
0.654902 0.654902 0.654902
0.709804 0.709804 0.709804
0.576471 0.576471 0.576471
0.580392 0.580392 0.580392
0.592157 0.592157 0.592157
0.600000 0.600000 0.600000
0.619608 0.619608 0.619608
0.643137 0.643137 0.643137
0.674510 0.674510 0.674510
0.713725 0.713725 0.713725
0.764706 0.764706 0.764706
0.682353 0.682353 0.682353
0.686275 0.686275 0.686275
0.686275 0.686275 0.686275
0.694118 0.694118 0.694118
0.713725 0.713725 0.713725
0.733333 0.733333 0.733333
0.756863 0.756863 0.756863
0.788235 0.788235 0.788235
0.839216 0.839216 0.839216
0.788235 0.788235 0.788235
0.788235 0.788235 0.788235
0.796078 0.796078 0.796078
0.800000 0.800000 0.800000
0.811765 0.811765 0.811765
0.831373 0.831373 0.831373
0.850980 0.850980 0.850980
0.878431 0.878431 0.878431
0.913725 0.913725 0.913725
0.921569 0.921569 0.921569
0.917647 0.917647 0.917647
0.921569 0.921569 0.921569
0.929412 0.929412 0.929412
0.933333 0.933333 0.933333
0.949020 0.949020 0.949020
0.960784 0.960784 0.960784
0.980392 0.980392 0.980392
0.992157 0.992157 0.992157
0.066667 0.066667 0.066667
0.082353 0.082353 0.082353
0.121569 0.121569 0.121569
0.176471 0.176471 0.176471
0.239216 0.239216 0.239216
0.313725 0.313725 0.313725
0.400000 0.400000 0.400000
0.498039 0.498039 0.498039
0.584314 0.584314 0.584314
0.137255 0.137255 0.137255
0.145098 0.145098 0.145098
0.168627 0.168627 0.168627
0.215686 0.215686 0.215686
0.274510 0.274510 0.274510
0.341176 0.341176 0.341176
0.419608 0.419608 0.419608
0.513725 0.513725 0.513725
0.596078 0.596078 0.596078
0.223529 0.223529 0.223529
0.231373 0.231373 0.231373
0.250980 0.250980 0.250980
0.286275 0.286275 0.286275
0.333333 0.333333 0.333333
0.396078 0.396078 0.396078
0.474510 0.474510 0.474510
0.552941 0.552941 0.552941
0.623529 0.623529 0.623529
0.333333 0.333333 0.333333
0.337255 0.337255 0.337255
0.356863 0.356863 0.356863
0.388235 0.388235 0.388235
0.435294 0.435294 0.435294
0.490196 0.490196 0.490196
0.545098 0.545098 0.545098
0.596078 0.596078 0.596078
0.650980 0.650980 0.650980
0.470588 0.470588 0.470588
0.470588 0.470588 0.470588
0.490196 0.490196 0.490196
0.509804 0.509804 0.509804
0.541176 0.541176 0.541176
0.572549 0.572549 0.572549
0.611765 0.611765 0.611765
0.654902 0.654902 0.654902
0.705882 0.705882 0.705882
0.584314 0.584314 0.584314
0.588235 0.588235 0.588235
0.592157 0.592157 0.592157
0.607843 0.607843 0.607843
0.623529 0.623529 0.623529
0.647059 0.647059 0.647059
0.678431 0.678431 0.678431
0.717647 0.717647 0.717647
0.768627 0.768627 0.768627
0.686275 0.686275 0.686275
0.686275 0.686275 0.686275
0.690196 0.690196 0.690196
0.698039 0.698039 0.698039
0.717647 0.717647 0.717647
0.733333 0.733333 0.733333
0.752941 0.752941 0.752941
0.788235 0.788235 0.788235
0.843137 0.843137 0.843137
0.788235 0.788235 0.788235
0.788235 0.788235 0.788235
0.792157 0.792157 0.792157
0.803922 0.803922 0.803922
0.815686 0.815686 0.815686
0.831373 0.831373 0.831373
0.854902 0.854902 0.854902
0.878431 0.878431 0.878431
0.913725 0.913725 0.913725
0.913725 0.913725 0.913725
0.917647 0.917647 0.917647
0.917647 0.917647 0.917647
0.925490 0.925490 0.925490
0.933333 0.933333 0.933333
0.949020 0.949020 0.949020
0.960784 0.960784 0.960784
0.976471 0.976471 0.976471
0.992157 0.992157 0.992157
0.105882 0.105882 0.105882
0.121569 0.121569 0.121569
0.152941 0.152941 0.152941
0.196078 0.196078 0.196078
0.258824 0.258824 0.258824
0.329412 0.329412 0.329412
0.411765 0.411765 0.411765
0.513725 0.513725 0.513725
0.596078 0.596078 0.596078
0.160784 0.160784 0.160784
0.168627 0.168627 0.168627
0.192157 0.192157 0.192157
0.235294 0.235294 0.235294
0.286275 0.286275 0.286275
0.356863 0.356863 0.356863
0.431373 0.431373 0.431373
0.525490 0.525490 0.525490
0.603922 0.603922 0.603922
0.247059 0.247059 0.247059
0.254902 0.254902 0.254902
0.270588 0.270588 0.270588
0.301961 0.301961 0.301961
0.352941 0.352941 0.352941
0.411765 0.411765 0.411765
0.486275 0.486275 0.486275
0.560784 0.560784 0.560784
0.627451 0.627451 0.627451
0.345098 0.345098 0.345098
0.356863 0.356863 0.356863
0.376471 0.376471 0.376471
0.407843 0.407843 0.407843
0.447059 0.447059 0.447059
0.501961 0.501961 0.501961
0.549020 0.549020 0.549020
0.607843 0.607843 0.607843
0.662745 0.662745 0.662745
0.490196 0.490196 0.490196
0.490196 0.490196 0.490196
0.505882 0.505882 0.505882
0.529412 0.529412 0.529412
0.552941 0.552941 0.552941
0.584314 0.584314 0.584314
0.619608 0.619608 0.619608
0.662745 0.662745 0.662745
0.698039 0.698039 0.698039
0.596078 0.596078 0.596078
0.596078 0.596078 0.596078
0.607843 0.607843 0.607843
0.615686 0.615686 0.615686
0.631373 0.631373 0.631373
0.654902 0.654902 0.654902
0.682353 0.682353 0.682353
0.713725 0.713725 0.713725
0.760784 0.760784 0.760784
0.694118 0.694118 0.694118
0.686275 0.686275 0.686275
0.698039 0.698039 0.698039
0.701961 0.701961 0.701961
0.717647 0.717647 0.717647
0.737255 0.737255 0.737255
0.756863 0.756863 0.756863
0.792157 0.792157 0.792157
0.839216 0.839216 0.839216
0.796078 0.796078 0.796078
0.800000 0.800000 0.800000
0.800000 0.800000 0.800000
0.807843 0.807843 0.807843
0.819608 0.819608 0.819608
0.835294 0.835294 0.835294
0.854902 0.854902 0.854902
0.882353 0.882353 0.882353
0.917647 0.917647 0.917647
0.917647 0.917647 0.917647
0.917647 0.917647 0.917647
0.921569 0.921569 0.921569
0.925490 0.925490 0.925490
0.933333 0.933333 0.933333
0.949020 0.949020 0.949020
0.960784 0.960784 0.960784
0.976471 0.976471 0.976471
0.992157 0.992157 0.992157
0.145098 0.145098 0.145098
0.156863 0.156863 0.156863
0.184314 0.184314 0.184314
0.227451 0.227451 0.227451
0.286275 0.286275 0.286275
0.352941 0.352941 0.352941
0.439216 0.439216 0.439216
0.529412 0.529412 0.529412
0.615686 0.615686 0.615686
0.188235 0.188235 0.188235
0.200000 0.200000 0.200000
0.223529 0.223529 0.223529
0.262745 0.262745 0.262745
0.309804 0.309804 0.309804
0.380392 0.380392 0.380392
0.458824 0.458824 0.458824
0.541176 0.541176 0.541176
0.619608 0.619608 0.619608
0.270588 0.270588 0.270588
0.278431 0.278431 0.278431
0.294118 0.294118 0.294118
0.325490 0.325490 0.325490
0.376471 0.376471 0.376471
0.435294 0.435294 0.435294
0.509804 0.509804 0.509804
0.572549 0.572549 0.572549
0.635294 0.635294 0.635294
0.372549 0.372549 0.372549
0.376471 0.376471 0.376471
0.396078 0.396078 0.396078
0.427451 0.427451 0.427451
0.470588 0.470588 0.470588
0.517647 0.517647 0.517647
0.568627 0.568627 0.568627
0.615686 0.615686 0.615686
0.670588 0.670588 0.670588
0.501961 0.501961 0.501961
0.509804 0.509804 0.509804
0.521569 0.521569 0.521569
0.537255 0.537255 0.537255
0.560784 0.560784 0.560784
0.592157 0.592157 0.592157
0.627451 0.627451 0.627451
0.658824 0.658824 0.658824
0.713725 0.713725 0.713725
0.611765 0.611765 0.611765
0.615686 0.615686 0.615686
0.619608 0.619608 0.619608
0.631373 0.631373 0.631373
0.643137 0.643137 0.643137
0.662745 0.662745 0.662745
0.686275 0.686275 0.686275
0.721569 0.721569 0.721569
0.764706 0.764706 0.764706
0.698039 0.698039 0.698039
0.698039 0.698039 0.698039
0.701961 0.701961 0.701961
0.713725 0.713725 0.713725
0.725490 0.725490 0.725490
0.741176 0.741176 0.741176
0.760784 0.760784 0.760784
0.796078 0.796078 0.796078
0.839216 0.839216 0.839216
0.796078 0.796078 0.796078
0.800000 0.800000 0.800000
0.803922 0.803922 0.803922
0.807843 0.807843 0.807843
0.827451 0.827451 0.827451
0.839216 0.839216 0.839216
0.854902 0.854902 0.854902
0.886275 0.886275 0.886275
0.929412 0.929412 0.929412
0.921569 0.921569 0.921569
0.917647 0.917647 0.917647
0.921569 0.921569 0.921569
0.925490 0.925490 0.925490
0.937255 0.937255 0.937255
0.945098 0.945098 0.945098
0.964706 0.964706 0.964706
0.980392 0.980392 0.980392
0.996078 0.996078 0.996078
0.192157 0.192157 0.192157
0.207843 0.207843 0.207843
0.231373 0.231373 0.231373
0.270588 0.270588 0.270588
0.325490 0.325490 0.325490
0.403922 0.403922 0.403922
0.490196 0.490196 0.490196
0.564706 0.564706 0.564706
0.627451 0.627451 0.627451
0.223529 0.223529 0.223529
0.243137 0.243137 0.243137
0.258824 0.258824 0.258824
0.298039 0.298039 0.298039
0.352941 0.352941 0.352941
0.423529 0.423529 0.423529
0.505882 0.505882 0.505882
0.584314 0.584314 0.584314
0.635294 0.635294 0.635294
0.294118 0.294118 0.294118
0.309804 0.309804 0.309804
0.329412 0.329412 0.329412
0.360784 0.360784 0.360784
0.411765 0.411765 0.411765
0.482353 0.482353 0.482353
0.549020 0.549020 0.549020
0.607843 0.607843 0.607843
0.654902 0.654902 0.654902
0.396078 0.396078 0.396078
0.407843 0.407843 0.407843
0.423529 0.423529 0.423529
0.454902 0.454902 0.454902
0.501961 0.501961 0.501961
0.545098 0.545098 0.545098
0.596078 0.596078 0.596078
0.639216 0.639216 0.639216
0.682353 0.682353 0.682353
0.525490 0.525490 0.525490
0.533333 0.533333 0.533333
0.533333 0.533333 0.533333
0.552941 0.552941 0.552941
0.576471 0.576471 0.576471
0.611765 0.611765 0.611765
0.643137 0.643137 0.643137
0.682353 0.682353 0.682353
0.717647 0.717647 0.717647
0.635294 0.635294 0.635294
0.635294 0.635294 0.635294
0.635294 0.635294 0.635294
0.643137 0.643137 0.643137
0.650980 0.650980 0.650980
0.674510 0.674510 0.674510
0.701961 0.701961 0.701961
0.737255 0.737255 0.737255
0.776471 0.776471 0.776471
0.725490 0.725490 0.725490
0.725490 0.725490 0.725490
0.725490 0.725490 0.725490
0.733333 0.733333 0.733333
0.741176 0.741176 0.741176
0.752941 0.752941 0.752941
0.772549 0.772549 0.772549
0.803922 0.803922 0.803922
0.843137 0.843137 0.843137
0.815686 0.815686 0.815686
0.815686 0.815686 0.815686
0.819608 0.819608 0.819608
0.823529 0.823529 0.823529
0.831373 0.831373 0.831373
0.847059 0.847059 0.847059
0.862745 0.862745 0.862745
0.890196 0.890196 0.890196
0.929412 0.929412 0.929412
0.925490 0.925490 0.925490
0.925490 0.925490 0.925490
0.929412 0.929412 0.929412
0.929412 0.929412 0.929412
0.941176 0.941176 0.941176
0.952941 0.952941 0.952941
0.964706 0.964706 0.964706
0.980392 0.980392 0.980392
1.000000 1.000000 1.000000
0.258824 0.258824 0.258824
0.266667 0.266667 0.266667
0.298039 0.298039 0.298039
0.337255 0.337255 0.337255
0.400000 0.400000 0.400000
0.486275 0.486275 0.486275
0.560784 0.560784 0.560784
0.623529 0.623529 0.623529
0.682353 0.682353 0.682353
0.286275 0.286275 0.286275
0.294118 0.294118 0.294118
0.321569 0.321569 0.321569
0.364706 0.364706 0.364706
0.419608 0.419608 0.419608
0.501961 0.501961 0.501961
0.572549 0.572549 0.572549
0.635294 0.635294 0.635294
0.686275 0.686275 0.686275
0.349020 0.349020 0.349020
0.356863 0.356863 0.356863
0.380392 0.380392 0.380392
0.419608 0.419608 0.419608
0.478431 0.478431 0.478431
0.541176 0.541176 0.541176
0.600000 0.600000 0.600000
0.650980 0.650980 0.650980
0.701961 0.701961 0.701961
0.431373 0.431373 0.431373
0.443137 0.443137 0.443137
0.462745 0.462745 0.462745
0.494118 0.494118 0.494118
0.545098 0.545098 0.545098
0.584314 0.584314 0.584314
0.631373 0.631373 0.631373
0.678431 0.678431 0.678431
0.725490 0.725490 0.725490
0.537255 0.537255 0.537255
0.533333 0.533333 0.533333
0.549020 0.549020 0.549020
0.572549 0.572549 0.572549
0.600000 0.600000 0.600000
0.635294 0.635294 0.635294
0.670588 0.670588 0.670588
0.713725 0.713725 0.713725
0.760784 0.760784 0.760784
0.650980 0.650980 0.650980
0.650980 0.650980 0.650980
0.654902 0.654902 0.654902
0.650980 0.650980 0.650980
0.658824 0.658824 0.658824
0.686275 0.686275 0.686275
0.721569 0.721569 0.721569
0.764706 0.764706 0.764706
0.807843 0.807843 0.807843
0.760784 0.760784 0.760784
0.756863 0.756863 0.756863
0.756863 0.756863 0.756863
0.756863 0.756863 0.756863
0.760784 0.760784 0.760784
0.760784 0.760784 0.760784
0.784314 0.784314 0.784314
0.827451 0.827451 0.827451
0.862745 0.862745 0.862745
0.858824 0.858824 0.858824
0.862745 0.862745 0.862745
0.862745 0.862745 0.862745
0.862745 0.862745 0.862745
0.870588 0.870588 0.870588
0.874510 0.874510 0.874510
0.882353 0.882353 0.882353
0.901961 0.901961 0.901961
0.941176 0.941176 0.941176
0.949020 0.949020 0.949020
0.949020 0.949020 0.949020
0.952941 0.952941 0.952941
0.956863 0.956863 0.956863
0.960784 0.960784 0.960784
0.964706 0.964706 0.964706
0.976471 0.976471 0.976471
0.988235 0.988235 0.988235
1.000000 1.000000 1.000000
