resources/LUTs/Black and White/17.cube
TITLE "B&W Preset #17"
#LUT size
LUT_3D_SIZE 5
#LUT data points
0.000000 0.000000 0.000000
0.066667 0.066667 0.066667
0.192157 0.192157 0.192157
0.345098 0.345098 0.345098
0.556863 0.556863 0.556863
0.176471 0.176471 0.176471
0.215686 0.215686 0.215686
0.290196 0.290196 0.290196
0.423529 0.423529 0.423529
0.600000 0.600000 0.600000
0.443137 0.443137 0.443137
0.454902 0.454902 0.454902
0.521569 0.521569 0.521569
0.592157 0.592157 0.592157
0.698039 0.698039 0.698039
0.682353 0.682353 0.682353
0.678431 0.678431 0.678431
0.701961 0.701961 0.701961
0.745098 0.745098 0.745098
0.831373 0.831373 0.831373
0.917647 0.917647 0.917647
0.917647 0.917647 0.917647
0.937255 0.937255 0.937255
0.956863 0.956863 0.956863
0.992157 0.992157 0.992157
0.015686 0.015686 0.015686
0.086275 0.086275 0.086275
0.219608 0.219608 0.219608
0.372549 0.372549 0.372549
0.572549 0.572549 0.572549
0.192157 0.192157 0.192157
0.227451 0.227451 0.227451
0.313725 0.313725 0.313725
0.447059 0.447059 0.447059
0.611765 0.611765 0.611765
0.454902 0.454902 0.454902
0.474510 0.474510 0.474510
0.529412 0.529412 0.529412
0.603922 0.603922 0.603922
0.698039 0.698039 0.698039
0.682353 0.682353 0.682353
0.686275 0.686275 0.686275
0.709804 0.709804 0.709804
0.749020 0.749020 0.749020
0.835294 0.835294 0.835294
0.913725 0.913725 0.913725
0.921569 0.921569 0.921569
0.937255 0.937255 0.937255
0.960784 0.960784 0.960784
0.992157 0.992157 0.992157
0.066667 0.066667 0.066667
0.121569 0.121569 0.121569
0.239216 0.239216 0.239216
0.400000 0.400000 0.400000
0.584314 0.584314 0.584314
0.223529 0.223529 0.223529
0.250980 0.250980 0.250980
0.333333 0.333333 0.333333
0.474510 0.474510 0.474510
0.623529 0.623529 0.623529
0.470588 0.470588 0.470588
0.490196 0.490196 0.490196
0.541176 0.541176 0.541176
0.611765 0.611765 0.611765
0.705882 0.705882 0.705882
0.686275 0.686275 0.686275
0.690196 0.690196 0.690196
0.717647 0.717647 0.717647
0.752941 0.752941 0.752941
0.843137 0.843137 0.843137
0.913725 0.913725 0.913725
0.917647 0.917647 0.917647
0.933333 0.933333 0.933333
0.960784 0.960784 0.960784
0.992157 0.992157 0.992157
0.145098 0.145098 0.145098
0.184314 0.184314 0.184314
0.286275 0.286275 0.286275
0.439216 0.439216 0.439216
0.615686 0.615686 0.615686
0.270588 0.270588 0.270588
0.294118 0.294118 0.294118
0.376471 0.376471 0.376471
0.509804 0.509804 0.509804
0.635294 0.635294 0.635294
0.501961 0.501961 0.501961
0.521569 0.521569 0.521569
0.560784 0.560784 0.560784
0.627451 0.627451 0.627451
0.713725 0.713725 0.713725
0.698039 0.698039 0.698039
0.701961 0.701961 0.701961
0.725490 0.725490 0.725490
0.760784 0.760784 0.760784
0.839216 0.839216 0.839216
0.921569 0.921569 0.921569
0.921569 0.921569 0.921569
0.937255 0.937255 0.937255
0.964706 0.964706 0.964706
0.996078 0.996078 0.996078
0.258824 0.258824 0.258824
0.298039 0.298039 0.298039
0.400000 0.400000 0.400000
0.560784 0.560784 0.560784
0.682353 0.682353 0.682353
0.349020 0.349020 0.349020
0.380392 0.380392 0.380392
0.478431 0.478431 0.478431
0.600000 0.600000 0.600000
0.701961 0.701961 0.701961
0.537255 0.537255 0.537255
0.549020 0.549020 0.549020
0.600000 0.600000 0.600000
0.670588 0.670588 0.670588
0.760784 0.760784 0.760784
0.760784 0.760784 0.760784
0.756863 0.756863 0.756863
0.760784 0.760784 0.760784
0.784314 0.784314 0.784314
0.862745 0.862745 0.862745
0.949020 0.949020 0.949020
0.952941 0.952941 0.952941
0.960784 0.960784 0.960784
0.976471 0.976471 0.976471
1.000000 1.000000 1.000000
