resources/LUTs/Black and White/18.cube
TITLE "B&W Preset #18"
#LUT size
LUT_3D_SIZE 9
#LUT data points
0.000000 0.000000 0.000000
0.023529 0.023529 0.023529
0.074510 0.074510 0.074510
0.121569 0.121569 0.121569
0.180392 0.180392 0.180392
0.243137 0.243137 0.243137
0.313725 0.313725 0.313725
0.384314 0.384314 0.384314
0.478431 0.478431 0.478431
0.082353 0.082353 0.082353
0.094118 0.094118 0.094118
0.125490 0.125490 0.125490
0.164706 0.164706 0.164706
0.211765 0.211765 0.211765
0.266667 0.266667 0.266667
0.325490 0.325490 0.325490
0.396078 0.396078 0.396078
0.494118 0.494118 0.494118
0.180392 0.180392 0.180392
0.180392 0.180392 0.180392
0.203922 0.203922 0.203922
0.235294 0.235294 0.235294
0.270588 0.270588 0.270588
0.321569 0.321569 0.321569
0.372549 0.372549 0.372549
0.443137 0.443137 0.443137
0.533333 0.533333 0.533333
0.286275 0.286275 0.286275
0.290196 0.290196 0.290196
0.301961 0.301961 0.301961
0.317647 0.317647 0.317647
0.356863 0.356863 0.356863
0.388235 0.388235 0.388235
0.431373 0.431373 0.431373
0.505882 0.505882 0.505882
0.592157 0.592157 0.592157
0.392157 0.392157 0.392157
0.396078 0.396078 0.396078
0.400000 0.400000 0.400000
0.415686 0.415686 0.415686
0.435294 0.435294 0.435294
0.478431 0.478431 0.478431
0.525490 0.525490 0.525490
0.584314 0.584314 0.584314
0.662745 0.662745 0.662745
0.513725 0.513725 0.513725
0.517647 0.517647 0.517647
0.517647 0.517647 0.517647
0.529412 0.529412 0.529412
0.549020 0.549020 0.549020
0.568627 0.568627 0.568627
0.623529 0.623529 0.623529
0.678431 0.678431 0.678431
0.745098 0.745098 0.745098
0.647059 0.647059 0.647059
0.643137 0.643137 0.643137
0.650980 0.650980 0.650980
0.658824 0.658824 0.658824
0.670588 0.670588 0.670588
0.686275 0.686275 0.686275
0.705882 0.705882 0.705882
0.756863 0.756863 0.756863
0.811765 0.811765 0.811765
0.776471 0.776471 0.776471
0.776471 0.776471 0.776471
0.780392 0.780392 0.780392
0.788235 0.788235 0.788235
0.796078 0.796078 0.796078
0.807843 0.807843 0.807843
0.823529 0.823529 0.823529
0.835294 0.835294 0.835294
0.874510 0.874510 0.874510
0.905882 0.905882 0.905882
0.905882 0.905882 0.905882
0.905882 0.905882 0.905882
0.913725 0.913725 0.913725
0.917647 0.917647 0.917647
0.925490 0.925490 0.925490
0.937255 0.937255 0.937255
0.956863 0.956863 0.956863
0.976471 0.976471 0.976471
0.019608 0.019608 0.019608
0.031373 0.031373 0.031373
0.090196 0.090196 0.090196
0.141176 0.141176 0.141176
0.200000 0.200000 0.200000
0.258824 0.258824 0.258824
0.325490 0.325490 0.325490
0.392157 0.392157 0.392157
0.482353 0.482353 0.482353
0.082353 0.082353 0.082353
0.105882 0.105882 0.105882
0.133333 0.133333 0.133333
0.176471 0.176471 0.176471
0.223529 0.223529 0.223529
0.278431 0.278431 0.278431
0.337255 0.337255 0.337255
0.411765 0.411765 0.411765
0.501961 0.501961 0.501961
0.188235 0.188235 0.188235
0.196078 0.196078 0.196078
0.207843 0.207843 0.207843
0.235294 0.235294 0.235294
0.278431 0.278431 0.278431
0.321569 0.321569 0.321569
0.372549 0.372549 0.372549
0.443137 0.443137 0.443137
0.537255 0.537255 0.537255
0.290196 0.290196 0.290196
0.294118 0.294118 0.294118
0.301961 0.301961 0.301961
0.317647 0.317647 0.317647
0.360784 0.360784 0.360784
0.396078 0.396078 0.396078
0.447059 0.447059 0.447059
0.517647 0.517647 0.517647
0.603922 0.603922 0.603922
0.400000 0.400000 0.400000
0.396078 0.396078 0.396078
0.403922 0.403922 0.403922
0.419608 0.419608 0.419608
0.439216 0.439216 0.439216
0.482353 0.482353 0.482353
0.529412 0.529412 0.529412
0.588235 0.588235 0.588235
0.662745 0.662745 0.662745
0.513725 0.513725 0.513725
0.513725 0.513725 0.513725
0.521569 0.521569 0.521569
0.529412 0.529412 0.529412
0.545098 0.545098 0.545098
0.568627 0.568627 0.568627
0.623529 0.623529 0.623529
0.674510 0.674510 0.674510
0.737255 0.737255 0.737255
0.643137 0.643137 0.643137
0.647059 0.647059 0.647059
0.650980 0.650980 0.650980
0.654902 0.654902 0.654902
0.670588 0.670588 0.670588
0.686275 0.686275 0.686275
0.713725 0.713725 0.713725
0.756863 0.756863 0.756863
0.815686 0.815686 0.815686
0.776471 0.776471 0.776471
0.780392 0.780392 0.780392
0.780392 0.780392 0.780392
0.784314 0.784314 0.784314
0.788235 0.788235 0.788235
0.807843 0.807843 0.807843
0.819608 0.819608 0.819608
0.831373 0.831373 0.831373
0.870588 0.870588 0.870588
0.905882 0.905882 0.905882
0.898039 0.898039 0.898039
0.905882 0.905882 0.905882
0.909804 0.909804 0.909804
0.917647 0.917647 0.917647
0.929412 0.929412 0.929412
0.949020 0.949020 0.949020
0.956863 0.956863 0.956863
0.976471 0.976471 0.976471
0.043137 0.043137 0.043137
0.058824 0.058824 0.058824
0.086275 0.086275 0.086275
0.145098 0.145098 0.145098
0.207843 0.207843 0.207843
0.270588 0.270588 0.270588
0.329412 0.329412 0.329412
0.403922 0.403922 0.403922
0.494118 0.494118 0.494118
0.109804 0.109804 0.109804
0.125490 0.125490 0.125490
0.141176 0.141176 0.141176
0.184314 0.184314 0.184314
0.235294 0.235294 0.235294
0.290196 0.290196 0.290196
0.349020 0.349020 0.349020
0.423529 0.423529 0.423529
0.505882 0.505882 0.505882
0.176471 0.176471 0.176471
0.192157 0.192157 0.192157
0.215686 0.215686 0.215686
0.247059 0.247059 0.247059
0.286275 0.286275 0.286275
0.333333 0.333333 0.333333
0.384314 0.384314 0.384314
0.450980 0.450980 0.450980
0.541176 0.541176 0.541176
0.294118 0.294118 0.294118
0.298039 0.298039 0.298039
0.317647 0.317647 0.317647
0.325490 0.325490 0.325490
0.360784 0.360784 0.360784
0.400000 0.400000 0.400000
0.454902 0.454902 0.454902
0.517647 0.517647 0.517647
0.607843 0.607843 0.607843
0.407843 0.407843 0.407843
0.403922 0.403922 0.403922
0.411765 0.411765 0.411765
0.423529 0.423529 0.423529
0.443137 0.443137 0.443137
0.482353 0.482353 0.482353
0.533333 0.533333 0.533333
0.592157 0.592157 0.592157
0.658824 0.658824 0.658824
0.521569 0.521569 0.521569
0.521569 0.521569 0.521569
0.525490 0.525490 0.525490
0.533333 0.533333 0.533333
0.549020 0.549020 0.549020
0.572549 0.572549 0.572549
0.623529 0.623529 0.623529
0.678431 0.678431 0.678431
0.741176 0.741176 0.741176
0.647059 0.647059 0.647059
0.647059 0.647059 0.647059
0.654902 0.654902 0.654902
0.658824 0.658824 0.658824
0.674510 0.674510 0.674510
0.690196 0.690196 0.690196
0.717647 0.717647 0.717647
0.768627 0.768627 0.768627
0.811765 0.811765 0.811765
0.780392 0.780392 0.780392
0.780392 0.780392 0.780392
0.780392 0.780392 0.780392
0.788235 0.788235 0.788235
0.796078 0.796078 0.796078
0.807843 0.807843 0.807843
0.819608 0.819608 0.819608
0.835294 0.835294 0.835294
0.874510 0.874510 0.874510
0.905882 0.905882 0.905882
0.905882 0.905882 0.905882
0.909804 0.909804 0.909804
0.913725 0.913725 0.913725
0.917647 0.917647 0.917647
0.929412 0.929412 0.929412
0.941176 0.941176 0.941176
0.956863 0.956863 0.956863
0.976471 0.976471 0.976471
0.082353 0.082353 0.082353
0.094118 0.094118 0.094118
0.117647 0.117647 0.117647
0.152941 0.152941 0.152941
0.207843 0.207843 0.207843
0.274510 0.274510 0.274510
0.337255 0.337255 0.337255
0.411765 0.411765 0.411765
0.498039 0.498039 0.498039
0.145098 0.145098 0.145098
0.149020 0.149020 0.149020
0.164706 0.164706 0.164706
0.188235 0.188235 0.188235
0.235294 0.235294 0.235294
0.294118 0.294118 0.294118
0.356863 0.356863 0.356863
0.427451 0.427451 0.427451
0.509804 0.509804 0.509804
0.196078 0.196078 0.196078
0.207843 0.207843 0.207843
0.239216 0.239216 0.239216
0.254902 0.254902 0.254902
0.294118 0.294118 0.294118
0.333333 0.333333 0.333333
0.396078 0.396078 0.396078
0.462745 0.462745 0.462745
0.545098 0.545098 0.545098
0.274510 0.274510 0.274510
0.286275 0.286275 0.286275
0.305882 0.305882 0.305882
0.337255 0.337255 0.337255
0.368627 0.368627 0.368627
0.411765 0.411765 0.411765
0.462745 0.462745 0.462745
0.525490 0.525490 0.525490
0.603922 0.603922 0.603922
0.403922 0.403922 0.403922
0.411765 0.411765 0.411765
0.423529 0.423529 0.423529
0.431373 0.431373 0.431373
0.450980 0.450980 0.450980
0.490196 0.490196 0.490196
0.537255 0.537255 0.537255
0.592157 0.592157 0.592157
0.666667 0.666667 0.666667
0.525490 0.525490 0.525490
0.529412 0.529412 0.529412
0.537255 0.537255 0.537255
0.545098 0.545098 0.545098
0.560784 0.560784 0.560784
0.580392 0.580392 0.580392
0.627451 0.627451 0.627451
0.678431 0.678431 0.678431
0.741176 0.741176 0.741176
0.650980 0.650980 0.650980
0.658824 0.658824 0.658824
0.658824 0.658824 0.658824
0.666667 0.666667 0.666667
0.678431 0.678431 0.678431
0.694118 0.694118 0.694118
0.717647 0.717647 0.717647
0.768627 0.768627 0.768627
0.819608 0.819608 0.819608
0.784314 0.784314 0.784314
0.784314 0.784314 0.784314
0.784314 0.784314 0.784314
0.792157 0.792157 0.792157
0.796078 0.796078 0.796078
0.807843 0.807843 0.807843
0.823529 0.823529 0.823529
0.839216 0.839216 0.839216
0.882353 0.882353 0.882353
0.905882 0.905882 0.905882
0.901961 0.901961 0.901961
0.909804 0.909804 0.909804
0.913725 0.913725 0.913725
0.917647 0.917647 0.917647
0.929412 0.929412 0.929412
0.941176 0.941176 0.941176
0.956863 0.956863 0.956863
0.984314 0.984314 0.984314
0.129412 0.129412 0.129412
0.133333 0.133333 0.133333
0.156863 0.156863 0.156863
0.184314 0.184314 0.184314
0.219608 0.219608 0.219608
0.266667 0.266667 0.266667
0.341176 0.341176 0.341176
0.415686 0.415686 0.415686
0.505882 0.505882 0.505882
0.176471 0.176471 0.176471
0.184314 0.184314 0.184314
0.196078 0.196078 0.196078
0.215686 0.215686 0.215686
0.247059 0.247059 0.247059
0.290196 0.290196 0.290196
0.364706 0.364706 0.364706
0.435294 0.435294 0.435294
0.521569 0.521569 0.521569
0.239216 0.239216 0.239216
0.254902 0.254902 0.254902
0.258824 0.258824 0.258824
0.278431 0.278431 0.278431
0.298039 0.298039 0.298039
0.337255 0.337255 0.337255
0.400000 0.400000 0.400000
0.466667 0.466667 0.466667
0.552941 0.552941 0.552941
0.290196 0.290196 0.290196
0.301961 0.301961 0.301961
0.321569 0.321569 0.321569
0.356863 0.356863 0.356863
0.372549 0.372549 0.372549
0.415686 0.415686 0.415686
0.466667 0.466667 0.466667
0.529412 0.529412 0.529412
0.603922 0.603922 0.603922
0.384314 0.384314 0.384314
0.392157 0.392157 0.392157
0.403922 0.403922 0.403922
0.427451 0.427451 0.427451
0.462745 0.462745 0.462745
0.494118 0.494118 0.494118
0.541176 0.541176 0.541176
0.596078 0.596078 0.596078
0.662745 0.662745 0.662745
0.521569 0.521569 0.521569
0.525490 0.525490 0.525490
0.533333 0.533333 0.533333
0.549020 0.549020 0.549020
0.568627 0.568627 0.568627
0.584314 0.584314 0.584314
0.631373 0.631373 0.631373
0.682353 0.682353 0.682353
0.745098 0.745098 0.745098
0.654902 0.654902 0.654902
0.658824 0.658824 0.658824
0.666667 0.666667 0.666667
0.674510 0.674510 0.674510
0.686275 0.686275 0.686275
0.698039 0.698039 0.698039
0.721569 0.721569 0.721569
0.768627 0.768627 0.768627
0.819608 0.819608 0.819608
0.788235 0.788235 0.788235
0.784314 0.784314 0.784314
0.788235 0.788235 0.788235
0.792157 0.792157 0.792157
0.800000 0.800000 0.800000
0.815686 0.815686 0.815686
0.827451 0.827451 0.827451
0.843137 0.843137 0.843137
0.890196 0.890196 0.890196
0.905882 0.905882 0.905882
0.905882 0.905882 0.905882
0.909804 0.909804 0.909804
0.913725 0.913725 0.913725
0.921569 0.921569 0.921569
0.929412 0.929412 0.929412
0.941176 0.941176 0.941176
0.960784 0.960784 0.960784
0.984314 0.984314 0.984314
0.180392 0.180392 0.180392
0.188235 0.188235 0.188235
0.203922 0.203922 0.203922
0.219608 0.219608 0.219608
0.250980 0.250980 0.250980
0.282353 0.282353 0.282353
0.333333 0.333333 0.333333
0.423529 0.423529 0.423529
0.513725 0.513725 0.513725
0.219608 0.219608 0.219608
0.223529 0.223529 0.223529
0.231373 0.231373 0.231373
0.250980 0.250980 0.250980
0.274510 0.274510 0.274510
0.309804 0.309804 0.309804
0.356863 0.356863 0.356863
0.443137 0.443137 0.443137
0.545098 0.545098 0.545098
0.278431 0.278431 0.278431
0.282353 0.282353 0.282353
0.290196 0.290196 0.290196
0.305882 0.305882 0.305882
0.325490 0.325490 0.325490
0.352941 0.352941 0.352941
0.400000 0.400000 0.400000
0.474510 0.474510 0.474510
0.560784 0.560784 0.560784
0.333333 0.333333 0.333333
0.349020 0.349020 0.349020
0.368627 0.368627 0.368627
0.380392 0.380392 0.380392
0.400000 0.400000 0.400000
0.423529 0.423529 0.423529
0.466667 0.466667 0.466667
0.545098 0.545098 0.545098
0.623529 0.623529 0.623529
0.403922 0.403922 0.403922
0.403922 0.403922 0.403922
0.423529 0.423529 0.423529
0.447059 0.447059 0.447059
0.486275 0.486275 0.486275
0.501961 0.501961 0.501961
0.545098 0.545098 0.545098
0.607843 0.607843 0.607843
0.666667 0.666667 0.666667
0.498039 0.498039 0.498039
0.501961 0.501961 0.501961
0.513725 0.513725 0.513725
0.533333 0.533333 0.533333
0.560784 0.560784 0.560784
0.596078 0.596078 0.596078
0.639216 0.639216 0.639216
0.682353 0.682353 0.682353
0.741176 0.741176 0.741176
0.654902 0.654902 0.654902
0.654902 0.654902 0.654902
0.662745 0.662745 0.662745
0.674510 0.674510 0.674510
0.694118 0.694118 0.694118
0.713725 0.713725 0.713725
0.737255 0.737255 0.737255
0.780392 0.780392 0.780392
0.823529 0.823529 0.823529
0.784314 0.784314 0.784314
0.784314 0.784314 0.784314
0.788235 0.788235 0.788235
0.796078 0.796078 0.796078
0.807843 0.807843 0.807843
0.815686 0.815686 0.815686
0.831373 0.831373 0.831373
0.847059 0.847059 0.847059
0.894118 0.894118 0.894118
0.913725 0.913725 0.913725
0.913725 0.913725 0.913725
0.913725 0.913725 0.913725
0.921569 0.921569 0.921569
0.925490 0.925490 0.925490
0.937255 0.937255 0.937255
0.949020 0.949020 0.949020
0.964706 0.964706 0.964706
0.988235 0.988235 0.988235
0.239216 0.239216 0.239216
0.247059 0.247059 0.247059
0.254902 0.254902 0.254902
0.274510 0.274510 0.274510
0.301961 0.301961 0.301961
0.325490 0.325490 0.325490
0.364706 0.364706 0.364706
0.411765 0.411765 0.411765
0.513725 0.513725 0.513725
0.270588 0.270588 0.270588
0.274510 0.274510 0.274510
0.282353 0.282353 0.282353
0.298039 0.298039 0.298039
0.317647 0.317647 0.317647
0.349020 0.349020 0.349020
0.384314 0.384314 0.384314
0.431373 0.431373 0.431373
0.537255 0.537255 0.537255
0.321569 0.321569 0.321569
0.325490 0.325490 0.325490
0.333333 0.333333 0.333333
0.345098 0.345098 0.345098
0.364706 0.364706 0.364706
0.380392 0.380392 0.380392
0.419608 0.419608 0.419608
0.466667 0.466667 0.466667
0.564706 0.564706 0.564706
0.400000 0.400000 0.400000
0.403922 0.403922 0.403922
0.411765 0.411765 0.411765
0.423529 0.423529 0.423529
0.439216 0.439216 0.439216
0.458824 0.458824 0.458824
0.490196 0.490196 0.490196
0.537255 0.537255 0.537255
0.623529 0.623529 0.623529
0.431373 0.431373 0.431373
0.439216 0.439216 0.439216
0.458824 0.458824 0.458824
0.498039 0.498039 0.498039
0.517647 0.517647 0.517647
0.537255 0.537255 0.537255
0.556863 0.556863 0.556863
0.603922 0.603922 0.603922
0.682353 0.682353 0.682353
0.525490 0.525490 0.525490
0.533333 0.533333 0.533333
0.541176 0.541176 0.541176
0.556863 0.556863 0.556863
0.576471 0.576471 0.576471
0.623529 0.623529 0.623529
0.647059 0.647059 0.647059
0.686275 0.686275 0.686275
0.745098 0.745098 0.745098
0.631373 0.631373 0.631373
0.635294 0.635294 0.635294
0.643137 0.643137 0.643137
0.658824 0.658824 0.658824
0.682353 0.682353 0.682353
0.709804 0.709804 0.709804
0.745098 0.745098 0.745098
0.780392 0.780392 0.780392
0.823529 0.823529 0.823529
0.780392 0.780392 0.780392
0.784314 0.784314 0.784314
0.784314 0.784314 0.784314
0.788235 0.788235 0.788235
0.807843 0.807843 0.807843
0.827451 0.827451 0.827451
0.839216 0.839216 0.839216
0.858824 0.858824 0.858824
0.898039 0.898039 0.898039
0.913725 0.913725 0.913725
0.909804 0.909804 0.909804
0.909804 0.909804 0.909804
0.921569 0.921569 0.921569
0.929412 0.929412 0.929412
0.941176 0.941176 0.941176
0.956863 0.956863 0.956863
0.968627 0.968627 0.968627
0.996078 0.996078 0.996078
0.313725 0.313725 0.313725
0.321569 0.321569 0.321569
0.329412 0.329412 0.329412
0.341176 0.341176 0.341176
0.364706 0.364706 0.364706
0.392157 0.392157 0.392157
0.423529 0.423529 0.423529
0.466667 0.466667 0.466667
0.525490 0.525490 0.525490
0.341176 0.341176 0.341176
0.345098 0.345098 0.345098
0.349020 0.349020 0.349020
0.364706 0.364706 0.364706
0.388235 0.388235 0.388235
0.411765 0.411765 0.411765
0.443137 0.443137 0.443137
0.490196 0.490196 0.490196
0.537255 0.537255 0.537255
0.396078 0.396078 0.396078
0.392157 0.392157 0.392157
0.396078 0.396078 0.396078
0.407843 0.407843 0.407843
0.427451 0.427451 0.427451
0.450980 0.450980 0.450980
0.478431 0.478431 0.478431
0.517647 0.517647 0.517647
0.564706 0.564706 0.564706
0.454902 0.454902 0.454902
0.462745 0.462745 0.462745
0.466667 0.466667 0.466667
0.474510 0.474510 0.474510
0.494118 0.494118 0.494118
0.513725 0.513725 0.513725
0.541176 0.541176 0.541176
0.576471 0.576471 0.576471
0.619608 0.619608 0.619608
0.509804 0.509804 0.509804
0.517647 0.517647 0.517647
0.533333 0.533333 0.533333
0.552941 0.552941 0.552941
0.568627 0.568627 0.568627
0.580392 0.580392 0.580392
0.611765 0.611765 0.611765
0.635294 0.635294 0.635294
0.674510 0.674510 0.674510
0.564706 0.564706 0.564706
0.568627 0.568627 0.568627
0.576471 0.576471 0.576471
0.596078 0.596078 0.596078
0.639216 0.639216 0.639216
0.666667 0.666667 0.666667
0.682353 0.682353 0.682353
0.705882 0.705882 0.705882
0.745098 0.745098 0.745098
0.678431 0.678431 0.678431
0.678431 0.678431 0.678431
0.678431 0.678431 0.678431
0.694118 0.694118 0.694118
0.709804 0.709804 0.709804
0.733333 0.733333 0.733333
0.772549 0.772549 0.772549
0.792157 0.792157 0.792157
0.831373 0.831373 0.831373
0.768627 0.768627 0.768627
0.768627 0.768627 0.768627
0.772549 0.772549 0.772549
0.780392 0.780392 0.780392
0.792157 0.792157 0.792157
0.811765 0.811765 0.811765
0.839216 0.839216 0.839216
0.870588 0.870588 0.870588
0.909804 0.909804 0.909804
0.905882 0.905882 0.905882
0.909804 0.909804 0.909804
0.913725 0.913725 0.913725
0.917647 0.917647 0.917647
0.925490 0.925490 0.925490
0.941176 0.941176 0.941176
0.956863 0.956863 0.956863
0.976471 0.976471 0.976471
1.000000 1.000000 1.000000
0.443137 0.443137 0.443137
0.447059 0.447059 0.447059
0.454902 0.454902 0.454902
0.466667 0.466667 0.466667
0.490196 0.490196 0.490196
0.517647 0.517647 0.517647
0.549020 0.549020 0.549020
0.584314 0.584314 0.584314
0.627451 0.627451 0.627451
0.474510 0.474510 0.474510
0.470588 0.470588 0.470588
0.478431 0.478431 0.478431
0.494118 0.494118 0.494118
0.513725 0.513725 0.513725
0.537255 0.537255 0.537255
0.568627 0.568627 0.568627
0.596078 0.596078 0.596078
0.643137 0.643137 0.643137
0.509804 0.509804 0.509804
0.509804 0.509804 0.509804
0.513725 0.513725 0.513725
0.525490 0.525490 0.525490
0.541176 0.541176 0.541176
0.568627 0.568627 0.568627
0.592157 0.592157 0.592157
0.623529 0.623529 0.623529
0.662745 0.662745 0.662745
0.572549 0.572549 0.572549
0.568627 0.568627 0.568627
0.576471 0.576471 0.576471
0.588235 0.588235 0.588235
0.603922 0.603922 0.603922
0.619608 0.619608 0.619608
0.643137 0.643137 0.643137
0.666667 0.666667 0.666667
0.701961 0.701961 0.701961
0.627451 0.627451 0.627451
0.631373 0.631373 0.631373
0.635294 0.635294 0.635294
0.643137 0.643137 0.643137
0.654902 0.654902 0.654902
0.674510 0.674510 0.674510
0.690196 0.690196 0.690196
0.709804 0.709804 0.709804
0.737255 0.737255 0.737255
0.650980 0.650980 0.650980
0.654902 0.654902 0.654902
0.670588 0.670588 0.670588
0.690196 0.690196 0.690196
0.721569 0.721569 0.721569
0.729412 0.729412 0.729412
0.752941 0.752941 0.752941
0.768627 0.768627 0.768627
0.788235 0.788235 0.788235
0.745098 0.745098 0.745098
0.737255 0.737255 0.737255
0.741176 0.741176 0.741176
0.745098 0.745098 0.745098
0.756863 0.756863 0.756863
0.792157 0.792157 0.792157
0.815686 0.815686 0.815686
0.835294 0.835294 0.835294
0.854902 0.854902 0.854902
0.835294 0.835294 0.835294
0.831373 0.831373 0.831373
0.835294 0.835294 0.835294
0.839216 0.839216 0.839216
0.850980 0.850980 0.850980
0.858824 0.858824 0.858824
0.870588 0.870588 0.870588
0.901961 0.901961 0.901961
0.921569 0.921569 0.921569
0.925490 0.925490 0.925490
0.917647 0.917647 0.917647
0.921569 0.921569 0.921569
0.929412 0.929412 0.929412
0.937255 0.937255 0.937255
0.945098 0.945098 0.945098
0.960784 0.960784 0.960784
0.976471 0.976471 0.976471
1.000000 1.000000 1.000000
