resources/LUTs/Black and White/18.cube
TITLE "B&W Preset #18"
#LUT size
LUT_3D_SIZE 25
#LUT data points
0.000000 0.000000 0.000000
0.003922 0.003922 0.003922
0.015686 0.015686 0.015686
0.023529 0.023529 0.023529
0.047059 0.047059 0.047059
0.058824 0.058824 0.058824
0.074510 0.074510 0.074510
0.086275 0.086275 0.086275
0.105882 0.105882 0.105882
0.121569 0.121569 0.121569
0.145098 0.145098 0.145098
0.160784 0.160784 0.160784
0.180392 0.180392 0.180392
0.203922 0.203922 0.203922
0.223529 0.223529 0.223529
0.243137 0.243137 0.243137
0.262745 0.262745 0.262745
0.282353 0.282353 0.282353
0.313725 0.313725 0.313725
0.329412 0.329412 0.329412
0.352941 0.352941 0.352941
0.384314 0.384314 0.384314
0.415686 0.415686 0.415686
0.447059 0.447059 0.447059
0.478431 0.478431 0.478431
0.023529 0.023529 0.023529
0.027451 0.027451 0.027451
0.035294 0.035294 0.035294
0.050980 0.050980 0.050980
0.058824 0.058824 0.058824
0.070588 0.070588 0.070588
0.086275 0.086275 0.086275
0.094118 0.094118 0.094118
0.109804 0.109804 0.109804
0.133333 0.133333 0.133333
0.152941 0.152941 0.152941
0.168627 0.168627 0.168627
0.188235 0.188235 0.188235
0.207843 0.207843 0.207843
0.231373 0.231373 0.231373
0.250980 0.250980 0.250980
0.270588 0.270588 0.270588
0.290196 0.290196 0.290196
0.313725 0.313725 0.313725
0.337255 0.337255 0.337255
0.364706 0.364706 0.364706
0.388235 0.388235 0.388235
0.415686 0.415686 0.415686
0.447059 0.447059 0.447059
0.482353 0.482353 0.482353
0.050980 0.050980 0.050980
0.054902 0.054902 0.054902
0.054902 0.054902 0.054902
0.070588 0.070588 0.070588
0.082353 0.082353 0.082353
0.090196 0.090196 0.090196
0.101961 0.101961 0.101961
0.113725 0.113725 0.113725
0.129412 0.129412 0.129412
0.145098 0.145098 0.145098
0.160784 0.160784 0.160784
0.180392 0.180392 0.180392
0.200000 0.200000 0.200000
0.215686 0.215686 0.215686
0.235294 0.235294 0.235294
0.258824 0.258824 0.258824
0.270588 0.270588 0.270588
0.294118 0.294118 0.294118
0.317647 0.317647 0.317647
0.341176 0.341176 0.341176
0.364706 0.364706 0.364706
0.392157 0.392157 0.392157
0.419608 0.419608 0.419608
0.454902 0.454902 0.454902
0.490196 0.490196 0.490196
0.082353 0.082353 0.082353
0.086275 0.086275 0.086275
0.086275 0.086275 0.086275
0.094118 0.094118 0.094118
0.105882 0.105882 0.105882
0.117647 0.117647 0.117647
0.125490 0.125490 0.125490
0.137255 0.137255 0.137255
0.145098 0.145098 0.145098
0.164706 0.164706 0.164706
0.184314 0.184314 0.184314
0.196078 0.196078 0.196078
0.211765 0.211765 0.211765
0.227451 0.227451 0.227451
0.250980 0.250980 0.250980
0.266667 0.266667 0.266667
0.286275 0.286275 0.286275
0.305882 0.305882 0.305882
0.325490 0.325490 0.325490
0.349020 0.349020 0.349020
0.372549 0.372549 0.372549
0.396078 0.396078 0.396078
0.427451 0.427451 0.427451
0.458824 0.458824 0.458824
0.494118 0.494118 0.494118
0.113725 0.113725 0.113725
0.117647 0.117647 0.117647
0.117647 0.117647 0.117647
0.125490 0.125490 0.125490
0.129412 0.129412 0.129412
0.145098 0.145098 0.145098
0.149020 0.149020 0.149020
0.160784 0.160784 0.160784
0.172549 0.172549 0.172549
0.188235 0.188235 0.188235
0.196078 0.196078 0.196078
0.211765 0.211765 0.211765
0.231373 0.231373 0.231373
0.247059 0.247059 0.247059
0.262745 0.262745 0.262745
0.278431 0.278431 0.278431
0.298039 0.298039 0.298039
0.317647 0.317647 0.317647
0.337255 0.337255 0.337255
0.360784 0.360784 0.360784
0.384314 0.384314 0.384314
0.411765 0.411765 0.411765
0.439216 0.439216 0.439216
0.474510 0.474510 0.474510
0.505882 0.505882 0.505882
0.149020 0.149020 0.149020
0.149020 0.149020 0.149020
0.152941 0.152941 0.152941
0.156863 0.156863 0.156863
0.160784 0.160784 0.160784
0.168627 0.168627 0.168627
0.180392 0.180392 0.180392
0.192157 0.192157 0.192157
0.200000 0.200000 0.200000
0.207843 0.207843 0.207843
0.223529 0.223529 0.223529
0.235294 0.235294 0.235294
0.250980 0.250980 0.250980
0.266667 0.266667 0.266667
0.282353 0.282353 0.282353
0.301961 0.301961 0.301961
0.317647 0.317647 0.317647
0.333333 0.333333 0.333333
0.349020 0.349020 0.349020
0.372549 0.372549 0.372549
0.400000 0.400000 0.400000
0.419608 0.419608 0.419608
0.450980 0.450980 0.450980
0.486275 0.486275 0.486275
0.521569 0.521569 0.521569
0.180392 0.180392 0.180392
0.184314 0.184314 0.184314
0.184314 0.184314 0.184314
0.180392 0.180392 0.180392
0.196078 0.196078 0.196078
0.192157 0.192157 0.192157
0.203922 0.203922 0.203922
0.219608 0.219608 0.219608
0.231373 0.231373 0.231373
0.235294 0.235294 0.235294
0.247059 0.247059 0.247059
0.262745 0.262745 0.262745
0.270588 0.270588 0.270588
0.286275 0.286275 0.286275
0.301961 0.301961 0.301961
0.321569 0.321569 0.321569
0.333333 0.333333 0.333333
0.352941 0.352941 0.352941
0.372549 0.372549 0.372549
0.388235 0.388235 0.388235
0.411765 0.411765 0.411765
0.443137 0.443137 0.443137
0.466667 0.466667 0.466667
0.498039 0.498039 0.498039
0.533333 0.533333 0.533333
0.219608 0.219608 0.219608
0.215686 0.215686 0.215686
0.219608 0.219608 0.219608
0.223529 0.223529 0.223529
0.223529 0.223529 0.223529
0.227451 0.227451 0.227451
0.231373 0.231373 0.231373
0.243137 0.243137 0.243137
0.254902 0.254902 0.254902
0.266667 0.266667 0.266667
0.278431 0.278431 0.278431
0.286275 0.286275 0.286275
0.298039 0.298039 0.298039
0.309804 0.309804 0.309804
0.321569 0.321569 0.321569
0.341176 0.341176 0.341176
0.352941 0.352941 0.352941
0.372549 0.372549 0.372549
0.388235 0.388235 0.388235
0.407843 0.407843 0.407843
0.431373 0.431373 0.431373
0.458824 0.458824 0.458824
0.486275 0.486275 0.486275
0.517647 0.517647 0.517647
0.549020 0.549020 0.549020
0.247059 0.247059 0.247059
0.250980 0.250980 0.250980
0.254902 0.254902 0.254902
0.254902 0.254902 0.254902
0.258824 0.258824 0.258824
0.258824 0.258824 0.258824
0.266667 0.266667 0.266667
0.274510 0.274510 0.274510
0.278431 0.278431 0.278431
0.290196 0.290196 0.290196
0.305882 0.305882 0.305882
0.313725 0.313725 0.313725
0.325490 0.325490 0.325490
0.345098 0.345098 0.345098
0.349020 0.349020 0.349020
0.360784 0.360784 0.360784
0.380392 0.380392 0.380392
0.392157 0.392157 0.392157
0.411765 0.411765 0.411765
0.431373 0.431373 0.431373
0.450980 0.450980 0.450980
0.478431 0.478431 0.478431
0.505882 0.505882 0.505882
0.533333 0.533333 0.533333
0.560784 0.560784 0.560784
0.286275 0.286275 0.286275
0.286275 0.286275 0.286275
0.286275 0.286275 0.286275
0.290196 0.290196 0.290196
0.290196 0.290196 0.290196
0.301961 0.301961 0.301961
0.301961 0.301961 0.301961
0.305882 0.305882 0.305882
0.309804 0.309804 0.309804
0.317647 0.317647 0.317647
0.325490 0.325490 0.325490
0.345098 0.345098 0.345098
0.356863 0.356863 0.356863
0.364706 0.364706 0.364706
0.376471 0.376471 0.376471
0.388235 0.388235 0.388235
0.403922 0.403922 0.403922
0.415686 0.415686 0.415686
0.431373 0.431373 0.431373
0.454902 0.454902 0.454902
0.478431 0.478431 0.478431
0.505882 0.505882 0.505882
0.529412 0.529412 0.529412
0.560784 0.560784 0.560784
0.592157 0.592157 0.592157
0.321569 0.321569 0.321569
0.321569 0.321569 0.321569
0.325490 0.325490 0.325490
0.325490 0.325490 0.325490
0.321569 0.321569 0.321569
0.325490 0.325490 0.325490
0.333333 0.333333 0.333333
0.341176 0.341176 0.341176
0.345098 0.345098 0.345098
0.349020 0.349020 0.349020
0.356863 0.356863 0.356863
0.368627 0.368627 0.368627
0.388235 0.388235 0.388235
0.396078 0.396078 0.396078
0.407843 0.407843 0.407843
0.419608 0.419608 0.419608
0.431373 0.431373 0.431373
0.447059 0.447059 0.447059
0.462745 0.462745 0.462745
0.482353 0.482353 0.482353
0.505882 0.505882 0.505882
0.529412 0.529412 0.529412
0.560784 0.560784 0.560784
0.584314 0.584314 0.584314
0.615686 0.615686 0.615686
0.360784 0.360784 0.360784
0.352941 0.352941 0.352941
0.356863 0.356863 0.356863
0.364706 0.364706 0.364706
0.360784 0.360784 0.360784
0.364706 0.364706 0.364706
0.368627 0.368627 0.368627
0.364706 0.364706 0.364706
0.380392 0.380392 0.380392
0.384314 0.384314 0.384314
0.392157 0.392157 0.392157
0.396078 0.396078 0.396078
0.403922 0.403922 0.403922
0.423529 0.423529 0.423529
0.439216 0.439216 0.439216
0.450980 0.450980 0.450980
0.462745 0.462745 0.462745
0.474510 0.474510 0.474510
0.494118 0.494118 0.494118
0.509804 0.509804 0.509804
0.533333 0.533333 0.533333
0.552941 0.552941 0.552941
0.576471 0.576471 0.576471
0.607843 0.607843 0.607843
0.635294 0.635294 0.635294
0.392157 0.392157 0.392157
0.388235 0.388235 0.388235
0.392157 0.392157 0.392157
0.396078 0.396078 0.396078
0.400000 0.400000 0.400000
0.400000 0.400000 0.400000
0.400000 0.400000 0.400000
0.407843 0.407843 0.407843
0.411765 0.411765 0.411765
0.415686 0.415686 0.415686
0.419608 0.419608 0.419608
0.427451 0.427451 0.427451
0.435294 0.435294 0.435294
0.443137 0.443137 0.443137
0.466667 0.466667 0.466667
0.478431 0.478431 0.478431
0.494118 0.494118 0.494118
0.505882 0.505882 0.505882
0.525490 0.525490 0.525490
0.541176 0.541176 0.541176
0.564706 0.564706 0.564706
0.584314 0.584314 0.584314
0.607843 0.607843 0.607843
0.635294 0.635294 0.635294
0.662745 0.662745 0.662745
0.423529 0.423529 0.423529
0.431373 0.431373 0.431373
0.431373 0.431373 0.431373
0.435294 0.435294 0.435294
0.435294 0.435294 0.435294
0.435294 0.435294 0.435294
0.439216 0.439216 0.439216
0.443137 0.443137 0.443137
0.443137 0.443137 0.443137
0.450980 0.450980 0.450980
0.458824 0.458824 0.458824
0.458824 0.458824 0.458824
0.466667 0.466667 0.466667
0.474510 0.474510 0.474510
0.482353 0.482353 0.482353
0.509804 0.509804 0.509804
0.529412 0.529412 0.529412
0.541176 0.541176 0.541176
0.556863 0.556863 0.556863
0.572549 0.572549 0.572549
0.592157 0.592157 0.592157
0.611765 0.611765 0.611765
0.639216 0.639216 0.639216
0.654902 0.654902 0.654902
0.690196 0.690196 0.690196
0.462745 0.462745 0.462745
0.474510 0.474510 0.474510
0.466667 0.466667 0.466667
0.466667 0.466667 0.466667
0.470588 0.470588 0.470588
0.474510 0.474510 0.474510
0.474510 0.474510 0.474510
0.482353 0.482353 0.482353
0.482353 0.482353 0.482353
0.486275 0.486275 0.486275
0.494118 0.494118 0.494118
0.501961 0.501961 0.501961
0.505882 0.505882 0.505882
0.513725 0.513725 0.513725
0.517647 0.517647 0.517647
0.529412 0.529412 0.529412
0.549020 0.549020 0.549020
0.572549 0.572549 0.572549
0.588235 0.588235 0.588235
0.600000 0.600000 0.600000
0.627451 0.627451 0.627451
0.647059 0.647059 0.647059
0.666667 0.666667 0.666667
0.690196 0.690196 0.690196
0.713725 0.713725 0.713725
0.513725 0.513725 0.513725
0.513725 0.513725 0.513725
0.513725 0.513725 0.513725
0.517647 0.517647 0.517647
0.513725 0.513725 0.513725
0.517647 0.517647 0.517647
0.517647 0.517647 0.517647
0.517647 0.517647 0.517647
0.525490 0.525490 0.525490
0.529412 0.529412 0.529412
0.537255 0.537255 0.537255
0.537255 0.537255 0.537255
0.549020 0.549020 0.549020
0.552941 0.552941 0.552941
0.560784 0.560784 0.560784
0.568627 0.568627 0.568627
0.576471 0.576471 0.576471
0.596078 0.596078 0.596078
0.623529 0.623529 0.623529
0.639216 0.639216 0.639216
0.654902 0.654902 0.654902
0.678431 0.678431 0.678431
0.694118 0.694118 0.694118
0.713725 0.713725 0.713725
0.745098 0.745098 0.745098
0.549020 0.549020 0.549020
0.552941 0.552941 0.552941
0.556863 0.556863 0.556863
0.560784 0.560784 0.560784
0.552941 0.552941 0.552941
0.560784 0.560784 0.560784
0.560784 0.560784 0.560784
0.564706 0.564706 0.564706
0.568627 0.568627 0.568627
0.572549 0.572549 0.572549
0.576471 0.576471 0.576471
0.580392 0.580392 0.580392
0.584314 0.584314 0.584314
0.600000 0.600000 0.600000
0.600000 0.600000 0.600000
0.611765 0.611765 0.611765
0.615686 0.615686 0.615686
0.623529 0.623529 0.623529
0.639216 0.639216 0.639216
0.662745 0.662745 0.662745
0.686275 0.686275 0.686275
0.701961 0.701961 0.701961
0.721569 0.721569 0.721569
0.737255 0.737255 0.737255
0.760784 0.760784 0.760784
0.600000 0.600000 0.600000
0.603922 0.603922 0.603922
0.600000 0.600000 0.600000
0.600000 0.600000 0.600000
0.607843 0.607843 0.607843
0.603922 0.603922 0.603922
0.603922 0.603922 0.603922
0.607843 0.607843 0.607843
0.611765 0.611765 0.611765
0.611765 0.611765 0.611765
0.615686 0.615686 0.615686
0.623529 0.623529 0.623529
0.627451 0.627451 0.627451
0.631373 0.631373 0.631373
0.639216 0.639216 0.639216
0.647059 0.647059 0.647059
0.658824 0.658824 0.658824
0.658824 0.658824 0.658824
0.670588 0.670588 0.670588
0.686275 0.686275 0.686275
0.713725 0.713725 0.713725
0.729412 0.729412 0.729412
0.749020 0.749020 0.749020
0.764706 0.764706 0.764706
0.788235 0.788235 0.788235
0.647059 0.647059 0.647059
0.650980 0.650980 0.650980
0.647059 0.647059 0.647059
0.643137 0.643137 0.643137
0.647059 0.647059 0.647059
0.647059 0.647059 0.647059
0.650980 0.650980 0.650980
0.650980 0.650980 0.650980
0.654902 0.654902 0.654902
0.658824 0.658824 0.658824
0.662745 0.662745 0.662745
0.662745 0.662745 0.662745
0.670588 0.670588 0.670588
0.678431 0.678431 0.678431
0.678431 0.678431 0.678431
0.686275 0.686275 0.686275
0.694118 0.694118 0.694118
0.701961 0.701961 0.701961
0.705882 0.705882 0.705882
0.713725 0.713725 0.713725
0.721569 0.721569 0.721569
0.756863 0.756863 0.756863
0.772549 0.772549 0.772549
0.792157 0.792157 0.792157
0.811765 0.811765 0.811765
0.694118 0.694118 0.694118
0.690196 0.690196 0.690196
0.690196 0.690196 0.690196
0.686275 0.686275 0.686275
0.694118 0.694118 0.694118
0.694118 0.694118 0.694118
0.694118 0.694118 0.694118
0.698039 0.698039 0.698039
0.698039 0.698039 0.698039
0.705882 0.705882 0.705882
0.705882 0.705882 0.705882
0.705882 0.705882 0.705882
0.713725 0.713725 0.713725
0.713725 0.713725 0.713725
0.717647 0.717647 0.717647
0.725490 0.725490 0.725490
0.729412 0.729412 0.729412
0.737255 0.737255 0.737255
0.745098 0.745098 0.745098
0.756863 0.756863 0.756863
0.756863 0.756863 0.756863
0.772549 0.772549 0.772549
0.796078 0.796078 0.796078
0.815686 0.815686 0.815686
0.835294 0.835294 0.835294
0.733333 0.733333 0.733333
0.737255 0.737255 0.737255
0.733333 0.733333 0.733333
0.733333 0.733333 0.733333
0.733333 0.733333 0.733333
0.741176 0.741176 0.741176
0.737255 0.737255 0.737255
0.745098 0.745098 0.745098
0.741176 0.741176 0.741176
0.741176 0.741176 0.741176
0.749020 0.749020 0.749020
0.749020 0.749020 0.749020
0.756863 0.756863 0.756863
0.760784 0.760784 0.760784
0.764706 0.764706 0.764706
0.764706 0.764706 0.764706
0.772549 0.772549 0.772549
0.776471 0.776471 0.776471
0.784314 0.784314 0.784314
0.788235 0.788235 0.788235
0.796078 0.796078 0.796078
0.800000 0.800000 0.800000
0.807843 0.807843 0.807843
0.835294 0.835294 0.835294
0.854902 0.854902 0.854902
0.776471 0.776471 0.776471
0.776471 0.776471 0.776471
0.776471 0.776471 0.776471
0.776471 0.776471 0.776471
0.780392 0.780392 0.780392
0.780392 0.780392 0.780392
0.780392 0.780392 0.780392
0.784314 0.784314 0.784314
0.784314 0.784314 0.784314
0.788235 0.788235 0.788235
0.788235 0.788235 0.788235
0.788235 0.788235 0.788235
0.796078 0.796078 0.796078
0.800000 0.800000 0.800000
0.800000 0.800000 0.800000
0.807843 0.807843 0.807843
0.807843 0.807843 0.807843
0.811765 0.811765 0.811765
0.823529 0.823529 0.823529
0.827451 0.827451 0.827451
0.831373 0.831373 0.831373
0.835294 0.835294 0.835294
0.843137 0.843137 0.843137
0.854902 0.854902 0.854902
0.874510 0.874510 0.874510
0.815686 0.815686 0.815686
0.819608 0.819608 0.819608
0.819608 0.819608 0.819608
0.823529 0.823529 0.823529
0.819608 0.819608 0.819608
0.823529 0.823529 0.823529
0.823529 0.823529 0.823529
0.823529 0.823529 0.823529
0.827451 0.827451 0.827451
0.827451 0.827451 0.827451
0.827451 0.827451 0.827451
0.831373 0.831373 0.831373
0.835294 0.835294 0.835294
0.839216 0.839216 0.839216
0.839216 0.839216 0.839216
0.843137 0.843137 0.843137
0.850980 0.850980 0.850980
0.850980 0.850980 0.850980
0.858824 0.858824 0.858824
0.862745 0.862745 0.862745
0.870588 0.870588 0.870588
0.870588 0.870588 0.870588
0.878431 0.878431 0.878431
0.890196 0.890196 0.890196
0.894118 0.894118 0.894118
0.858824 0.858824 0.858824
0.854902 0.854902 0.854902
0.862745 0.862745 0.862745
0.858824 0.858824 0.858824
0.862745 0.862745 0.862745
0.862745 0.862745 0.862745
0.862745 0.862745 0.862745
0.862745 0.862745 0.862745
0.866667 0.866667 0.866667
0.870588 0.870588 0.870588
0.870588 0.870588 0.870588
0.870588 0.870588 0.870588
0.874510 0.874510 0.874510
0.870588 0.870588 0.870588
0.882353 0.882353 0.882353
0.882353 0.882353 0.882353
0.886275 0.886275 0.886275
0.894118 0.894118 0.894118
0.894118 0.894118 0.894118
0.901961 0.901961 0.901961
0.905882 0.905882 0.905882
0.909804 0.909804 0.909804
0.917647 0.917647 0.917647
0.921569 0.921569 0.921569
0.921569 0.921569 0.921569
0.905882 0.905882 0.905882
0.898039 0.898039 0.898039
0.901961 0.901961 0.901961
0.905882 0.905882 0.905882
0.901961 0.901961 0.901961
0.905882 0.905882 0.905882
0.905882 0.905882 0.905882
0.905882 0.905882 0.905882
0.905882 0.905882 0.905882
0.913725 0.913725 0.913725
0.913725 0.913725 0.913725
0.913725 0.913725 0.913725
0.917647 0.917647 0.917647
0.917647 0.917647 0.917647
0.921569 0.921569 0.921569
0.925490 0.925490 0.925490
0.929412 0.929412 0.929412
0.933333 0.933333 0.933333
0.937255 0.937255 0.937255
0.945098 0.945098 0.945098
0.952941 0.952941 0.952941
0.956863 0.956863 0.956863
0.960784 0.960784 0.960784
0.964706 0.964706 0.964706
0.976471 0.976471 0.976471
0.003922 0.003922 0.003922
0.011765 0.011765 0.011765
0.015686 0.015686 0.015686
0.027451 0.027451 0.027451
0.043137 0.043137 0.043137
0.062745 0.062745 0.062745
0.082353 0.082353 0.082353
0.098039 0.098039 0.098039
0.117647 0.117647 0.117647
0.129412 0.129412 0.129412
0.152941 0.152941 0.152941
0.172549 0.172549 0.172549
0.188235 0.188235 0.188235
0.207843 0.207843 0.207843
0.231373 0.231373 0.231373
0.247059 0.247059 0.247059
0.270588 0.270588 0.270588
0.290196 0.290196 0.290196
0.309804 0.309804 0.309804
0.337255 0.337255 0.337255
0.360784 0.360784 0.360784
0.384314 0.384314 0.384314
0.415686 0.415686 0.415686
0.447059 0.447059 0.447059
0.482353 0.482353 0.482353
0.023529 0.023529 0.023529
0.027451 0.027451 0.027451
0.039216 0.039216 0.039216
0.054902 0.054902 0.054902
0.062745 0.062745 0.062745
0.078431 0.078431 0.078431
0.090196 0.090196 0.090196
0.105882 0.105882 0.105882
0.121569 0.121569 0.121569
0.141176 0.141176 0.141176
0.156863 0.156863 0.156863
0.176471 0.176471 0.176471
0.196078 0.196078 0.196078
0.215686 0.215686 0.215686
0.235294 0.235294 0.235294
0.258824 0.258824 0.258824
0.274510 0.274510 0.274510
0.294118 0.294118 0.294118
0.317647 0.317647 0.317647
0.337255 0.337255 0.337255
0.364706 0.364706 0.364706
0.392157 0.392157 0.392157
0.419608 0.419608 0.419608
0.443137 0.443137 0.443137
0.490196 0.490196 0.490196
0.050980 0.050980 0.050980
0.062745 0.062745 0.062745
0.066667 0.066667 0.066667
0.074510 0.074510 0.074510
0.082353 0.082353 0.082353
0.098039 0.098039 0.098039
0.109804 0.109804 0.109804
0.117647 0.117647 0.117647
0.133333 0.133333 0.133333
0.152941 0.152941 0.152941
0.168627 0.168627 0.168627
0.184314 0.184314 0.184314
0.203922 0.203922 0.203922
0.223529 0.223529 0.223529
0.239216 0.239216 0.239216
0.258824 0.258824 0.258824
0.282353 0.282353 0.282353
0.301961 0.301961 0.301961
0.325490 0.325490 0.325490
0.345098 0.345098 0.345098
0.372549 0.372549 0.372549
0.396078 0.396078 0.396078
0.423529 0.423529 0.423529
0.450980 0.450980 0.450980
0.486275 0.486275 0.486275
0.090196 0.090196 0.090196
0.086275 0.086275 0.086275
0.094118 0.094118 0.094118
0.094118 0.094118 0.094118
0.105882 0.105882 0.105882
0.117647 0.117647 0.117647
0.129412 0.129412 0.129412
0.141176 0.141176 0.141176
0.152941 0.152941 0.152941
0.164706 0.164706 0.164706
0.180392 0.180392 0.180392
0.196078 0.196078 0.196078
0.211765 0.211765 0.211765
0.235294 0.235294 0.235294
0.254902 0.254902 0.254902
0.270588 0.270588 0.270588
0.286275 0.286275 0.286275
0.309804 0.309804 0.309804
0.325490 0.325490 0.325490
0.356863 0.356863 0.356863
0.376471 0.376471 0.376471
0.400000 0.400000 0.400000
0.427451 0.427451 0.427451
0.454902 0.454902 0.454902
0.498039 0.498039 0.498039
0.113725 0.113725 0.113725
0.121569 0.121569 0.121569
0.121569 0.121569 0.121569
0.125490 0.125490 0.125490
0.133333 0.133333 0.133333
0.145098 0.145098 0.145098
0.152941 0.152941 0.152941
0.164706 0.164706 0.164706
0.176471 0.176471 0.176471
0.188235 0.188235 0.188235
0.200000 0.200000 0.200000
0.215686 0.215686 0.215686
0.235294 0.235294 0.235294
0.250980 0.250980 0.250980
0.266667 0.266667 0.266667
0.282353 0.282353 0.282353
0.298039 0.298039 0.298039
0.321569 0.321569 0.321569
0.341176 0.341176 0.341176
0.360784 0.360784 0.360784
0.388235 0.388235 0.388235
0.415686 0.415686 0.415686
0.443137 0.443137 0.443137
0.474510 0.474510 0.474510
0.509804 0.509804 0.509804
0.149020 0.149020 0.149020
0.149020 0.149020 0.149020
0.152941 0.152941 0.152941
0.156863 0.156863 0.156863
0.160784 0.160784 0.160784
0.168627 0.168627 0.168627
0.180392 0.180392 0.180392
0.196078 0.196078 0.196078
0.203922 0.203922 0.203922
0.211765 0.211765 0.211765
0.223529 0.223529 0.223529
0.235294 0.235294 0.235294
0.250980 0.250980 0.250980
0.266667 0.266667 0.266667
0.286275 0.286275 0.286275
0.301961 0.301961 0.301961
0.313725 0.313725 0.313725
0.333333 0.333333 0.333333
0.352941 0.352941 0.352941
0.376471 0.376471 0.376471
0.396078 0.396078 0.396078
0.423529 0.423529 0.423529
0.454902 0.454902 0.454902
0.482353 0.482353 0.482353
0.521569 0.521569 0.521569
0.180392 0.180392 0.180392
0.184314 0.184314 0.184314
0.188235 0.188235 0.188235
0.188235 0.188235 0.188235
0.192157 0.192157 0.192157
0.200000 0.200000 0.200000
0.207843 0.207843 0.207843
0.219608 0.219608 0.219608
0.227451 0.227451 0.227451
0.239216 0.239216 0.239216
0.250980 0.250980 0.250980
0.262745 0.262745 0.262745
0.274510 0.274510 0.274510
0.286275 0.286275 0.286275
0.301961 0.301961 0.301961
0.317647 0.317647 0.317647
0.337255 0.337255 0.337255
0.352941 0.352941 0.352941
0.372549 0.372549 0.372549
0.392157 0.392157 0.392157
0.411765 0.411765 0.411765
0.439216 0.439216 0.439216
0.466667 0.466667 0.466667
0.498039 0.498039 0.498039
0.533333 0.533333 0.533333
0.215686 0.215686 0.215686
0.211765 0.211765 0.211765
0.219608 0.219608 0.219608
0.223529 0.223529 0.223529
0.223529 0.223529 0.223529
0.231373 0.231373 0.231373
0.235294 0.235294 0.235294
0.243137 0.243137 0.243137
0.254902 0.254902 0.254902
0.266667 0.266667 0.266667
0.278431 0.278431 0.278431
0.286275 0.286275 0.286275
0.298039 0.298039 0.298039
0.313725 0.313725 0.313725
0.325490 0.325490 0.325490
0.337255 0.337255 0.337255
0.352941 0.352941 0.352941
0.372549 0.372549 0.372549
0.392157 0.392157 0.392157
0.411765 0.411765 0.411765
0.431373 0.431373 0.431373
0.458824 0.458824 0.458824
0.486275 0.486275 0.486275
0.513725 0.513725 0.513725
0.549020 0.549020 0.549020
0.250980 0.250980 0.250980
0.254902 0.254902 0.254902
0.247059 0.247059 0.247059
0.254902 0.254902 0.254902
0.258824 0.258824 0.258824
0.258824 0.258824 0.258824
0.266667 0.266667 0.266667
0.270588 0.270588 0.270588
0.278431 0.278431 0.278431
0.290196 0.290196 0.290196
0.301961 0.301961 0.301961
0.317647 0.317647 0.317647
0.329412 0.329412 0.329412
0.341176 0.341176 0.341176
0.349020 0.349020 0.349020
0.364706 0.364706 0.364706
0.380392 0.380392 0.380392
0.396078 0.396078 0.396078
0.411765 0.411765 0.411765
0.435294 0.435294 0.435294
0.454902 0.454902 0.454902
0.478431 0.478431 0.478431
0.505882 0.505882 0.505882
0.537255 0.537255 0.537255
0.568627 0.568627 0.568627
0.282353 0.282353 0.282353
0.286275 0.286275 0.286275
0.286275 0.286275 0.286275
0.290196 0.290196 0.290196
0.290196 0.290196 0.290196
0.294118 0.294118 0.294118
0.298039 0.298039 0.298039
0.305882 0.305882 0.305882
0.309804 0.309804 0.309804
0.317647 0.317647 0.317647
0.329412 0.329412 0.329412
0.345098 0.345098 0.345098
0.356863 0.356863 0.356863
0.364706 0.364706 0.364706
0.372549 0.372549 0.372549
0.388235 0.388235 0.388235
0.403922 0.403922 0.403922
0.419608 0.419608 0.419608
0.435294 0.435294 0.435294
0.458824 0.458824 0.458824
0.482353 0.482353 0.482353
0.509804 0.509804 0.509804
0.533333 0.533333 0.533333
0.564706 0.564706 0.564706
0.596078 0.596078 0.596078
0.321569 0.321569 0.321569
0.321569 0.321569 0.321569
0.325490 0.325490 0.325490
0.325490 0.325490 0.325490
0.329412 0.329412 0.329412
0.329412 0.329412 0.329412
0.333333 0.333333 0.333333
0.341176 0.341176 0.341176
0.341176 0.341176 0.341176
0.349020 0.349020 0.349020
0.356863 0.356863 0.356863
