resources/LUTs/Black and White/18.cube
TITLE "B&W Preset #18"
#LUT size
LUT_3D_SIZE 5
#LUT data points
0.000000 0.000000 0.000000
0.074510 0.074510 0.074510
0.180392 0.180392 0.180392
0.313725 0.313725 0.313725
0.478431 0.478431 0.478431
0.180392 0.180392 0.180392
0.203922 0.203922 0.203922
0.270588 0.270588 0.270588
0.372549 0.372549 0.372549
0.533333 0.533333 0.533333
0.392157 0.392157 0.392157
0.400000 0.400000 0.400000
0.435294 0.435294 0.435294
0.525490 0.525490 0.525490
0.662745 0.662745 0.662745
0.647059 0.647059 0.647059
0.650980 0.650980 0.650980
0.670588 0.670588 0.670588
0.705882 0.705882 0.705882
0.811765 0.811765 0.811765
0.905882 0.905882 0.905882
0.905882 0.905882 0.905882
0.917647 0.917647 0.917647
0.937255 0.937255 0.937255
0.976471 0.976471 0.976471
0.043137 0.043137 0.043137
0.086275 0.086275 0.086275
0.207843 0.207843 0.207843
0.329412 0.329412 0.329412
0.494118 0.494118 0.494118
0.176471 0.176471 0.176471
0.215686 0.215686 0.215686
0.286275 0.286275 0.286275
0.384314 0.384314 0.384314
0.541176 0.541176 0.541176
0.407843 0.407843 0.407843
0.411765 0.411765 0.411765
0.443137 0.443137 0.443137
0.533333 0.533333 0.533333
0.658824 0.658824 0.658824
0.647059 0.647059 0.647059
0.654902 0.654902 0.654902
0.674510 0.674510 0.674510
0.717647 0.717647 0.717647
0.811765 0.811765 0.811765
0.905882 0.905882 0.905882
0.909804 0.909804 0.909804
0.917647 0.917647 0.917647
0.941176 0.941176 0.941176
0.976471 0.976471 0.976471
0.129412 0.129412 0.129412
0.156863 0.156863 0.156863
0.219608 0.219608 0.219608
0.341176 0.341176 0.341176
0.505882 0.505882 0.505882
0.239216 0.239216 0.239216
0.258824 0.258824 0.258824
0.298039 0.298039 0.298039
0.400000 0.400000 0.400000
0.552941 0.552941 0.552941
0.384314 0.384314 0.384314
0.403922 0.403922 0.403922
0.462745 0.462745 0.462745
0.541176 0.541176 0.541176
0.662745 0.662745 0.662745
0.654902 0.654902 0.654902
0.666667 0.666667 0.666667
0.686275 0.686275 0.686275
0.721569 0.721569 0.721569
0.819608 0.819608 0.819608
0.905882 0.905882 0.905882
0.909804 0.909804 0.909804
0.921569 0.921569 0.921569
0.941176 0.941176 0.941176
0.984314 0.984314 0.984314
0.239216 0.239216 0.239216
0.254902 0.254902 0.254902
0.301961 0.301961 0.301961
0.364706 0.364706 0.364706
0.513725 0.513725 0.513725
0.321569 0.321569 0.321569
0.333333 0.333333 0.333333
0.364706 0.364706 0.364706
0.419608 0.419608 0.419608
0.564706 0.564706 0.564706
0.431373 0.431373 0.431373
0.458824 0.458824 0.458824
0.517647 0.517647 0.517647
0.556863 0.556863 0.556863
0.682353 0.682353 0.682353
0.631373 0.631373 0.631373
0.643137 0.643137 0.643137
0.682353 0.682353 0.682353
0.745098 0.745098 0.745098
0.823529 0.823529 0.823529
0.913725 0.913725 0.913725
0.909804 0.909804 0.909804
0.929412 0.929412 0.929412
0.956863 0.956863 0.956863
0.996078 0.996078 0.996078
0.443137 0.443137 0.443137
0.454902 0.454902 0.454902
0.490196 0.490196 0.490196
0.549020 0.549020 0.549020
0.627451 0.627451 0.627451
0.509804 0.509804 0.509804
0.513725 0.513725 0.513725
0.541176 0.541176 0.541176
0.592157 0.592157 0.592157
0.662745 0.662745 0.662745
0.627451 0.627451 0.627451
0.635294 0.635294 0.635294
0.654902 0.654902 0.654902
0.690196 0.690196 0.690196
0.737255 0.737255 0.737255
0.745098 0.745098 0.745098
0.741176 0.741176 0.741176
0.756863 0.756863 0.756863
0.815686 0.815686 0.815686
0.854902 0.854902 0.854902
0.925490 0.925490 0.925490
0.921569 0.921569 0.921569
0.937255 0.937255 0.937255
0.960784 0.960784 0.960784
1.000000 1.000000 1.000000
