resources/LUTs/Black and White/19.cube
TITLE "B&W Preset #19"
#LUT size
LUT_3D_SIZE 5
#LUT data points
0.000000 0.000000 0.000000
0.043137 0.043137 0.043137
0.141176 0.141176 0.141176
0.270588 0.270588 0.270588
0.454902 0.454902 0.454902
0.141176 0.141176 0.141176
0.160784 0.160784 0.160784
0.231373 0.231373 0.231373
0.337255 0.337255 0.337255
0.513725 0.513725 0.513725
0.364706 0.364706 0.364706
0.372549 0.372549 0.372549
0.411765 0.411765 0.411765
0.509804 0.509804 0.509804
0.666667 0.666667 0.666667
0.650980 0.650980 0.650980
0.658824 0.658824 0.658824
0.678431 0.678431 0.678431
0.717647 0.717647 0.717647
0.823529 0.823529 0.823529
0.929412 0.929412 0.929412
0.925490 0.925490 0.925490
0.933333 0.933333 0.933333
0.952941 0.952941 0.952941
0.984314 0.984314 0.984314
0.027451 0.027451 0.027451
0.058824 0.058824 0.058824
0.168627 0.168627 0.168627
0.294118 0.294118 0.294118
0.470588 0.470588 0.470588
0.141176 0.141176 0.141176
0.176471 0.176471 0.176471
0.247059 0.247059 0.247059
0.349020 0.349020 0.349020
0.525490 0.525490 0.525490
0.380392 0.380392 0.380392
0.388235 0.388235 0.388235
0.419608 0.419608 0.419608
0.517647 0.517647 0.517647
0.666667 0.666667 0.666667
0.654902 0.654902 0.654902
0.662745 0.662745 0.662745
0.686275 0.686275 0.686275
0.729412 0.729412 0.729412
0.831373 0.831373 0.831373
0.925490 0.925490 0.925490
0.929412 0.929412 0.929412
0.933333 0.933333 0.933333
0.956863 0.956863 0.956863
0.984314 0.984314 0.984314
0.105882 0.105882 0.105882
0.129412 0.129412 0.129412
0.188235 0.188235 0.188235
0.301961 0.301961 0.301961
0.490196 0.490196 0.490196
0.215686 0.215686 0.215686
0.231373 0.231373 0.231373
0.266667 0.266667 0.266667
0.368627 0.368627 0.368627
0.545098 0.545098 0.545098
0.356863 0.356863 0.356863
0.380392 0.380392 0.380392
0.447059 0.447059 0.447059
0.529412 0.529412 0.529412
0.666667 0.666667 0.666667
0.658824 0.658824 0.658824
0.674510 0.674510 0.674510
0.698039 0.698039 0.698039
0.733333 0.733333 0.733333
0.839216 0.839216 0.839216
0.929412 0.929412 0.929412
0.929412 0.929412 0.929412
0.941176 0.941176 0.941176
0.956863 0.956863 0.956863
0.984314 0.984314 0.984314
0.223529 0.223529 0.223529
0.235294 0.235294 0.235294
0.278431 0.278431 0.278431
0.352941 0.352941 0.352941
0.498039 0.498039 0.498039
0.313725 0.313725 0.313725
0.321569 0.321569 0.321569
0.352941 0.352941 0.352941
0.415686 0.415686 0.415686
0.552941 0.552941 0.552941
0.423529 0.423529 0.423529
0.458824 0.458824 0.458824
0.517647 0.517647 0.517647
0.564706 0.564706 0.564706
0.682353 0.682353 0.682353
0.650980 0.650980 0.650980
0.654902 0.654902 0.654902
0.694118 0.694118 0.694118
0.760784 0.760784 0.760784
0.843137 0.843137 0.843137
0.929412 0.929412 0.929412
0.929412 0.929412 0.929412
0.945098 0.945098 0.945098
0.968627 0.968627 0.968627
1.000000 1.000000 1.000000
0.474510 0.474510 0.474510
0.490196 0.490196 0.490196
0.525490 0.525490 0.525490
0.584314 0.584314 0.584314
0.658824 0.658824 0.658824
0.541176 0.541176 0.541176
0.549020 0.549020 0.549020
0.580392 0.580392 0.580392
0.631373 0.631373 0.631373
0.694118 0.694118 0.694118
0.670588 0.670588 0.670588
0.670588 0.670588 0.670588
0.690196 0.690196 0.690196
0.725490 0.725490 0.725490
0.772549 0.772549 0.772549
0.772549 0.772549 0.772549
0.772549 0.772549 0.772549
0.796078 0.796078 0.796078
0.850980 0.850980 0.850980
0.878431 0.878431 0.878431
0.945098 0.945098 0.945098
0.952941 0.952941 0.952941
0.960784 0.960784 0.960784
0.976471 0.976471 0.976471
1.000000 1.000000 1.000000
