resources/LUTs/Black and White/19.cube
TITLE "B&W Preset #19"
#LUT size
LUT_3D_SIZE 9
#LUT data points
0.000000 0.000000 0.000000
0.007843 0.007843 0.007843
0.043137 0.043137 0.043137
0.086275 0.086275 0.086275
0.141176 0.141176 0.141176
0.200000 0.200000 0.200000
0.270588 0.270588 0.270588
0.349020 0.349020 0.349020
0.454902 0.454902 0.454902
0.054902 0.054902 0.054902
0.066667 0.066667 0.066667
0.090196 0.090196 0.090196
0.125490 0.125490 0.125490
0.168627 0.168627 0.168627
0.223529 0.223529 0.223529
0.290196 0.290196 0.290196
0.364706 0.364706 0.364706
0.474510 0.474510 0.474510
0.141176 0.141176 0.141176
0.145098 0.145098 0.145098
0.160784 0.160784 0.160784
0.200000 0.200000 0.200000
0.231373 0.231373 0.231373
0.278431 0.278431 0.278431
0.337255 0.337255 0.337255
0.411765 0.411765 0.411765
0.513725 0.513725 0.513725
0.247059 0.247059 0.247059
0.250980 0.250980 0.250980
0.262745 0.262745 0.262745
0.282353 0.282353 0.282353
0.321569 0.321569 0.321569
0.356863 0.356863 0.356863
0.407843 0.407843 0.407843
0.486275 0.486275 0.486275
0.584314 0.584314 0.584314
0.364706 0.364706 0.364706
0.368627 0.368627 0.368627
0.372549 0.372549 0.372549
0.388235 0.388235 0.388235
0.411765 0.411765 0.411765
0.462745 0.462745 0.462745
0.509804 0.509804 0.509804
0.576471 0.576471 0.576471
0.666667 0.666667 0.666667
0.498039 0.498039 0.498039
0.498039 0.498039 0.498039
0.509804 0.509804 0.509804
0.521569 0.521569 0.521569
0.537255 0.537255 0.537255
0.564706 0.564706 0.564706
0.615686 0.615686 0.615686
0.678431 0.678431 0.678431
0.752941 0.752941 0.752941
0.650980 0.650980 0.650980
0.654902 0.654902 0.654902
0.658824 0.658824 0.658824
0.666667 0.666667 0.666667
0.678431 0.678431 0.678431
0.698039 0.698039 0.698039
0.717647 0.717647 0.717647
0.756863 0.756863 0.756863
0.823529 0.823529 0.823529
0.792157 0.792157 0.792157
0.792157 0.792157 0.792157
0.796078 0.796078 0.796078
0.811765 0.811765 0.811765
0.815686 0.815686 0.815686
0.827451 0.827451 0.827451
0.839216 0.839216 0.839216
0.854902 0.854902 0.854902
0.886275 0.886275 0.886275
0.929412 0.929412 0.929412
0.921569 0.921569 0.921569
0.925490 0.925490 0.925490
0.929412 0.929412 0.929412
0.933333 0.933333 0.933333
0.945098 0.945098 0.945098
0.952941 0.952941 0.952941
0.964706 0.964706 0.964706
0.984314 0.984314 0.984314
0.011765 0.011765 0.011765
0.015686 0.015686 0.015686
0.054902 0.054902 0.054902
0.105882 0.105882 0.105882
0.156863 0.156863 0.156863
0.215686 0.215686 0.215686
0.278431 0.278431 0.278431
0.356863 0.356863 0.356863
0.462745 0.462745 0.462745
0.054902 0.054902 0.054902
0.074510 0.074510 0.074510
0.098039 0.098039 0.098039
0.137255 0.137255 0.137255
0.188235 0.188235 0.188235
0.239216 0.239216 0.239216
0.301961 0.301961 0.301961
0.380392 0.380392 0.380392
0.486275 0.486275 0.486275
0.149020 0.149020 0.149020
0.156863 0.156863 0.156863
0.168627 0.168627 0.168627
0.200000 0.200000 0.200000
0.239216 0.239216 0.239216
0.282353 0.282353 0.282353
0.341176 0.341176 0.341176
0.415686 0.415686 0.415686
0.517647 0.517647 0.517647
0.250980 0.250980 0.250980
0.254902 0.254902 0.254902
0.262745 0.262745 0.262745
0.282353 0.282353 0.282353
0.325490 0.325490 0.325490
0.364706 0.364706 0.364706
0.419608 0.419608 0.419608
0.498039 0.498039 0.498039
0.596078 0.596078 0.596078
0.368627 0.368627 0.368627
0.368627 0.368627 0.368627
0.376471 0.376471 0.376471
0.396078 0.396078 0.396078
0.415686 0.415686 0.415686
0.458824 0.458824 0.458824
0.509804 0.509804 0.509804
0.580392 0.580392 0.580392
0.662745 0.662745 0.662745
0.498039 0.498039 0.498039
0.501961 0.501961 0.501961
0.505882 0.505882 0.505882
0.521569 0.521569 0.521569
0.537255 0.537255 0.537255
0.560784 0.560784 0.560784
0.615686 0.615686 0.615686
0.678431 0.678431 0.678431
0.749020 0.749020 0.749020
0.647059 0.647059 0.647059
0.658824 0.658824 0.658824
0.654902 0.654902 0.654902
0.662745 0.662745 0.662745
0.682353 0.682353 0.682353
0.698039 0.698039 0.698039
0.721569 0.721569 0.721569
0.760784 0.760784 0.760784
0.835294 0.835294 0.835294
0.796078 0.796078 0.796078
0.800000 0.800000 0.800000
0.800000 0.800000 0.800000
0.807843 0.807843 0.807843
0.811765 0.811765 0.811765
0.827451 0.827451 0.827451
0.839216 0.839216 0.839216
0.858824 0.858824 0.858824
0.886275 0.886275 0.886275
0.929412 0.929412 0.929412
0.921569 0.921569 0.921569
0.929412 0.929412 0.929412
0.933333 0.933333 0.933333
0.933333 0.933333 0.933333
0.945098 0.945098 0.945098
0.960784 0.960784 0.960784
0.968627 0.968627 0.968627
0.988235 0.988235 0.988235
0.027451 0.027451 0.027451
0.035294 0.035294 0.035294
0.058824 0.058824 0.058824
0.109804 0.109804 0.109804
0.168627 0.168627 0.168627
0.227451 0.227451 0.227451
0.294118 0.294118 0.294118
0.372549 0.372549 0.372549
0.470588 0.470588 0.470588
0.074510 0.074510 0.074510
0.090196 0.090196 0.090196
0.105882 0.105882 0.105882
0.145098 0.145098 0.145098
0.196078 0.196078 0.196078
0.250980 0.250980 0.250980
0.313725 0.313725 0.313725
0.392157 0.392157 0.392157
0.490196 0.490196 0.490196
0.141176 0.141176 0.141176
0.152941 0.152941 0.152941
0.176471 0.176471 0.176471
0.207843 0.207843 0.207843
0.247059 0.247059 0.247059
0.298039 0.298039 0.298039
0.349020 0.349020 0.349020
0.427451 0.427451 0.427451
0.525490 0.525490 0.525490
0.254902 0.254902 0.254902
0.262745 0.262745 0.262745
0.278431 0.278431 0.278431
0.294118 0.294118 0.294118
0.329412 0.329412 0.329412
0.368627 0.368627 0.368627
0.423529 0.423529 0.423529
0.501961 0.501961 0.501961
0.600000 0.600000 0.600000
0.380392 0.380392 0.380392
0.376471 0.376471 0.376471
0.388235 0.388235 0.388235
0.400000 0.400000 0.400000
0.419608 0.419608 0.419608
0.462745 0.462745 0.462745
0.517647 0.517647 0.517647
0.584314 0.584314 0.584314
0.666667 0.666667 0.666667
0.509804 0.509804 0.509804
0.513725 0.513725 0.513725
0.517647 0.517647 0.517647
0.525490 0.525490 0.525490
0.549020 0.549020 0.549020
0.568627 0.568627 0.568627
0.623529 0.623529 0.623529
0.682353 0.682353 0.682353
0.752941 0.752941 0.752941
0.654902 0.654902 0.654902
0.658824 0.658824 0.658824
0.662745 0.662745 0.662745
0.670588 0.670588 0.670588
0.686275 0.686275 0.686275
0.698039 0.698039 0.698039
0.729412 0.729412 0.729412
0.768627 0.768627 0.768627
0.831373 0.831373 0.831373
0.803922 0.803922 0.803922
0.800000 0.800000 0.800000
0.800000 0.800000 0.800000
0.807843 0.807843 0.807843
0.815686 0.815686 0.815686
0.827451 0.827451 0.827451
0.843137 0.843137 0.843137
0.862745 0.862745 0.862745
0.890196 0.890196 0.890196
0.925490 0.925490 0.925490
0.921569 0.921569 0.921569
0.929412 0.929412 0.929412
0.933333 0.933333 0.933333
0.933333 0.933333 0.933333
0.945098 0.945098 0.945098
0.956863 0.956863 0.956863
0.972549 0.972549 0.972549
0.984314 0.984314 0.984314
0.058824 0.058824 0.058824
0.070588 0.070588 0.070588
0.094118 0.094118 0.094118
0.125490 0.125490 0.125490
0.168627 0.168627 0.168627
0.235294 0.235294 0.235294
0.298039 0.298039 0.298039
0.384314 0.384314 0.384314
0.478431 0.478431 0.478431
0.113725 0.113725 0.113725
0.121569 0.121569 0.121569
0.137255 0.137255 0.137255
0.156863 0.156863 0.156863
0.188235 0.188235 0.188235
0.254902 0.254902 0.254902
0.321569 0.321569 0.321569
0.400000 0.400000 0.400000
0.498039 0.498039 0.498039
0.156863 0.156863 0.156863
0.180392 0.180392 0.180392
0.211765 0.211765 0.211765
0.219608 0.219608 0.219608
0.250980 0.250980 0.250980
0.305882 0.305882 0.305882
0.364706 0.364706 0.364706
0.435294 0.435294 0.435294
0.529412 0.529412 0.529412
0.243137 0.243137 0.243137
0.250980 0.250980 0.250980
0.274510 0.274510 0.274510
0.301961 0.301961 0.301961
0.337255 0.337255 0.337255
0.380392 0.380392 0.380392
0.435294 0.435294 0.435294
0.509804 0.509804 0.509804
0.603922 0.603922 0.603922
0.372549 0.372549 0.372549
0.376471 0.376471 0.376471
0.392157 0.392157 0.392157
0.411765 0.411765 0.411765
0.431373 0.431373 0.431373
0.474510 0.474510 0.474510
0.525490 0.525490 0.525490
0.588235 0.588235 0.588235
0.670588 0.670588 0.670588
0.513725 0.513725 0.513725
0.517647 0.517647 0.517647
0.525490 0.525490 0.525490
0.537255 0.537255 0.537255
0.556863 0.556863 0.556863
0.580392 0.580392 0.580392
0.627451 0.627451 0.627451
0.686275 0.686275 0.686275
0.752941 0.752941 0.752941
0.662745 0.662745 0.662745
0.666667 0.666667 0.666667
0.666667 0.666667 0.666667
0.678431 0.678431 0.678431
0.690196 0.690196 0.690196
0.705882 0.705882 0.705882
0.729412 0.729412 0.729412
0.780392 0.780392 0.780392
0.835294 0.835294 0.835294
0.803922 0.803922 0.803922
0.800000 0.800000 0.800000
0.811765 0.811765 0.811765
0.807843 0.807843 0.807843
0.819608 0.819608 0.819608
0.827451 0.827451 0.827451
0.843137 0.843137 0.843137
0.858824 0.858824 0.858824
0.894118 0.894118 0.894118
0.929412 0.929412 0.929412
0.925490 0.925490 0.925490
0.929412 0.929412 0.929412
0.937255 0.937255 0.937255
0.941176 0.941176 0.941176
0.952941 0.952941 0.952941
0.956863 0.956863 0.956863
0.972549 0.972549 0.972549
0.992157 0.992157 0.992157
0.105882 0.105882 0.105882
0.117647 0.117647 0.117647
0.129412 0.129412 0.129412
0.156863 0.156863 0.156863
0.188235 0.188235 0.188235
0.227451 0.227451 0.227451
0.301961 0.301961 0.301961
0.392157 0.392157 0.392157
0.490196 0.490196 0.490196
0.149020 0.149020 0.149020
0.156863 0.156863 0.156863
0.164706 0.164706 0.164706
0.188235 0.188235 0.188235
0.215686 0.215686 0.215686
0.254902 0.254902 0.254902
0.325490 0.325490 0.325490
0.411765 0.411765 0.411765
0.509804 0.509804 0.509804
0.215686 0.215686 0.215686
0.227451 0.227451 0.227451
0.231373 0.231373 0.231373
0.247059 0.247059 0.247059
0.266667 0.266667 0.266667
0.298039 0.298039 0.298039
0.368627 0.368627 0.368627
0.447059 0.447059 0.447059
0.545098 0.545098 0.545098
0.266667 0.266667 0.266667
0.266667 0.266667 0.266667
0.294118 0.294118 0.294118
0.333333 0.333333 0.333333
0.345098 0.345098 0.345098
0.388235 0.388235 0.388235
0.443137 0.443137 0.443137
0.517647 0.517647 0.517647
0.600000 0.600000 0.600000
0.356863 0.356863 0.356863
0.364706 0.364706 0.364706
0.380392 0.380392 0.380392
0.407843 0.407843 0.407843
0.447059 0.447059 0.447059
0.478431 0.478431 0.478431
0.529412 0.529412 0.529412
0.596078 0.596078 0.596078
0.666667 0.666667 0.666667
0.505882 0.505882 0.505882
0.513725 0.513725 0.513725
0.521569 0.521569 0.521569
0.537255 0.537255 0.537255
0.564706 0.564706 0.564706
0.588235 0.588235 0.588235
0.635294 0.635294 0.635294
0.690196 0.690196 0.690196
0.756863 0.756863 0.756863
0.658824 0.658824 0.658824
0.662745 0.662745 0.662745
0.674510 0.674510 0.674510
0.682353 0.682353 0.682353
0.698039 0.698039 0.698039
0.713725 0.713725 0.713725
0.733333 0.733333 0.733333
0.784314 0.784314 0.784314
0.839216 0.839216 0.839216
0.796078 0.796078 0.796078
0.803922 0.803922 0.803922
0.807843 0.807843 0.807843
0.815686 0.815686 0.815686
0.823529 0.823529 0.823529
0.835294 0.835294 0.835294
0.843137 0.843137 0.843137
0.866667 0.866667 0.866667
0.905882 0.905882 0.905882
0.929412 0.929412 0.929412
0.929412 0.929412 0.929412
0.929412 0.929412 0.929412
0.933333 0.933333 0.933333
0.941176 0.941176 0.941176
0.949020 0.949020 0.949020
0.956863 0.956863 0.956863
0.972549 0.972549 0.972549
0.984314 0.984314 0.984314
0.156863 0.156863 0.156863
0.164706 0.164706 0.164706
0.180392 0.180392 0.180392
0.196078 0.196078 0.196078
0.227451 0.227451 0.227451
0.254902 0.254902 0.254902
0.305882 0.305882 0.305882
0.388235 0.388235 0.388235
0.501961 0.501961 0.501961
0.196078 0.196078 0.196078
0.200000 0.200000 0.200000
0.207843 0.207843 0.207843
0.223529 0.223529 0.223529
0.250980 0.250980 0.250980
0.286275 0.286275 0.286275
0.325490 0.325490 0.325490
0.411765 0.411765 0.411765
0.525490 0.525490 0.525490
0.258824 0.258824 0.258824
0.266667 0.266667 0.266667
0.266667 0.266667 0.266667
0.282353 0.282353 0.282353
0.298039 0.298039 0.298039
0.329412 0.329412 0.329412
0.368627 0.368627 0.368627
0.447059 0.447059 0.447059
0.556863 0.556863 0.556863
0.309804 0.309804 0.309804
0.325490 0.325490 0.325490
0.349020 0.349020 0.349020
0.368627 0.368627 0.368627
0.388235 0.388235 0.388235
0.407843 0.407843 0.407843
0.450980 0.450980 0.450980
0.525490 0.525490 0.525490
0.619608 0.619608 0.619608
0.384314 0.384314 0.384314
0.388235 0.388235 0.388235
0.403922 0.403922 0.403922
0.427451 0.427451 0.427451
0.482353 0.482353 0.482353
0.498039 0.498039 0.498039
0.533333 0.533333 0.533333
0.603922 0.603922 0.603922
0.674510 0.674510 0.674510
0.490196 0.490196 0.490196
0.494118 0.494118 0.494118
0.509804 0.509804 0.509804
0.529412 0.529412 0.529412
0.556863 0.556863 0.556863
0.603922 0.603922 0.603922
0.643137 0.643137 0.643137
0.690196 0.690196 0.690196
0.752941 0.752941 0.752941
0.650980 0.650980 0.650980
0.650980 0.650980 0.650980
0.662745 0.662745 0.662745
0.682353 0.682353 0.682353
0.701961 0.701961 0.701961
0.729412 0.729412 0.729412
0.749020 0.749020 0.749020
0.792157 0.792157 0.792157
0.839216 0.839216 0.839216
0.800000 0.800000 0.800000
0.807843 0.807843 0.807843
0.803922 0.803922 0.803922
0.811765 0.811765 0.811765
0.827451 0.827451 0.827451
0.839216 0.839216 0.839216
0.850980 0.850980 0.850980
0.874510 0.874510 0.874510
0.913725 0.913725 0.913725
0.933333 0.933333 0.933333
0.933333 0.933333 0.933333
0.933333 0.933333 0.933333
0.941176 0.941176 0.941176
0.945098 0.945098 0.945098
0.952941 0.952941 0.952941
0.964706 0.964706 0.964706
0.976471 0.976471 0.976471
0.988235 0.988235 0.988235
0.223529 0.223529 0.223529
0.227451 0.227451 0.227451
0.235294 0.235294 0.235294
0.254902 0.254902 0.254902
0.278431 0.278431 0.278431
0.309804 0.309804 0.309804
0.352941 0.352941 0.352941
0.403922 0.403922 0.403922
0.498039 0.498039 0.498039
0.250980 0.250980 0.250980
0.258824 0.258824 0.258824
0.266667 0.266667 0.266667
0.282353 0.282353 0.282353
0.305882 0.305882 0.305882
0.337255 0.337255 0.337255
0.368627 0.368627 0.368627
0.423529 0.423529 0.423529
0.525490 0.525490 0.525490
0.313725 0.313725 0.313725
0.317647 0.317647 0.317647
0.321569 0.321569 0.321569
0.333333 0.333333 0.333333
0.352941 0.352941 0.352941
0.376471 0.376471 0.376471
0.415686 0.415686 0.415686
0.458824 0.458824 0.458824
0.552941 0.552941 0.552941
0.392157 0.392157 0.392157
0.396078 0.396078 0.396078
0.403922 0.403922 0.403922
0.415686 0.415686 0.415686
0.431373 0.431373 0.431373
0.454902 0.454902 0.454902
0.486275 0.486275 0.486275
0.533333 0.533333 0.533333
0.619608 0.619608 0.619608
0.423529 0.423529 0.423529
0.443137 0.443137 0.443137
0.458824 0.458824 0.458824
0.501961 0.501961 0.501961
0.517647 0.517647 0.517647
0.545098 0.545098 0.545098
0.564706 0.564706 0.564706
0.603922 0.603922 0.603922
0.682353 0.682353 0.682353
0.525490 0.525490 0.525490
0.533333 0.533333 0.533333
0.541176 0.541176 0.541176
0.560784 0.560784 0.560784
0.588235 0.588235 0.588235
0.643137 0.643137 0.643137
0.658824 0.658824 0.658824
0.694118 0.694118 0.694118
0.756863 0.756863 0.756863
0.650980 0.650980 0.650980
0.650980 0.650980 0.650980
0.654902 0.654902 0.654902
0.670588 0.670588 0.670588
0.694118 0.694118 0.694118
0.725490 0.725490 0.725490
0.760784 0.760784 0.760784
0.800000 0.800000 0.800000
0.843137 0.843137 0.843137
0.784314 0.784314 0.784314
0.788235 0.788235 0.788235
0.792157 0.792157 0.792157
0.807843 0.807843 0.807843
0.827451 0.827451 0.827451
0.843137 0.843137 0.843137
0.862745 0.862745 0.862745
0.882353 0.882353 0.882353
0.921569 0.921569 0.921569
0.929412 0.929412 0.929412
0.929412 0.929412 0.929412
0.929412 0.929412 0.929412
0.937255 0.937255 0.937255
0.945098 0.945098 0.945098
0.956863 0.956863 0.956863
0.968627 0.968627 0.968627
0.980392 0.980392 0.980392
1.000000 1.000000 1.000000
0.313725 0.313725 0.313725
0.317647 0.317647 0.317647
0.325490 0.325490 0.325490
0.341176 0.341176 0.341176
0.364706 0.364706 0.364706
0.396078 0.396078 0.396078
0.435294 0.435294 0.435294
0.474510 0.474510 0.474510
0.529412 0.529412 0.529412
0.341176 0.341176 0.341176
0.341176 0.341176 0.341176
0.349020 0.349020 0.349020
0.364706 0.364706 0.364706
0.388235 0.388235 0.388235
0.419608 0.419608 0.419608
0.450980 0.450980 0.450980
0.501961 0.501961 0.501961
0.549020 0.549020 0.549020
0.384314 0.384314 0.384314
0.392157 0.392157 0.392157
0.400000 0.400000 0.400000
0.415686 0.415686 0.415686
0.431373 0.431373 0.431373
0.458824 0.458824 0.458824
0.494118 0.494118 0.494118
0.529412 0.529412 0.529412
0.572549 0.572549 0.572549
0.470588 0.470588 0.470588
0.470588 0.470588 0.470588
0.478431 0.478431 0.478431
0.490196 0.490196 0.490196
0.509804 0.509804 0.509804
0.529412 0.529412 0.529412
0.560784 0.560784 0.560784
0.592157 0.592157 0.592157
0.635294 0.635294 0.635294
0.529412 0.529412 0.529412
0.541176 0.541176 0.541176
0.556863 0.556863 0.556863
0.572549 0.572549 0.572549
0.588235 0.588235 0.588235
0.603922 0.603922 0.603922
0.627451 0.627451 0.627451
0.650980 0.650980 0.650980
0.694118 0.694118 0.694118
0.572549 0.572549 0.572549
0.580392 0.580392 0.580392
0.592157 0.592157 0.592157
0.619608 0.619608 0.619608
0.662745 0.662745 0.662745
0.690196 0.690196 0.690196
0.713725 0.713725 0.713725
0.725490 0.725490 0.725490
0.756863 0.756863 0.756863
0.698039 0.698039 0.698039
0.698039 0.698039 0.698039
0.698039 0.698039 0.698039
0.713725 0.713725 0.713725
0.729412 0.729412 0.729412
0.756863 0.756863 0.756863
0.800000 0.800000 0.800000
0.811765 0.811765 0.811765
0.843137 0.843137 0.843137
0.788235 0.788235 0.788235
0.792157 0.792157 0.792157
0.796078 0.796078 0.796078
0.800000 0.800000 0.800000
0.819608 0.819608 0.819608
0.839216 0.839216 0.839216
0.862745 0.862745 0.862745
0.894118 0.894118 0.894118
0.925490 0.925490 0.925490
0.917647 0.917647 0.917647
0.917647 0.917647 0.917647
0.921569 0.921569 0.921569
0.929412 0.929412 0.929412
0.941176 0.941176 0.941176
0.956863 0.956863 0.956863
0.968627 0.968627 0.968627
0.984314 0.984314 0.984314
1.000000 1.000000 1.000000
0.474510 0.474510 0.474510
0.478431 0.478431 0.478431
0.490196 0.490196 0.490196
0.501961 0.501961 0.501961
0.525490 0.525490 0.525490
0.552941 0.552941 0.552941
0.584314 0.584314 0.584314
0.623529 0.623529 0.623529
0.658824 0.658824 0.658824
0.509804 0.509804 0.509804
0.501961 0.501961 0.501961
0.513725 0.513725 0.513725
0.529412 0.529412 0.529412
0.549020 0.549020 0.549020
0.572549 0.572549 0.572549
0.603922 0.603922 0.603922
0.639216 0.639216 0.639216
0.670588 0.670588 0.670588
0.541176 0.541176 0.541176
0.545098 0.545098 0.545098
0.549020 0.549020 0.549020
0.560784 0.560784 0.560784
0.580392 0.580392 0.580392
0.603922 0.603922 0.603922
0.631373 0.631373 0.631373
0.658824 0.658824 0.658824
0.694118 0.694118 0.694118
0.607843 0.607843 0.607843
0.607843 0.607843 0.607843
0.611765 0.611765 0.611765
0.627451 0.627451 0.627451
0.639216 0.639216 0.639216
0.654902 0.654902 0.654902
0.678431 0.678431 0.678431
0.701961 0.701961 0.701961
0.733333 0.733333 0.733333
0.670588 0.670588 0.670588
0.670588 0.670588 0.670588
0.670588 0.670588 0.670588
0.678431 0.678431 0.678431
0.690196 0.690196 0.690196
0.705882 0.705882 0.705882
0.725490 0.725490 0.725490
0.745098 0.745098 0.745098
0.772549 0.772549 0.772549
0.698039 0.698039 0.698039
0.705882 0.705882 0.705882
0.717647 0.717647 0.717647
0.737255 0.737255 0.737255
0.752941 0.752941 0.752941
0.764706 0.764706 0.764706
0.780392 0.780392 0.780392
0.800000 0.800000 0.800000
0.819608 0.819608 0.819608
0.772549 0.772549 0.772549
0.768627 0.768627 0.768627
0.772549 0.772549 0.772549
0.776471 0.776471 0.776471
0.796078 0.796078 0.796078
0.831373 0.831373 0.831373
0.850980 0.850980 0.850980
0.866667 0.866667 0.866667
0.878431 0.878431 0.878431
0.874510 0.874510 0.874510
0.870588 0.870588 0.870588
0.878431 0.878431 0.878431
0.874510 0.874510 0.874510
0.890196 0.890196 0.890196
0.894118 0.894118 0.894118
0.901961 0.901961 0.901961
0.933333 0.933333 0.933333
0.941176 0.941176 0.941176
0.945098 0.945098 0.945098
0.949020 0.949020 0.949020
0.952941 0.952941 0.952941
0.956863 0.956863 0.956863
0.960784 0.960784 0.960784
0.960784 0.960784 0.960784
0.976471 0.976471 0.976471
0.992157 0.992157 0.992157
1.000000 1.000000 1.000000
