resources/LUTs/Black and White/2.cube
TITLE "B&W Preset #2"
#LUT size
LUT_3D_SIZE 5
#LUT data points
0.000000 0.000000 0.000000
0.015686 0.015686 0.015686
0.109804 0.109804 0.109804
0.254902 0.254902 0.254902
0.415686 0.415686 0.415686
0.105882 0.105882 0.105882
0.137255 0.137255 0.137255
0.211765 0.211765 0.211765
0.317647 0.317647 0.317647
0.466667 0.466667 0.466667
0.333333 0.333333 0.333333
0.349020 0.349020 0.349020
0.380392 0.380392 0.380392
0.458824 0.458824 0.458824
0.627451 0.627451 0.627451
0.600000 0.600000 0.600000
0.607843 0.607843 0.607843
0.635294 0.635294 0.635294
0.690196 0.690196 0.690196
0.850980 0.850980 0.850980
0.964706 0.964706 0.964706
0.960784 0.960784 0.960784
0.968627 0.968627 0.968627
0.980392 0.980392 0.980392
0.996078 0.996078 0.996078
0.000000 0.000000 0.000000
0.019608 0.019608 0.019608
0.145098 0.145098 0.145098
0.278431 0.278431 0.278431
0.431373 0.431373 0.431373
0.105882 0.105882 0.105882
0.152941 0.152941 0.152941
0.231373 0.231373 0.231373
0.329412 0.329412 0.329412
0.474510 0.474510 0.474510
0.349020 0.349020 0.349020
0.356863 0.356863 0.356863
0.384314 0.384314 0.384314
0.470588 0.470588 0.470588
0.631373 0.631373 0.631373
0.607843 0.607843 0.607843
0.615686 0.615686 0.615686
0.643137 0.643137 0.643137
0.709804 0.709804 0.709804
0.862745 0.862745 0.862745
0.960784 0.960784 0.960784
0.964706 0.964706 0.964706
0.972549 0.972549 0.972549
0.988235 0.988235 0.988235
0.992157 0.992157 0.992157
0.058824 0.058824 0.058824
0.086275 0.086275 0.086275
0.156863 0.156863 0.156863
0.290196 0.290196 0.290196
0.443137 0.443137 0.443137
0.184314 0.184314 0.184314
0.207843 0.207843 0.207843
0.243137 0.243137 0.243137
0.349020 0.349020 0.349020
0.486275 0.486275 0.486275
0.325490 0.325490 0.325490
0.352941 0.352941 0.352941
0.407843 0.407843 0.407843
0.478431 0.478431 0.478431
0.635294 0.635294 0.635294
0.615686 0.615686 0.615686
0.631373 0.631373 0.631373
0.662745 0.662745 0.662745
0.717647 0.717647 0.717647
0.866667 0.866667 0.866667
0.960784 0.960784 0.960784
0.960784 0.960784 0.960784
0.972549 0.972549 0.972549
0.988235 0.988235 0.988235
0.996078 0.996078 0.996078
0.180392 0.180392 0.180392
0.200000 0.200000 0.200000
0.247059 0.247059 0.247059
0.317647 0.317647 0.317647
0.458824 0.458824 0.458824
0.270588 0.270588 0.270588
0.282353 0.282353 0.282353
0.317647 0.317647 0.317647
0.372549 0.372549 0.372549
0.505882 0.505882 0.505882
0.380392 0.380392 0.380392
0.403922 0.403922 0.403922
0.458824 0.458824 0.458824
0.501961 0.501961 0.501961
0.662745 0.662745 0.662745
0.600000 0.600000 0.600000
0.607843 0.607843 0.607843
0.662745 0.662745 0.662745
0.756863 0.756863 0.756863
0.870588 0.870588 0.870588
0.968627 0.968627 0.968627
0.968627 0.968627 0.968627
0.980392 0.980392 0.980392
0.992157 0.992157 0.992157
1.000000 1.000000 1.000000
0.400000 0.400000 0.400000
0.411765 0.411765 0.411765
0.439216 0.439216 0.439216
0.501961 0.501961 0.501961
0.600000 0.600000 0.600000
0.458824 0.458824 0.458824
0.462745 0.462745 0.462745
0.494118 0.494118 0.494118
0.552941 0.552941 0.552941
0.643137 0.643137 0.643137
0.596078 0.596078 0.596078
0.600000 0.600000 0.600000
0.631373 0.631373 0.631373
0.682353 0.682353 0.682353
0.749020 0.749020 0.749020
0.752941 0.752941 0.752941
0.756863 0.756863 0.756863
0.776471 0.776471 0.776471
0.866667 0.866667 0.866667
0.909804 0.909804 0.909804
0.972549 0.972549 0.972549
0.972549 0.972549 0.972549
0.980392 0.980392 0.980392
0.992157 0.992157 0.992157
1.000000 1.000000 1.000000
