resources/LUTs/Black and White/2.cube
TITLE "B&W Preset #2"
#LUT size
LUT_3D_SIZE 9
#LUT data points
0.000000 0.000000 0.000000
0.000000 0.000000 0.000000
0.015686 0.015686 0.015686
0.047059 0.047059 0.047059
0.109804 0.109804 0.109804
0.180392 0.180392 0.180392
0.254902 0.254902 0.254902
0.325490 0.325490 0.325490
0.415686 0.415686 0.415686
0.019608 0.019608 0.019608
0.023529 0.023529 0.023529
0.050980 0.050980 0.050980
0.086275 0.086275 0.086275
0.145098 0.145098 0.145098
0.207843 0.207843 0.207843
0.274510 0.274510 0.274510
0.345098 0.345098 0.345098
0.431373 0.431373 0.431373
0.105882 0.105882 0.105882
0.113725 0.113725 0.113725
0.137255 0.137255 0.137255
0.172549 0.172549 0.172549
0.211765 0.211765 0.211765
0.258824 0.258824 0.258824
0.317647 0.317647 0.317647
0.380392 0.380392 0.380392
0.466667 0.466667 0.466667
0.223529 0.223529 0.223529
0.227451 0.227451 0.227451
0.243137 0.243137 0.243137
0.262745 0.262745 0.262745
0.301961 0.301961 0.301961
0.333333 0.333333 0.333333
0.376471 0.376471 0.376471
0.439216 0.439216 0.439216
0.541176 0.541176 0.541176
0.333333 0.333333 0.333333
0.341176 0.341176 0.341176
0.349020 0.349020 0.349020
0.356863 0.356863 0.356863
0.380392 0.380392 0.380392
0.419608 0.419608 0.419608
0.458824 0.458824 0.458824
0.521569 0.521569 0.521569
0.627451 0.627451 0.627451
0.443137 0.443137 0.443137
0.447059 0.447059 0.447059
0.450980 0.450980 0.450980
0.458824 0.458824 0.458824
0.478431 0.478431 0.478431
0.505882 0.505882 0.505882
0.568627 0.568627 0.568627
0.643137 0.643137 0.643137
0.741176 0.741176 0.741176
0.600000 0.600000 0.600000
0.603922 0.603922 0.603922
0.607843 0.607843 0.607843
0.619608 0.619608 0.619608
0.635294 0.635294 0.635294
0.662745 0.662745 0.662745
0.690196 0.690196 0.690196
0.764706 0.764706 0.764706
0.850980 0.850980 0.850980
0.792157 0.792157 0.792157
0.800000 0.800000 0.800000
0.800000 0.800000 0.800000
0.811765 0.811765 0.811765
0.823529 0.823529 0.823529
0.843137 0.843137 0.843137
0.866667 0.866667 0.866667
0.890196 0.890196 0.890196
0.933333 0.933333 0.933333
0.964706 0.964706 0.964706
0.960784 0.960784 0.960784
0.960784 0.960784 0.960784
0.960784 0.960784 0.960784
0.968627 0.968627 0.968627
0.976471 0.976471 0.976471
0.980392 0.980392 0.980392
0.992157 0.992157 0.992157
0.996078 0.996078 0.996078
0.003922 0.003922 0.003922
0.003922 0.003922 0.003922
0.023529 0.023529 0.023529
0.070588 0.070588 0.070588
0.133333 0.133333 0.133333
0.200000 0.200000 0.200000
0.266667 0.266667 0.266667
0.337255 0.337255 0.337255
0.419608 0.419608 0.419608
0.019608 0.019608 0.019608
0.039216 0.039216 0.039216
0.058824 0.058824 0.058824
0.105882 0.105882 0.105882
0.160784 0.160784 0.160784
0.219608 0.219608 0.219608
0.286275 0.286275 0.286275
0.360784 0.360784 0.360784
0.447059 0.447059 0.447059
0.117647 0.117647 0.117647
0.125490 0.125490 0.125490
0.141176 0.141176 0.141176
0.180392 0.180392 0.180392
0.219608 0.219608 0.219608
0.266667 0.266667 0.266667
0.321569 0.321569 0.321569
0.384314 0.384314 0.384314
0.466667 0.466667 0.466667
0.231373 0.231373 0.231373
0.235294 0.235294 0.235294
0.243137 0.243137 0.243137
0.266667 0.266667 0.266667
0.305882 0.305882 0.305882
0.341176 0.341176 0.341176
0.388235 0.388235 0.388235
0.454902 0.454902 0.454902
0.552941 0.552941 0.552941
0.337255 0.337255 0.337255
0.345098 0.345098 0.345098
0.349020 0.349020 0.349020
0.364706 0.364706 0.364706
0.380392 0.380392 0.380392
0.419608 0.419608 0.419608
0.462745 0.462745 0.462745
0.533333 0.533333 0.533333
0.631373 0.631373 0.631373
0.443137 0.443137 0.443137
0.447059 0.447059 0.447059
0.450980 0.450980 0.450980
0.462745 0.462745 0.462745
0.482353 0.482353 0.482353
0.505882 0.505882 0.505882
0.572549 0.572549 0.572549
0.643137 0.643137 0.643137
0.741176 0.741176 0.741176
0.603922 0.603922 0.603922
0.603922 0.603922 0.603922
0.607843 0.607843 0.607843
0.619608 0.619608 0.619608
0.639216 0.639216 0.639216
0.666667 0.666667 0.666667
0.701961 0.701961 0.701961
0.772549 0.772549 0.772549
0.862745 0.862745 0.862745
0.800000 0.800000 0.800000
0.796078 0.796078 0.796078
0.803922 0.803922 0.803922
0.811765 0.811765 0.811765
0.823529 0.823529 0.823529
0.843137 0.843137 0.843137
0.858824 0.858824 0.858824
0.886275 0.886275 0.886275
0.933333 0.933333 0.933333
0.960784 0.960784 0.960784
0.960784 0.960784 0.960784
0.964706 0.964706 0.964706
0.964706 0.964706 0.964706
0.968627 0.968627 0.968627
0.976471 0.976471 0.976471
0.988235 0.988235 0.988235
0.992157 0.992157 0.992157
0.996078 0.996078 0.996078
0.000000 0.000000 0.000000
0.007843 0.007843 0.007843
0.019608 0.019608 0.019608
0.078431 0.078431 0.078431
0.145098 0.145098 0.145098
0.211765 0.211765 0.211765
0.278431 0.278431 0.278431
0.349020 0.349020 0.349020
0.431373 0.431373 0.431373
0.035294 0.035294 0.035294
0.047059 0.047059 0.047059
0.066667 0.066667 0.066667
0.117647 0.117647 0.117647
0.176471 0.176471 0.176471
0.235294 0.235294 0.235294
0.294118 0.294118 0.294118
0.364706 0.364706 0.364706
0.447059 0.447059 0.447059
0.105882 0.105882 0.105882
0.125490 0.125490 0.125490
0.152941 0.152941 0.152941
0.188235 0.188235 0.188235
0.231373 0.231373 0.231373
0.282353 0.282353 0.282353
0.329412 0.329412 0.329412
0.396078 0.396078 0.396078
0.474510 0.474510 0.474510
0.239216 0.239216 0.239216
0.243137 0.243137 0.243137
0.258824 0.258824 0.258824
0.274510 0.274510 0.274510
0.309804 0.309804 0.309804
0.341176 0.341176 0.341176
0.396078 0.396078 0.396078
0.458824 0.458824 0.458824
0.556863 0.556863 0.556863
0.349020 0.349020 0.349020
0.349020 0.349020 0.349020
0.356863 0.356863 0.356863
0.364706 0.364706 0.364706
0.384314 0.384314 0.384314
0.419608 0.419608 0.419608
0.470588 0.470588 0.470588
0.533333 0.533333 0.533333
0.631373 0.631373 0.631373
0.454902 0.454902 0.454902
0.450980 0.450980 0.450980
0.458824 0.458824 0.458824
0.466667 0.466667 0.466667
0.486275 0.486275 0.486275
0.509804 0.509804 0.509804
0.576471 0.576471 0.576471
0.650980 0.650980 0.650980
0.745098 0.745098 0.745098
0.607843 0.607843 0.607843
0.607843 0.607843 0.607843
0.615686 0.615686 0.615686
0.627451 0.627451 0.627451
0.643137 0.643137 0.643137
0.670588 0.670588 0.670588
0.709804 0.709804 0.709804
0.788235 0.788235 0.788235
0.862745 0.862745 0.862745
0.796078 0.796078 0.796078
0.796078 0.796078 0.796078
0.807843 0.807843 0.807843
0.815686 0.815686 0.815686
0.827451 0.827451 0.827451
0.839216 0.839216 0.839216
0.858824 0.858824 0.858824
0.890196 0.890196 0.890196
0.937255 0.937255 0.937255
0.960784 0.960784 0.960784
0.960784 0.960784 0.960784
0.964706 0.964706 0.964706
0.968627 0.968627 0.968627
0.972549 0.972549 0.972549
0.972549 0.972549 0.972549
0.988235 0.988235 0.988235
0.992157 0.992157 0.992157
0.992157 0.992157 0.992157
0.019608 0.019608 0.019608
0.023529 0.023529 0.023529
0.047059 0.047059 0.047059
0.082353 0.082353 0.082353
0.145098 0.145098 0.145098
0.211765 0.211765 0.211765
0.282353 0.282353 0.282353
0.360784 0.360784 0.360784
0.435294 0.435294 0.435294
0.070588 0.070588 0.070588
0.078431 0.078431 0.078431
0.094118 0.094118 0.094118
0.125490 0.125490 0.125490
0.176471 0.176471 0.176471
0.243137 0.243137 0.243137
0.305882 0.305882 0.305882
0.376471 0.376471 0.376471
0.447059 0.447059 0.447059
0.129412 0.129412 0.129412
0.149020 0.149020 0.149020
0.176471 0.176471 0.176471
0.192157 0.192157 0.192157
0.239216 0.239216 0.239216
0.290196 0.290196 0.290196
0.341176 0.341176 0.341176
0.403922 0.403922 0.403922
0.478431 0.478431 0.478431
0.227451 0.227451 0.227451
0.231373 0.231373 0.231373
0.254902 0.254902 0.254902
0.286275 0.286275 0.286275
0.313725 0.313725 0.313725
0.352941 0.352941 0.352941
0.400000 0.400000 0.400000
0.466667 0.466667 0.466667
0.560784 0.560784 0.560784
0.349020 0.349020 0.349020
0.352941 0.352941 0.352941
0.364706 0.364706 0.364706
0.376471 0.376471 0.376471
0.392157 0.392157 0.392157
0.427451 0.427451 0.427451
0.470588 0.470588 0.470588
0.533333 0.533333 0.533333
0.635294 0.635294 0.635294
0.458824 0.458824 0.458824
0.462745 0.462745 0.462745
0.466667 0.466667 0.466667
0.478431 0.478431 0.478431
0.498039 0.498039 0.498039
0.521569 0.521569 0.521569
0.584314 0.584314 0.584314
0.654902 0.654902 0.654902
0.745098 0.745098 0.745098
0.615686 0.615686 0.615686
0.619608 0.619608 0.619608
0.623529 0.623529 0.623529
0.635294 0.635294 0.635294
0.650980 0.650980 0.650980
0.674510 0.674510 0.674510
0.713725 0.713725 0.713725
0.788235 0.788235 0.788235
0.866667 0.866667 0.866667
0.807843 0.807843 0.807843
0.803922 0.803922 0.803922
0.811765 0.811765 0.811765
0.819608 0.819608 0.819608
0.831373 0.831373 0.831373
0.847059 0.847059 0.847059
0.866667 0.866667 0.866667
0.894118 0.894118 0.894118
0.941176 0.941176 0.941176
0.964706 0.964706 0.964706
0.960784 0.960784 0.960784
0.964706 0.964706 0.964706
0.968627 0.968627 0.968627
0.972549 0.972549 0.972549
0.980392 0.980392 0.980392
0.984314 0.984314 0.984314
0.992157 0.992157 0.992157
1.000000 1.000000 1.000000
0.058824 0.058824 0.058824
0.066667 0.066667 0.066667
0.086275 0.086275 0.086275
0.117647 0.117647 0.117647
0.156863 0.156863 0.156863
0.211765 0.211765 0.211765
0.290196 0.290196 0.290196
0.368627 0.368627 0.368627
0.443137 0.443137 0.443137
0.109804 0.109804 0.109804
0.117647 0.117647 0.117647
0.129412 0.129412 0.129412
0.152941 0.152941 0.152941
0.188235 0.188235 0.188235
0.235294 0.235294 0.235294
0.313725 0.313725 0.313725
0.384314 0.384314 0.384314
0.458824 0.458824 0.458824
0.184314 0.184314 0.184314
0.200000 0.200000 0.200000
0.207843 0.207843 0.207843
0.219608 0.219608 0.219608
0.243137 0.243137 0.243137
0.286275 0.286275 0.286275
0.349020 0.349020 0.349020
0.411765 0.411765 0.411765
0.486275 0.486275 0.486275
0.247059 0.247059 0.247059
0.250980 0.250980 0.250980
0.274510 0.274510 0.274510
0.305882 0.305882 0.305882
0.321569 0.321569 0.321569
0.364706 0.364706 0.364706
0.411765 0.411765 0.411765
0.466667 0.466667 0.466667
0.556863 0.556863 0.556863
0.325490 0.325490 0.325490
0.337255 0.337255 0.337255
0.352941 0.352941 0.352941
0.376471 0.376471 0.376471
0.407843 0.407843 0.407843
0.435294 0.435294 0.435294
0.478431 0.478431 0.478431
0.549020 0.549020 0.549020
0.635294 0.635294 0.635294
0.454902 0.454902 0.454902
0.458824 0.458824 0.458824
0.466667 0.466667 0.466667
0.486275 0.486275 0.486275
0.505882 0.505882 0.505882
0.529412 0.529412 0.529412
0.588235 0.588235 0.588235
0.658824 0.658824 0.658824
0.749020 0.749020 0.749020
0.615686 0.615686 0.615686
0.623529 0.623529 0.623529
0.631373 0.631373 0.631373
0.643137 0.643137 0.643137
0.662745 0.662745 0.662745
0.686275 0.686275 0.686275
0.717647 0.717647 0.717647
0.792157 0.792157 0.792157
0.866667 0.866667 0.866667
0.807843 0.807843 0.807843
0.811765 0.811765 0.811765
0.815686 0.815686 0.815686
0.827451 0.827451 0.827451
0.835294 0.835294 0.835294
0.850980 0.850980 0.850980
0.870588 0.870588 0.870588
0.894118 0.894118 0.894118
0.945098 0.945098 0.945098
0.960784 0.960784 0.960784
0.960784 0.960784 0.960784
0.960784 0.960784 0.960784
0.968627 0.968627 0.968627
0.972549 0.972549 0.972549
0.976471 0.976471 0.976471
0.988235 0.988235 0.988235
0.992157 0.992157 0.992157
0.996078 0.996078 0.996078
0.113725 0.113725 0.113725
0.117647 0.117647 0.117647
0.137255 0.137255 0.137255
0.160784 0.160784 0.160784
0.192157 0.192157 0.192157
0.231373 0.231373 0.231373
0.290196 0.290196 0.290196
0.372549 0.372549 0.372549
0.458824 0.458824 0.458824
0.160784 0.160784 0.160784
0.160784 0.160784 0.160784
0.176471 0.176471 0.176471
0.192157 0.192157 0.192157
0.219608 0.219608 0.219608
0.262745 0.262745 0.262745
0.309804 0.309804 0.309804
0.392157 0.392157 0.392157
0.482353 0.482353 0.482353
0.227451 0.227451 0.227451
0.231373 0.231373 0.231373
0.239216 0.239216 0.239216
0.250980 0.250980 0.250980
0.278431 0.278431 0.278431
0.301961 0.301961 0.301961
0.349020 0.349020 0.349020
0.419608 0.419608 0.419608
0.505882 0.505882 0.505882
0.282353 0.282353 0.282353
0.294118 0.294118 0.294118
0.317647 0.317647 0.317647
0.337255 0.337255 0.337255
0.352941 0.352941 0.352941
0.368627 0.368627 0.368627
0.415686 0.415686 0.415686
0.490196 0.490196 0.490196
0.580392 0.580392 0.580392
0.356863 0.356863 0.356863
0.352941 0.352941 0.352941
0.376471 0.376471 0.376471
0.392157 0.392157 0.392157
0.427451 0.427451 0.427451
0.443137 0.443137 0.443137
0.490196 0.490196 0.490196
0.556863 0.556863 0.556863
0.639216 0.639216 0.639216
0.435294 0.435294 0.435294
0.443137 0.443137 0.443137
0.454902 0.454902 0.454902
0.470588 0.470588 0.470588
0.501961 0.501961 0.501961
0.545098 0.545098 0.545098
0.596078 0.596078 0.596078
0.662745 0.662745 0.662745
0.749020 0.749020 0.749020
0.619608 0.619608 0.619608
0.619608 0.619608 0.619608
0.631373 0.631373 0.631373
0.650980 0.650980 0.650980
0.678431 0.678431 0.678431
0.705882 0.705882 0.705882
0.737255 0.737255 0.737255
0.807843 0.807843 0.807843
0.870588 0.870588 0.870588
0.811765 0.811765 0.811765
0.811765 0.811765 0.811765
0.815686 0.815686 0.815686
0.827451 0.827451 0.827451
0.847059 0.847059 0.847059
0.858824 0.858824 0.858824
0.882353 0.882353 0.882353
0.905882 0.905882 0.905882
0.956863 0.956863 0.956863
0.968627 0.968627 0.968627
0.968627 0.968627 0.968627
0.968627 0.968627 0.968627
0.972549 0.972549 0.972549
0.976471 0.976471 0.976471
0.984314 0.984314 0.984314
0.988235 0.988235 0.988235
0.992157 0.992157 0.992157
0.996078 0.996078 0.996078
0.180392 0.180392 0.180392
0.192157 0.192157 0.192157
0.200000 0.200000 0.200000
0.219608 0.219608 0.219608
0.247059 0.247059 0.247059
0.278431 0.278431 0.278431
0.317647 0.317647 0.317647
0.364706 0.364706 0.364706
0.458824 0.458824 0.458824
0.215686 0.215686 0.215686
0.223529 0.223529 0.223529
0.231373 0.231373 0.231373
0.250980 0.250980 0.250980
0.270588 0.270588 0.270588
0.301961 0.301961 0.301961
0.337255 0.337255 0.337255
0.384314 0.384314 0.384314
0.482353 0.482353 0.482353
0.270588 0.270588 0.270588
0.278431 0.278431 0.278431
0.282353 0.282353 0.282353
0.298039 0.298039 0.298039
0.317647 0.317647 0.317647
0.337255 0.337255 0.337255
0.372549 0.372549 0.372549
0.411765 0.411765 0.411765
0.505882 0.505882 0.505882
0.349020 0.349020 0.349020
0.352941 0.352941 0.352941
0.360784 0.360784 0.360784
0.372549 0.372549 0.372549
0.384314 0.384314 0.384314
0.407843 0.407843 0.407843
0.435294 0.435294 0.435294
0.482353 0.482353 0.482353
0.592157 0.592157 0.592157
0.380392 0.380392 0.380392
0.388235 0.388235 0.388235
0.403922 0.403922 0.403922
0.439216 0.439216 0.439216
0.458824 0.458824 0.458824
0.474510 0.474510 0.474510
0.501961 0.501961 0.501961
0.556863 0.556863 0.556863
0.662745 0.662745 0.662745
0.466667 0.466667 0.466667
0.470588 0.470588 0.470588
0.478431 0.478431 0.478431
0.498039 0.498039 0.498039
0.529412 0.529412 0.529412
0.584314 0.584314 0.584314
0.607843 0.607843 0.607843
0.674510 0.674510 0.674510
0.752941 0.752941 0.752941
0.600000 0.600000 0.600000
0.600000 0.600000 0.600000
0.607843 0.607843 0.607843
0.631373 0.631373 0.631373
0.662745 0.662745 0.662745
0.705882 0.705882 0.705882
0.756863 0.756863 0.756863
0.815686 0.815686 0.815686
0.870588 0.870588 0.870588
0.807843 0.807843 0.807843
0.811765 0.811765 0.811765
0.815686 0.815686 0.815686
0.827451 0.827451 0.827451
0.847059 0.847059 0.847059
0.870588 0.870588 0.870588
0.890196 0.890196 0.890196
0.917647 0.917647 0.917647
0.960784 0.960784 0.960784
0.968627 0.968627 0.968627
0.964706 0.964706 0.964706
0.968627 0.968627 0.968627
0.972549 0.972549 0.972549
0.980392 0.980392 0.980392
0.984314 0.984314 0.984314
0.992157 0.992157 0.992157
0.996078 0.996078 0.996078
1.000000 1.000000 1.000000
0.266667 0.266667 0.266667
0.270588 0.270588 0.270588
0.282353 0.282353 0.282353
0.298039 0.298039 0.298039
0.321569 0.321569 0.321569
0.349020 0.349020 0.349020
0.380392 0.380392 0.380392
0.419608 0.419608 0.419608
0.466667 0.466667 0.466667
0.294118 0.294118 0.294118
0.298039 0.298039 0.298039
0.305882 0.305882 0.305882
0.321569 0.321569 0.321569
0.341176 0.341176 0.341176
0.368627 0.368627 0.368627
0.396078 0.396078 0.396078
0.439216 0.439216 0.439216
0.486275 0.486275 0.486275
0.341176 0.341176 0.341176
0.349020 0.349020 0.349020
0.352941 0.352941 0.352941
0.360784 0.360784 0.360784
0.380392 0.380392 0.380392
0.400000 0.400000 0.400000
0.427451 0.427451 0.427451
0.466667 0.466667 0.466667
0.509804 0.509804 0.509804
0.407843 0.407843 0.407843
0.411765 0.411765 0.411765
0.415686 0.415686 0.415686
0.423529 0.423529 0.423529
0.443137 0.443137 0.443137
0.458824 0.458824 0.458824
0.490196 0.490196 0.490196
0.529412 0.529412 0.529412
0.588235 0.588235 0.588235
0.458824 0.458824 0.458824
0.466667 0.466667 0.466667
0.478431 0.478431 0.478431
0.501961 0.501961 0.501961
0.509804 0.509804 0.509804
0.533333 0.533333 0.533333
0.564706 0.564706 0.564706
0.600000 0.600000 0.600000
0.662745 0.662745 0.662745
0.513725 0.513725 0.513725
0.517647 0.517647 0.517647
0.521569 0.521569 0.521569
0.549020 0.549020 0.549020
0.603922 0.603922 0.603922
0.639216 0.639216 0.639216
0.666667 0.666667 0.666667
0.701961 0.701961 0.701961
0.760784 0.760784 0.760784
0.662745 0.662745 0.662745
0.658824 0.658824 0.658824
0.662745 0.662745 0.662745
0.682353 0.682353 0.682353
0.705882 0.705882 0.705882
0.741176 0.741176 0.741176
0.800000 0.800000 0.800000
0.827451 0.827451 0.827451
0.882353 0.882353 0.882353
0.792157 0.792157 0.792157
0.792157 0.792157 0.792157
0.796078 0.796078 0.796078
0.811765 0.811765 0.811765
0.831373 0.831373 0.831373
0.858824 0.858824 0.858824
0.890196 0.890196 0.890196
0.929412 0.929412 0.929412
0.960784 0.960784 0.960784
0.968627 0.968627 0.968627
0.968627 0.968627 0.968627
0.968627 0.968627 0.968627
0.972549 0.972549 0.972549
0.980392 0.980392 0.980392
0.988235 0.988235 0.988235
0.992157 0.992157 0.992157
0.996078 0.996078 0.996078
1.000000 1.000000 1.000000
0.400000 0.400000 0.400000
0.396078 0.396078 0.396078
0.411765 0.411765 0.411765
0.419608 0.419608 0.419608
0.439216 0.439216 0.439216
0.466667 0.466667 0.466667
0.501961 0.501961 0.501961
0.545098 0.545098 0.545098
0.600000 0.600000 0.600000
0.423529 0.423529 0.423529
0.419608 0.419608 0.419608
0.431373 0.431373 0.431373
0.443137 0.443137 0.443137
0.462745 0.462745 0.462745
0.486275 0.486275 0.486275
0.525490 0.525490 0.525490
0.564706 0.564706 0.564706
0.619608 0.619608 0.619608
0.458824 0.458824 0.458824
0.458824 0.458824 0.458824
0.462745 0.462745 0.462745
0.470588 0.470588 0.470588
0.494118 0.494118 0.494118
0.521569 0.521569 0.521569
0.552941 0.552941 0.552941
0.592157 0.592157 0.592157
0.643137 0.643137 0.643137
0.529412 0.529412 0.529412
0.521569 0.521569 0.521569
0.529412 0.529412 0.529412
0.545098 0.545098 0.545098
0.564706 0.564706 0.564706
0.588235 0.588235 0.588235
0.619608 0.619608 0.619608
0.654902 0.654902 0.654902
0.701961 0.701961 0.701961
0.596078 0.596078 0.596078
0.600000 0.600000 0.600000
0.600000 0.600000 0.600000
0.615686 0.615686 0.615686
0.631373 0.631373 0.631373
0.658824 0.658824 0.658824
0.682353 0.682353 0.682353
0.713725 0.713725 0.713725
0.749020 0.749020 0.749020
0.623529 0.623529 0.623529
0.631373 0.631373 0.631373
0.650980 0.650980 0.650980
0.682353 0.682353 0.682353
0.717647 0.717647 0.717647
0.741176 0.741176 0.741176
0.764706 0.764706 0.764706
0.796078 0.796078 0.796078
0.827451 0.827451 0.827451
0.752941 0.752941 0.752941
0.756863 0.756863 0.756863
0.756863 0.756863 0.756863
0.764706 0.764706 0.764706
0.776471 0.776471 0.776471
0.831373 0.831373 0.831373
0.866667 0.866667 0.866667
0.886275 0.886275 0.886275
0.909804 0.909804 0.909804
0.886275 0.886275 0.886275
0.882353 0.882353 0.882353
0.886275 0.886275 0.886275
0.890196 0.890196 0.890196
0.901961 0.901961 0.901961
0.913725 0.913725 0.913725
0.929412 0.929412 0.929412
0.960784 0.960784 0.960784
0.964706 0.964706 0.964706
0.972549 0.972549 0.972549
0.968627 0.968627 0.968627
0.972549 0.972549 0.972549
0.976471 0.976471 0.976471
0.980392 0.980392 0.980392
0.984314 0.984314 0.984314
0.992157 0.992157 0.992157
0.996078 0.996078 0.996078
1.000000 1.000000 1.000000
