resources/LUTs/Black and White/2.cube
TITLE "B&W Preset #2"
#LUT size
LUT_3D_SIZE 25
#LUT data points
0.000000 0.000000 0.000000
0.000000 0.000000 0.000000
0.000000 0.000000 0.000000
0.000000 0.000000 0.000000
0.000000 0.000000 0.000000
0.007843 0.007843 0.007843
0.015686 0.015686 0.015686
0.019608 0.019608 0.019608
0.031373 0.031373 0.031373
0.047059 0.047059 0.047059
0.070588 0.070588 0.070588
0.090196 0.090196 0.090196
0.109804 0.109804 0.109804
0.137255 0.137255 0.137255
0.160784 0.160784 0.160784
0.180392 0.180392 0.180392
0.203922 0.203922 0.203922
0.227451 0.227451 0.227451
0.254902 0.254902 0.254902
0.278431 0.278431 0.278431
0.301961 0.301961 0.301961
0.325490 0.325490 0.325490
0.356863 0.356863 0.356863
0.388235 0.388235 0.388235
0.415686 0.415686 0.415686
0.000000 0.000000 0.000000
0.003922 0.003922 0.003922
0.003922 0.003922 0.003922
0.007843 0.007843 0.007843
0.011765 0.011765 0.011765
0.011765 0.011765 0.011765
0.019608 0.019608 0.019608
0.027451 0.027451 0.027451
0.043137 0.043137 0.043137
0.062745 0.062745 0.062745
0.078431 0.078431 0.078431
0.098039 0.098039 0.098039
0.117647 0.117647 0.117647
0.137255 0.137255 0.137255
0.168627 0.168627 0.168627
0.192157 0.192157 0.192157
0.211765 0.211765 0.211765
0.231373 0.231373 0.231373
0.258824 0.258824 0.258824
0.282353 0.282353 0.282353
0.313725 0.313725 0.313725
0.333333 0.333333 0.333333
0.360784 0.360784 0.360784
0.384314 0.384314 0.384314
0.419608 0.419608 0.419608
0.007843 0.007843 0.007843
0.003922 0.003922 0.003922
0.007843 0.007843 0.007843
0.011765 0.011765 0.011765
0.011765 0.011765 0.011765
0.019608 0.019608 0.019608
0.027451 0.027451 0.027451
0.039216 0.039216 0.039216
0.058824 0.058824 0.058824
0.070588 0.070588 0.070588
0.086275 0.086275 0.086275
0.109804 0.109804 0.109804
0.133333 0.133333 0.133333
0.149020 0.149020 0.149020
0.172549 0.172549 0.172549
0.196078 0.196078 0.196078
0.215686 0.215686 0.215686
0.243137 0.243137 0.243137
0.262745 0.262745 0.262745
0.286275 0.286275 0.286275
0.309804 0.309804 0.309804
0.337255 0.337255 0.337255
0.364706 0.364706 0.364706
0.396078 0.396078 0.396078
0.427451 0.427451 0.427451
0.019608 0.019608 0.019608
0.015686 0.015686 0.015686
0.019608 0.019608 0.019608
0.023529 0.023529 0.023529
0.031373 0.031373 0.031373
0.043137 0.043137 0.043137
0.050980 0.050980 0.050980
0.062745 0.062745 0.062745
0.074510 0.074510 0.074510
0.086275 0.086275 0.086275
0.109804 0.109804 0.109804
0.125490 0.125490 0.125490
0.145098 0.145098 0.145098
0.164706 0.164706 0.164706
0.188235 0.188235 0.188235
0.207843 0.207843 0.207843
0.227451 0.227451 0.227451
0.247059 0.247059 0.247059
0.274510 0.274510 0.274510
0.294118 0.294118 0.294118
0.317647 0.317647 0.317647
0.345098 0.345098 0.345098
0.372549 0.372549 0.372549
0.403922 0.403922 0.403922
0.431373 0.431373 0.431373
0.039216 0.039216 0.039216
0.043137 0.043137 0.043137
0.047059 0.047059 0.047059
0.047059 0.047059 0.047059
0.054902 0.054902 0.054902
0.074510 0.074510 0.074510
0.078431 0.078431 0.078431
0.086275 0.086275 0.086275
0.101961 0.101961 0.101961
0.113725 0.113725 0.113725
0.129412 0.129412 0.129412
0.145098 0.145098 0.145098
0.164706 0.164706 0.164706
0.180392 0.180392 0.180392
0.200000 0.200000 0.200000
0.223529 0.223529 0.223529
0.243137 0.243137 0.243137
0.262745 0.262745 0.262745
0.282353 0.282353 0.282353
0.309804 0.309804 0.309804
0.329412 0.329412 0.329412
0.356863 0.356863 0.356863
0.384314 0.384314 0.384314
0.415686 0.415686 0.415686
0.443137 0.443137 0.443137
0.074510 0.074510 0.074510
0.074510 0.074510 0.074510
0.078431 0.078431 0.078431
0.082353 0.082353 0.082353
0.086275 0.086275 0.086275
0.094118 0.094118 0.094118
0.109804 0.109804 0.109804
0.121569 0.121569 0.121569
0.125490 0.125490 0.125490
0.141176 0.141176 0.141176
0.160784 0.160784 0.160784
0.172549 0.172549 0.172549
0.188235 0.188235 0.188235
0.207843 0.207843 0.207843
0.223529 0.223529 0.223529
0.243137 0.243137 0.243137
0.258824 0.258824 0.258824
0.278431 0.278431 0.278431
0.298039 0.298039 0.298039
0.321569 0.321569 0.321569
0.345098 0.345098 0.345098
0.364706 0.364706 0.364706
0.392157 0.392157 0.392157
0.419608 0.419608 0.419608
0.454902 0.454902 0.454902
0.105882 0.105882 0.105882
0.113725 0.113725 0.113725
0.109804 0.109804 0.109804
0.113725 0.113725 0.113725
0.121569 0.121569 0.121569
0.129412 0.129412 0.129412
0.137255 0.137255 0.137255
0.149020 0.149020 0.149020
0.160784 0.160784 0.160784
0.172549 0.172549 0.172549
0.184314 0.184314 0.184314
0.200000 0.200000 0.200000
0.211765 0.211765 0.211765
0.227451 0.227451 0.227451
0.247059 0.247059 0.247059
0.258824 0.258824 0.258824
0.282353 0.282353 0.282353
0.298039 0.298039 0.298039
0.317647 0.317647 0.317647
0.337255 0.337255 0.337255
0.360784 0.360784 0.360784
0.380392 0.380392 0.380392
0.407843 0.407843 0.407843
0.435294 0.435294 0.435294
0.466667 0.466667 0.466667
0.149020 0.149020 0.149020
0.152941 0.152941 0.152941
0.149020 0.149020 0.149020
0.152941 0.152941 0.152941
0.156863 0.156863 0.156863
0.160784 0.160784 0.160784
0.168627 0.168627 0.168627
0.180392 0.180392 0.180392
0.196078 0.196078 0.196078
0.207843 0.207843 0.207843
0.219608 0.219608 0.219608
0.227451 0.227451 0.227451
0.247059 0.247059 0.247059
0.254902 0.254902 0.254902
0.270588 0.270588 0.270588
0.286275 0.286275 0.286275
0.301961 0.301961 0.301961
0.317647 0.317647 0.317647
0.333333 0.333333 0.333333
0.349020 0.349020 0.349020
0.376471 0.376471 0.376471
0.400000 0.400000 0.400000
0.423529 0.423529 0.423529
0.454902 0.454902 0.454902
0.482353 0.482353 0.482353
0.188235 0.188235 0.188235
0.192157 0.192157 0.192157
0.188235 0.188235 0.188235
0.192157 0.192157 0.192157
0.196078 0.196078 0.196078
0.200000 0.200000 0.200000
0.211765 0.211765 0.211765
0.215686 0.215686 0.215686
0.219608 0.219608 0.219608
0.227451 0.227451 0.227451
0.250980 0.250980 0.250980
0.258824 0.258824 0.258824
0.270588 0.270588 0.270588
0.282353 0.282353 0.282353
0.294118 0.294118 0.294118
0.309804 0.309804 0.309804
0.325490 0.325490 0.325490
0.341176 0.341176 0.341176
0.356863 0.356863 0.356863
0.368627 0.368627 0.368627
0.392157 0.392157 0.392157
0.415686 0.415686 0.415686
0.439216 0.439216 0.439216
0.470588 0.470588 0.470588
0.501961 0.501961 0.501961
0.223529 0.223529 0.223529
0.227451 0.227451 0.227451
0.227451 0.227451 0.227451
0.227451 0.227451 0.227451
0.231373 0.231373 0.231373
0.239216 0.239216 0.239216
0.243137 0.243137 0.243137
0.247059 0.247059 0.247059
0.254902 0.254902 0.254902
0.262745 0.262745 0.262745
0.270588 0.270588 0.270588
0.290196 0.290196 0.290196
0.301961 0.301961 0.301961
0.313725 0.313725 0.313725
0.321569 0.321569 0.321569
0.333333 0.333333 0.333333
0.345098 0.345098 0.345098
0.360784 0.360784 0.360784
0.376471 0.376471 0.376471
0.396078 0.396078 0.396078
0.415686 0.415686 0.415686
0.439216 0.439216 0.439216
0.466667 0.466667 0.466667
0.498039 0.498039 0.498039
0.541176 0.541176 0.541176
0.262745 0.262745 0.262745
0.262745 0.262745 0.262745
0.266667 0.266667 0.266667
0.270588 0.270588 0.270588
0.266667 0.266667 0.266667
0.270588 0.270588 0.270588
0.278431 0.278431 0.278431
0.282353 0.282353 0.282353
0.290196 0.290196 0.290196
0.294118 0.294118 0.294118
0.301961 0.301961 0.301961
0.309804 0.309804 0.309804
0.329412 0.329412 0.329412
0.341176 0.341176 0.341176
0.349020 0.349020 0.349020
0.360784 0.360784 0.360784
0.372549 0.372549 0.372549
0.388235 0.388235 0.388235
0.403922 0.403922 0.403922
0.415686 0.415686 0.415686
0.435294 0.435294 0.435294
0.462745 0.462745 0.462745
0.490196 0.490196 0.490196
0.517647 0.517647 0.517647
0.560784 0.560784 0.560784
0.301961 0.301961 0.301961
0.301961 0.301961 0.301961
0.305882 0.305882 0.305882
0.305882 0.305882 0.305882
0.305882 0.305882 0.305882
0.305882 0.305882 0.305882
0.313725 0.313725 0.313725
0.313725 0.313725 0.313725
0.321569 0.321569 0.321569
0.325490 0.325490 0.325490
0.333333 0.333333 0.333333
0.341176 0.341176 0.341176
0.349020 0.349020 0.349020
0.368627 0.368627 0.368627
0.380392 0.380392 0.380392
0.388235 0.388235 0.388235
0.403922 0.403922 0.403922
0.415686 0.415686 0.415686
0.427451 0.427451 0.427451
0.443137 0.443137 0.443137
0.462745 0.462745 0.462745
0.490196 0.490196 0.490196
0.517647 0.517647 0.517647
0.552941 0.552941 0.552941
0.596078 0.596078 0.596078
0.333333 0.333333 0.333333
0.337255 0.337255 0.337255
0.337255 0.337255 0.337255
0.341176 0.341176 0.341176
0.337255 0.337255 0.337255
0.345098 0.345098 0.345098
0.349020 0.349020 0.349020
0.349020 0.349020 0.349020
0.349020 0.349020 0.349020
0.356863 0.356863 0.356863
0.364706 0.364706 0.364706
0.372549 0.372549 0.372549
0.380392 0.380392 0.380392
0.384314 0.384314 0.384314
0.403922 0.403922 0.403922
0.419608 0.419608 0.419608
0.431373 0.431373 0.431373
0.443137 0.443137 0.443137
0.458824 0.458824 0.458824
0.470588 0.470588 0.470588
0.498039 0.498039 0.498039
0.521569 0.521569 0.521569
0.552941 0.552941 0.552941
0.588235 0.588235 0.588235
0.627451 0.627451 0.627451
0.372549 0.372549 0.372549
0.368627 0.368627 0.368627
0.372549 0.372549 0.372549
0.372549 0.372549 0.372549
0.376471 0.376471 0.376471
0.376471 0.376471 0.376471
0.376471 0.376471 0.376471
0.384314 0.384314 0.384314
0.380392 0.380392 0.380392
0.396078 0.396078 0.396078
0.396078 0.396078 0.396078
0.403922 0.403922 0.403922
0.407843 0.407843 0.407843
0.411765 0.411765 0.411765
0.419608 0.419608 0.419608
0.439216 0.439216 0.439216
0.458824 0.458824 0.458824
0.474510 0.474510 0.474510
0.490196 0.490196 0.490196
0.513725 0.513725 0.513725
0.533333 0.533333 0.533333
0.560784 0.560784 0.560784
0.592157 0.592157 0.592157
0.623529 0.623529 0.623529
0.658824 0.658824 0.658824
0.407843 0.407843 0.407843
0.407843 0.407843 0.407843
0.407843 0.407843 0.407843
0.411765 0.411765 0.411765
0.411765 0.411765 0.411765
0.407843 0.407843 0.407843
0.415686 0.415686 0.415686
0.415686 0.415686 0.415686
0.419608 0.419608 0.419608
0.423529 0.423529 0.423529
0.427451 0.427451 0.427451
0.439216 0.439216 0.439216
0.439216 0.439216 0.439216
0.447059 0.447059 0.447059
0.454902 0.454902 0.454902
0.466667 0.466667 0.466667
0.486275 0.486275 0.486275
0.509804 0.509804 0.509804
0.529412 0.529412 0.529412
0.549020 0.549020 0.549020
0.576471 0.576471 0.576471
0.603922 0.603922 0.603922
0.635294 0.635294 0.635294
0.670588 0.670588 0.670588
0.701961 0.701961 0.701961
0.443137 0.443137 0.443137
0.439216 0.439216 0.439216
0.443137 0.443137 0.443137
0.447059 0.447059 0.447059
0.447059 0.447059 0.447059
0.447059 0.447059 0.447059
0.450980 0.450980 0.450980
0.450980 0.450980 0.450980
0.458824 0.458824 0.458824
0.458824 0.458824 0.458824
0.466667 0.466667 0.466667
0.474510 0.474510 0.474510
0.478431 0.478431 0.478431
0.486275 0.486275 0.486275
0.494118 0.494118 0.494118
0.505882 0.505882 0.505882
0.517647 0.517647 0.517647
0.541176 0.541176 0.541176
0.568627 0.568627 0.568627
0.592157 0.592157 0.592157
0.615686 0.615686 0.615686
0.643137 0.643137 0.643137
0.670588 0.670588 0.670588
0.701961 0.701961 0.701961
0.741176 0.741176 0.741176
0.486275 0.486275 0.486275
0.486275 0.486275 0.486275
0.486275 0.486275 0.486275
0.486275 0.486275 0.486275
0.490196 0.490196 0.490196
0.498039 0.498039 0.498039
0.494118 0.494118 0.494118
0.498039 0.498039 0.498039
0.505882 0.505882 0.505882
0.505882 0.505882 0.505882
0.513725 0.513725 0.513725
0.517647 0.517647 0.517647
0.525490 0.525490 0.525490
0.537255 0.537255 0.537255
0.541176 0.541176 0.541176
0.552941 0.552941 0.552941
0.568627 0.568627 0.568627
0.572549 0.572549 0.572549
0.588235 0.588235 0.588235
0.635294 0.635294 0.635294
0.658824 0.658824 0.658824
0.686275 0.686275 0.686275
0.713725 0.713725 0.713725
0.741176 0.741176 0.741176
0.772549 0.772549 0.772549
0.541176 0.541176 0.541176
0.541176 0.541176 0.541176
0.545098 0.545098 0.545098
0.541176 0.541176 0.541176
0.545098 0.545098 0.545098
0.545098 0.545098 0.545098
0.549020 0.549020 0.549020
0.552941 0.552941 0.552941
0.556863 0.556863 0.556863
0.560784 0.560784 0.560784
0.564706 0.564706 0.564706
0.572549 0.572549 0.572549
0.580392 0.580392 0.580392
0.584314 0.584314 0.584314
0.596078 0.596078 0.596078
0.607843 0.607843 0.607843
0.615686 0.615686 0.615686
0.623529 0.623529 0.623529
0.639216 0.639216 0.639216
0.658824 0.658824 0.658824
0.698039 0.698039 0.698039
0.729412 0.729412 0.729412
0.752941 0.752941 0.752941
0.776471 0.776471 0.776471
0.815686 0.815686 0.815686
0.600000 0.600000 0.600000
0.603922 0.603922 0.603922
0.596078 0.596078 0.596078
0.603922 0.603922 0.603922
0.596078 0.596078 0.596078
0.603922 0.603922 0.603922
0.607843 0.607843 0.607843
0.611765 0.611765 0.611765
0.615686 0.615686 0.615686
0.619608 0.619608 0.619608
0.627451 0.627451 0.627451
0.631373 0.631373 0.631373
0.635294 0.635294 0.635294
0.647059 0.647059 0.647059
0.654902 0.654902 0.654902
0.662745 0.662745 0.662745
0.674510 0.674510 0.674510
0.682353 0.682353 0.682353
0.690196 0.690196 0.690196
0.705882 0.705882 0.705882
0.717647 0.717647 0.717647
0.764706 0.764706 0.764706
0.792157 0.792157 0.792157
0.823529 0.823529 0.823529
0.850980 0.850980 0.850980
0.666667 0.666667 0.666667
0.662745 0.662745 0.662745
0.662745 0.662745 0.662745
0.666667 0.666667 0.666667
0.670588 0.670588 0.670588
0.670588 0.670588 0.670588
0.670588 0.670588 0.670588
0.674510 0.674510 0.674510
0.678431 0.678431 0.678431
0.682353 0.682353 0.682353
0.690196 0.690196 0.690196
0.690196 0.690196 0.690196
0.698039 0.698039 0.698039
0.705882 0.705882 0.705882
0.717647 0.717647 0.717647
0.721569 0.721569 0.721569
0.729412 0.729412 0.729412
0.741176 0.741176 0.741176
0.752941 0.752941 0.752941
0.764706 0.764706 0.764706
0.772549 0.772549 0.772549
0.792157 0.792157 0.792157
0.831373 0.831373 0.831373
0.858824 0.858824 0.858824
0.890196 0.890196 0.890196
0.729412 0.729412 0.729412
0.729412 0.729412 0.729412
0.729412 0.729412 0.729412
0.729412 0.729412 0.729412
0.733333 0.733333 0.733333
0.737255 0.737255 0.737255
0.741176 0.741176 0.741176
0.745098 0.745098 0.745098
0.741176 0.741176 0.741176
0.745098 0.745098 0.745098
0.752941 0.752941 0.752941
0.756863 0.756863 0.756863
0.760784 0.760784 0.760784
0.768627 0.768627 0.768627
0.776471 0.776471 0.776471
0.780392 0.780392 0.780392
0.792157 0.792157 0.792157
0.800000 0.800000 0.800000
0.811765 0.811765 0.811765
0.819608 0.819608 0.819608
0.827451 0.827451 0.827451
0.835294 0.835294 0.835294
0.850980 0.850980 0.850980
0.882353 0.882353 0.882353
0.909804 0.909804 0.909804
0.792157 0.792157 0.792157
0.792157 0.792157 0.792157
0.796078 0.796078 0.796078
0.800000 0.800000 0.800000
0.800000 0.800000 0.800000
0.796078 0.796078 0.796078
0.800000 0.800000 0.800000
0.803922 0.803922 0.803922
0.807843 0.807843 0.807843
0.811765 0.811765 0.811765
0.815686 0.815686 0.815686
0.815686 0.815686 0.815686
0.823529 0.823529 0.823529
0.831373 0.831373 0.831373
0.835294 0.835294 0.835294
0.843137 0.843137 0.843137
0.843137 0.843137 0.843137
0.854902 0.854902 0.854902
0.866667 0.866667 0.866667
0.870588 0.870588 0.870588
0.874510 0.874510 0.874510
0.890196 0.890196 0.890196
0.890196 0.890196 0.890196
0.901961 0.901961 0.901961
0.933333 0.933333 0.933333
0.854902 0.854902 0.854902
0.854902 0.854902 0.854902
0.858824 0.858824 0.858824
0.858824 0.858824 0.858824
0.858824 0.858824 0.858824
0.862745 0.862745 0.862745
0.866667 0.866667 0.866667
0.866667 0.866667 0.866667
0.866667 0.866667 0.866667
0.866667 0.866667 0.866667
0.874510 0.874510 0.874510
0.878431 0.878431 0.878431
0.882353 0.882353 0.882353
0.886275 0.886275 0.886275
0.890196 0.890196 0.890196
0.894118 0.894118 0.894118
0.901961 0.901961 0.901961
0.905882 0.905882 0.905882
0.917647 0.917647 0.917647
0.917647 0.917647 0.917647
0.925490 0.925490 0.925490
0.929412 0.929412 0.929412
0.933333 0.933333 0.933333
0.941176 0.941176 0.941176
0.949020 0.949020 0.949020
0.909804 0.909804 0.909804
0.917647 0.917647 0.917647
0.913725 0.913725 0.913725
0.913725 0.913725 0.913725
0.917647 0.917647 0.917647
0.917647 0.917647 0.917647
0.917647 0.917647 0.917647
0.925490 0.925490 0.925490
0.913725 0.913725 0.913725
0.925490 0.925490 0.925490
0.921569 0.921569 0.921569
0.933333 0.933333 0.933333
0.933333 0.933333 0.933333
0.933333 0.933333 0.933333
0.937255 0.937255 0.937255
0.941176 0.941176 0.941176
0.945098 0.945098 0.945098
0.949020 0.949020 0.949020
0.952941 0.952941 0.952941
0.956863 0.956863 0.956863
0.960784 0.960784 0.960784
0.964706 0.964706 0.964706
0.968627 0.968627 0.968627
0.972549 0.972549 0.972549
0.976471 0.976471 0.976471
0.964706 0.964706 0.964706
0.956863 0.956863 0.956863
0.960784 0.960784 0.960784
0.960784 0.960784 0.960784
0.956863 0.956863 0.956863
0.960784 0.960784 0.960784
0.960784 0.960784 0.960784
0.960784 0.960784 0.960784
0.960784 0.960784 0.960784
0.960784 0.960784 0.960784
0.964706 0.964706 0.964706
0.964706 0.964706 0.964706
0.968627 0.968627 0.968627
0.972549 0.972549 0.972549
0.972549 0.972549 0.972549
0.976471 0.976471 0.976471
0.976471 0.976471 0.976471
0.984314 0.984314 0.984314
0.980392 0.980392 0.980392
0.984314 0.984314 0.984314
0.988235 0.988235 0.988235
0.992157 0.992157 0.992157
0.992157 0.992157 0.992157
0.996078 0.996078 0.996078
0.996078 0.996078 0.996078
0.000000 0.000000 0.000000
0.003922 0.003922 0.003922
0.000000 0.000000 0.000000
0.000000 0.000000 0.000000
0.003922 0.003922 0.003922
0.011765 0.011765 0.011765
0.019608 0.019608 0.019608
0.027451 0.027451 0.027451
0.039216 0.039216 0.039216
0.058824 0.058824 0.058824
0.082353 0.082353 0.082353
0.098039 0.098039 0.098039
0.117647 0.117647 0.117647
0.141176 0.141176 0.141176
0.164706 0.164706 0.164706
0.188235 0.188235 0.188235
0.211765 0.211765 0.211765
0.231373 0.231373 0.231373
0.254902 0.254902 0.254902
0.278431 0.278431 0.278431
0.305882 0.305882 0.305882
0.329412 0.329412 0.329412
0.356863 0.356863 0.356863
0.392157 0.392157 0.392157
0.419608 0.419608 0.419608
0.000000 0.000000 0.000000
0.000000 0.000000 0.000000
0.003922 0.003922 0.003922
0.000000 0.000000 0.000000
0.011765 0.011765 0.011765
0.011765 0.011765 0.011765
0.023529 0.023529 0.023529
0.035294 0.035294 0.035294
0.047059 0.047059 0.047059
0.070588 0.070588 0.070588
0.086275 0.086275 0.086275
0.105882 0.105882 0.105882
0.129412 0.129412 0.129412
0.149020 0.149020 0.149020
0.168627 0.168627 0.168627
0.192157 0.192157 0.192157
0.215686 0.215686 0.215686
0.239216 0.239216 0.239216
0.258824 0.258824 0.258824
0.286275 0.286275 0.286275
0.309804 0.309804 0.309804
0.337255 0.337255 0.337255
0.364706 0.364706 0.364706
0.388235 0.388235 0.388235
0.423529 0.423529 0.423529
0.003922 0.003922 0.003922
0.011765 0.011765 0.011765
0.011765 0.011765 0.011765
0.015686 0.015686 0.015686
0.015686 0.015686 0.015686
0.027451 0.027451 0.027451
0.035294 0.035294 0.035294
0.047059 0.047059 0.047059
0.062745 0.062745 0.062745
0.078431 0.078431 0.078431
0.098039 0.098039 0.098039
0.117647 0.117647 0.117647
0.137255 0.137255 0.137255
0.160784 0.160784 0.160784
0.180392 0.180392 0.180392
0.196078 0.196078 0.196078
0.219608 0.219608 0.219608
0.243137 0.243137 0.243137
0.266667 0.266667 0.266667
0.290196 0.290196 0.290196
0.313725 0.313725 0.313725
0.341176 0.341176 0.341176
0.368627 0.368627 0.368627
0.392157 0.392157 0.392157
0.423529 0.423529 0.423529
0.023529 0.023529 0.023529
0.019608 0.019608 0.019608
0.019608 0.019608 0.019608
0.027451 0.027451 0.027451
0.043137 0.043137 0.043137
0.047059 0.047059 0.047059
0.054902 0.054902 0.054902
0.062745 0.062745 0.062745
0.078431 0.078431 0.078431
0.090196 0.090196 0.090196
0.113725 0.113725 0.113725
0.133333 0.133333 0.133333
0.149020 0.149020 0.149020
0.168627 0.168627 0.168627
0.188235 0.188235 0.188235
0.211765 0.211765 0.211765
0.231373 0.231373 0.231373
0.250980 0.250980 0.250980
0.274510 0.274510 0.274510
0.298039 0.298039 0.298039
0.321569 0.321569 0.321569
0.349020 0.349020 0.349020
0.376471 0.376471 0.376471
0.400000 0.400000 0.400000
0.431373 0.431373 0.431373
0.043137 0.043137 0.043137
0.047059 0.047059 0.047059
0.047059 0.047059 0.047059
0.050980 0.050980 0.050980
0.058824 0.058824 0.058824
0.066667 0.066667 0.066667
0.082353 0.082353 0.082353
0.094118 0.094118 0.094118
0.105882 0.105882 0.105882
0.121569 0.121569 0.121569
0.137255 0.137255 0.137255
0.152941 0.152941 0.152941
0.172549 0.172549 0.172549
0.188235 0.188235 0.188235
0.207843 0.207843 0.207843
0.227451 0.227451 0.227451
0.243137 0.243137 0.243137
0.266667 0.266667 0.266667
0.290196 0.290196 0.290196
0.309804 0.309804 0.309804
0.333333 0.333333 0.333333
0.356863 0.356863 0.356863
0.388235 0.388235 0.388235
0.411765 0.411765 0.411765
0.450980 0.450980 0.450980
0.070588 0.070588 0.070588
0.078431 0.078431 0.078431
0.082353 0.082353 0.082353
0.086275 0.086275 0.086275
0.094118 0.094118 0.094118
0.101961 0.101961 0.101961
0.113725 0.113725 0.113725
0.121569 0.121569 0.121569
0.133333 0.133333 0.133333
0.149020 0.149020 0.149020
0.156863 0.156863 0.156863
0.168627 0.168627 0.168627
0.192157 0.192157 0.192157
0.211765 0.211765 0.211765
0.227451 0.227451 0.227451
0.243137 0.243137 0.243137
0.254902 0.254902 0.254902
0.278431 0.278431 0.278431
0.301961 0.301961 0.301961
0.321569 0.321569 0.321569
0.341176 0.341176 0.341176
0.368627 0.368627 0.368627
0.396078 0.396078 0.396078
0.419608 0.419608 0.419608
0.454902 0.454902 0.454902
0.109804 0.109804 0.109804
0.113725 0.113725 0.113725
0.117647 0.117647 0.117647
0.125490 0.125490 0.125490
0.117647 0.117647 0.117647
0.133333 0.133333 0.133333
0.141176 0.141176 0.141176
0.152941 0.152941 0.152941
0.164706 0.164706 0.164706
0.176471 0.176471 0.176471
0.188235 0.188235 0.188235
0.200000 0.200000 0.200000
0.215686 0.215686 0.215686
0.231373 0.231373 0.231373
0.247059 0.247059 0.247059
0.262745 0.262745 0.262745
0.282353 0.282353 0.282353
0.298039 0.298039 0.298039
0.317647 0.317647 0.317647
0.337255 0.337255 0.337255
0.360784 0.360784 0.360784
0.384314 0.384314 0.384314
0.407843 0.407843 0.407843
0.435294 0.435294 0.435294
0.466667 0.466667 0.466667
0.149020 0.149020 0.149020
0.145098 0.145098 0.145098
0.156863 0.156863 0.156863
0.156863 0.156863 0.156863
0.160784 0.160784 0.160784
0.164706 0.164706 0.164706
0.172549 0.172549 0.172549
0.180392 0.180392 0.180392
0.192157 0.192157 0.192157
0.207843 0.207843 0.207843
0.219608 0.219608 0.219608
0.231373 0.231373 0.231373
0.243137 0.243137 0.243137
0.258824 0.258824 0.258824
0.266667 0.266667 0.266667
0.282353 0.282353 0.282353
0.301961 0.301961 0.301961
0.317647 0.317647 0.317647
0.333333 0.333333 0.333333
0.352941 0.352941 0.352941
0.376471 0.376471 0.376471
0.403922 0.403922 0.403922
0.419608 0.419608 0.419608
0.450980 0.450980 0.450980
0.482353 0.482353 0.482353
0.188235 0.188235 0.188235
0.188235 0.188235 0.188235
0.196078 0.196078 0.196078
0.192157 0.192157 0.192157
0.200000 0.200000 0.200000
0.200000 0.200000 0.200000
0.207843 0.207843 0.207843
0.215686 0.215686 0.215686
0.219608 0.219608 0.219608
0.231373 0.231373 0.231373
0.247059 0.247059 0.247059
0.266667 0.266667 0.266667
0.270588 0.270588 0.270588
0.290196 0.290196 0.290196
0.290196 0.290196 0.290196
0.305882 0.305882 0.305882
0.321569 0.321569 0.321569
0.341176 0.341176 0.341176
0.356863 0.356863 0.356863
0.376471 0.376471 0.376471
0.396078 0.396078 0.396078
0.419608 0.419608 0.419608
0.443137 0.443137 0.443137
0.470588 0.470588 0.470588
0.505882 0.505882 0.505882
0.223529 0.223529 0.223529
0.231373 0.231373 0.231373
0.231373 0.231373 0.231373
0.231373 0.231373 0.231373
0.239216 0.239216 0.239216
0.239216 0.239216 0.239216
0.243137 0.243137 0.243137
0.247059 0.247059 0.247059
0.254902 0.254902 0.254902
0.262745 0.262745 0.262745
0.274510 0.274510 0.274510
0.294118 0.294118 0.294118
0.301961 0.301961 0.301961
0.309804 0.309804 0.309804
0.321569 0.321569 0.321569
0.333333 0.333333 0.333333
0.345098 0.345098 0.345098
0.360784 0.360784 0.360784
0.380392 0.380392 0.380392
0.400000 0.400000 0.400000
0.415686 0.415686 0.415686
0.447059 0.447059 0.447059
0.470588 0.470588 0.470588
0.501961 0.501961 0.501961
0.537255 0.537255 0.537255
0.262745 0.262745 0.262745
0.262745 0.262745 0.262745
0.266667 0.266667 0.266667
0.270588 0.270588 0.270588
0.274510 0.274510 0.274510
0.274510 0.274510 0.274510
0.278431 0.278431 0.278431
0.286275 0.286275 0.286275
0.286275 0.286275 0.286275
0.294118 0.294118 0.294118
0.301961 0.301961 0.301961
