resources/LUTs/Black and White/20.cube
TITLE "B&W Preset #20"
#LUT size
LUT_3D_SIZE 25
#LUT data points
0.000000 0.000000 0.000000
0.003922 0.003922 0.003922
0.011765 0.011765 0.011765
0.027451 0.019608 0.023529
0.047059 0.031373 0.035294
0.058824 0.043137 0.047059
0.078431 0.054902 0.062745
0.090196 0.066667 0.074510
0.113725 0.078431 0.082353
0.133333 0.098039 0.101961
0.156863 0.117647 0.121569
0.176471 0.137255 0.141176
0.200000 0.160784 0.156863
0.231373 0.184314 0.184314
0.262745 0.207843 0.207843
0.282353 0.227451 0.227451
0.313725 0.250980 0.262745
0.337255 0.274510 0.278431
0.372549 0.298039 0.305882
0.403922 0.325490 0.333333
0.439216 0.352941 0.364706
0.470588 0.384314 0.392157
0.513725 0.415686 0.427451
0.552941 0.450980 0.462745
0.584314 0.482353 0.494118
0.019608 0.019608 0.011765
0.027451 0.027451 0.027451
0.039216 0.035294 0.027451
0.043137 0.035294 0.039216
0.054902 0.047059 0.050980
0.078431 0.062745 0.058824
0.090196 0.074510 0.070588
0.101961 0.078431 0.078431
0.129412 0.094118 0.098039
0.149020 0.113725 0.117647
0.168627 0.133333 0.137255
0.196078 0.156863 0.160784
0.215686 0.176471 0.172549
0.239216 0.192157 0.192157
0.262745 0.215686 0.215686
0.298039 0.243137 0.243137
0.321569 0.258824 0.262745
0.345098 0.282353 0.286275
0.384314 0.309804 0.317647
0.415686 0.337255 0.345098
0.447059 0.368627 0.372549
0.478431 0.392157 0.400000
0.509804 0.423529 0.431373
0.556863 0.454902 0.466667
0.592157 0.494118 0.505882
0.047059 0.054902 0.043137
0.050980 0.058824 0.047059
0.054902 0.062745 0.050980
0.058824 0.066667 0.054902
0.082353 0.078431 0.070588
0.094118 0.078431 0.074510
0.109804 0.094118 0.090196
0.121569 0.105882 0.101961
0.145098 0.121569 0.121569
0.160784 0.137255 0.137255
0.188235 0.152941 0.156863
0.207843 0.168627 0.172549
0.235294 0.188235 0.188235
0.254902 0.207843 0.207843
0.278431 0.231373 0.231373
0.301961 0.254902 0.254902
0.333333 0.278431 0.278431
0.360784 0.298039 0.301961
0.384314 0.321569 0.325490
0.419608 0.345098 0.352941
0.454902 0.376471 0.380392
0.486275 0.407843 0.411765
0.533333 0.431373 0.443137
0.576471 0.474510 0.486275
0.615686 0.501961 0.517647
0.086275 0.086275 0.078431
0.078431 0.086275 0.082353
0.082353 0.098039 0.094118
0.101961 0.109804 0.098039
0.101961 0.109804 0.098039
0.121569 0.117647 0.109804
0.141176 0.125490 0.121569
0.149020 0.133333 0.129412
0.164706 0.141176 0.141176
0.184314 0.160784 0.160784
0.207843 0.172549 0.176471
0.227451 0.192157 0.196078
0.250980 0.211765 0.215686
0.270588 0.231373 0.227451
0.294118 0.247059 0.247059
0.317647 0.270588 0.270588
0.349020 0.294118 0.294118
0.376471 0.313725 0.317647
0.403922 0.341176 0.341176
0.439216 0.368627 0.368627
0.478431 0.400000 0.403922
0.521569 0.423529 0.439216
0.552941 0.454902 0.466667
0.584314 0.498039 0.505882
0.619608 0.533333 0.545098
0.117647 0.125490 0.113725
0.121569 0.129412 0.117647
0.113725 0.133333 0.117647
0.125490 0.145098 0.129412
0.137255 0.145098 0.133333
0.149020 0.156863 0.145098
0.160784 0.160784 0.152941
0.172549 0.168627 0.160784
0.188235 0.184314 0.176471
0.207843 0.192157 0.188235
0.227451 0.207843 0.196078
0.247059 0.215686 0.207843
0.270588 0.239216 0.231373
0.294118 0.254902 0.250980
0.313725 0.274510 0.270588
0.341176 0.294118 0.294118
0.364706 0.317647 0.317647
0.392157 0.337255 0.337255
0.427451 0.364706 0.368627
0.454902 0.392157 0.396078
0.501961 0.415686 0.423529
0.533333 0.447059 0.454902
0.572549 0.474510 0.486275
0.611765 0.513725 0.525490
0.650980 0.549020 0.560784
0.129412 0.149020 0.133333
0.129412 0.149020 0.133333
0.133333 0.152941 0.137255
0.141176 0.160784 0.145098
0.156863 0.164706 0.152941
0.164706 0.172549 0.160784
0.176471 0.176471 0.168627
0.188235 0.188235 0.180392
0.200000 0.196078 0.188235
0.211765 0.207843 0.200000
0.235294 0.219608 0.215686
0.250980 0.235294 0.231373
0.270588 0.247059 0.247059
0.290196 0.266667 0.266667
0.313725 0.282353 0.274510
0.337255 0.298039 0.294118
0.360784 0.321569 0.317647
0.384314 0.337255 0.337255
0.419608 0.364706 0.364706
0.450980 0.388235 0.388235
0.490196 0.419608 0.419608
0.525490 0.447059 0.450980
0.556863 0.470588 0.478431
0.596078 0.498039 0.509804
0.635294 0.533333 0.545098
0.176471 0.196078 0.180392
0.164706 0.200000 0.188235
0.180392 0.200000 0.184314
0.176471 0.200000 0.192157
0.184314 0.203922 0.188235
0.200000 0.207843 0.196078
0.211765 0.219608 0.207843
0.223529 0.231373 0.219608
0.235294 0.235294 0.227451
0.247059 0.247059 0.239216
0.258824 0.254902 0.247059
0.282353 0.266667 0.262745
0.298039 0.282353 0.278431
0.317647 0.298039 0.286275
0.345098 0.313725 0.305882
0.360784 0.329412 0.321569
0.388235 0.349020 0.345098
0.411765 0.364706 0.364706
0.447059 0.392157 0.392157
0.474510 0.411765 0.415686
0.509804 0.439216 0.439216
0.541176 0.462745 0.466667
0.572549 0.494118 0.498039
0.607843 0.525490 0.521569
0.650980 0.552941 0.564706
0.215686 0.239216 0.223529
0.211765 0.235294 0.227451
0.219608 0.235294 0.231373
0.223529 0.247059 0.239216
0.223529 0.243137 0.227451
0.227451 0.250980 0.243137
0.247059 0.254902 0.243137
0.262745 0.270588 0.258824
0.274510 0.282353 0.270588
0.290196 0.290196 0.282353
0.298039 0.298039 0.290196
0.313725 0.309804 0.301961
0.337255 0.321569 0.317647
0.352941 0.337255 0.325490
0.372549 0.352941 0.341176
0.400000 0.368627 0.360784
0.423529 0.384314 0.380392
0.447059 0.400000 0.400000
0.478431 0.423529 0.419608
0.509804 0.447059 0.447059
0.533333 0.470588 0.470588
0.572549 0.501961 0.501961
0.603922 0.533333 0.533333
0.635294 0.564706 0.564706
0.670588 0.592157 0.596078
0.247059 0.298039 0.270588
0.247059 0.290196 0.266667
0.250980 0.294118 0.278431
0.262745 0.282353 0.266667
0.266667 0.290196 0.274510
0.262745 0.298039 0.278431
0.282353 0.305882 0.290196
0.294118 0.313725 0.298039
0.309804 0.317647 0.305882
0.325490 0.333333 0.321569
0.337255 0.337255 0.329412
0.352941 0.349020 0.341176
0.368627 0.364706 0.356863
0.392157 0.376471 0.364706
0.403922 0.388235 0.376471
0.423529 0.403922 0.392157
0.450980 0.419608 0.411765
0.478431 0.439216 0.435294
0.505882 0.458824 0.458824
0.537255 0.482353 0.478431
0.568627 0.513725 0.509804
0.600000 0.545098 0.541176
0.635294 0.572549 0.572549
0.666667 0.603922 0.603922
0.698039 0.619608 0.623529
0.290196 0.341176 0.313725
0.286275 0.329412 0.313725
0.286275 0.329412 0.313725
0.298039 0.333333 0.313725
0.298039 0.333333 0.313725
0.305882 0.341176 0.321569
0.321569 0.345098 0.329412
0.329412 0.352941 0.337255
0.341176 0.364706 0.349020
0.356863 0.376471 0.360784
0.380392 0.388235 0.376471
0.392157 0.400000 0.388235
0.407843 0.411765 0.392157
0.423529 0.419608 0.403922
0.443137 0.427451 0.415686
0.466667 0.447059 0.435294
0.486275 0.466667 0.454902
0.513725 0.482353 0.474510
0.545098 0.505882 0.498039
0.572549 0.529412 0.521569
0.592157 0.549020 0.541176
0.631373 0.576471 0.572549
0.658824 0.603922 0.600000
0.694118 0.631373 0.631373
0.725490 0.662745 0.662745
0.298039 0.333333 0.321569
0.301961 0.337255 0.325490
0.301961 0.337255 0.325490
0.305882 0.341176 0.329412
0.309804 0.345098 0.325490
0.317647 0.352941 0.333333
0.325490 0.360784 0.341176
0.333333 0.368627 0.349020
0.356863 0.380392 0.364706
0.364706 0.388235 0.372549
0.380392 0.400000 0.384314
0.392157 0.411765 0.396078
0.415686 0.423529 0.411765
0.435294 0.439216 0.419608
0.450980 0.447059 0.431373
0.466667 0.462745 0.447059
0.490196 0.474510 0.462745
0.513725 0.498039 0.486275
0.541176 0.521569 0.509804
0.572549 0.541176 0.529412
0.600000 0.560784 0.552941
0.631373 0.588235 0.580392
0.666667 0.611765 0.607843
0.694118 0.639216 0.635294
0.705882 0.662745 0.654902
0.360784 0.411765 0.384314
0.360784 0.411765 0.384314
0.360784 0.403922 0.380392
0.360784 0.403922 0.380392
0.356863 0.400000 0.376471
0.364706 0.407843 0.376471
0.368627 0.419608 0.392157
0.380392 0.415686 0.396078
0.392157 0.427451 0.407843
0.411765 0.435294 0.419608
0.427451 0.450980 0.435294
0.443137 0.462745 0.439216
0.462745 0.470588 0.450980
0.478431 0.486275 0.466667
0.494118 0.498039 0.478431
0.513725 0.509804 0.494118
0.529412 0.525490 0.509804
0.552941 0.537255 0.525490
0.580392 0.560784 0.549020
0.607843 0.576471 0.568627
0.635294 0.603922 0.596078
0.662745 0.623529 0.615686
0.686275 0.643137 0.635294
0.709804 0.666667 0.650980
0.737255 0.694118 0.686275
0.403922 0.462745 0.435294
0.396078 0.454902 0.435294
0.403922 0.450980 0.435294
0.403922 0.450980 0.435294
0.407843 0.450980 0.427451
0.411765 0.454902 0.431373
0.419608 0.462745 0.439216
0.427451 0.470588 0.447059
0.439216 0.482353 0.458824
0.450980 0.486275 0.466667
0.462745 0.501961 0.470588
0.478431 0.517647 0.486275
0.498039 0.525490 0.498039
0.513725 0.533333 0.509804
0.529412 0.549020 0.525490
0.552941 0.560784 0.541176
0.572549 0.576471 0.556863
0.592157 0.588235 0.572549
0.611765 0.607843 0.592157
0.643137 0.631373 0.611765
0.666667 0.647059 0.631373
0.698039 0.666667 0.654902
0.713725 0.694118 0.682353
0.737255 0.705882 0.694118
0.764706 0.725490 0.721569
0.450980 0.517647 0.478431
0.454902 0.513725 0.494118
0.447059 0.509804 0.470588
0.447059 0.505882 0.478431
0.450980 0.517647 0.486275
0.454902 0.513725 0.486275
0.462745 0.521569 0.494118
0.474510 0.525490 0.498039
0.486275 0.529412 0.505882
0.501961 0.545098 0.521569
0.513725 0.552941 0.521569
0.525490 0.564706 0.533333
0.545098 0.572549 0.545098
0.560784 0.588235 0.560784
0.576471 0.596078 0.572549
0.592157 0.611765 0.588235
0.615686 0.623529 0.603922
0.635294 0.639216 0.619608
0.650980 0.654902 0.635294
0.678431 0.674510 0.658824
0.705882 0.690196 0.678431
0.729412 0.717647 0.698039
0.749020 0.737255 0.717647
0.764706 0.752941 0.733333
0.792157 0.760784 0.752941
0.509804 0.576471 0.545098
0.509804 0.568627 0.541176
0.501961 0.560784 0.533333
0.494118 0.560784 0.529412
0.501961 0.560784 0.533333
0.513725 0.564706 0.537255
0.517647 0.568627 0.541176
0.525490 0.576471 0.549020
0.533333 0.584314 0.556863
0.545098 0.596078 0.568627
0.560784 0.603922 0.580392
0.568627 0.611765 0.588235
0.584314 0.623529 0.592157
0.607843 0.635294 0.607843
0.619608 0.647059 0.619608
0.639216 0.658824 0.635294
0.658824 0.666667 0.647059
0.670588 0.678431 0.658824
0.694118 0.698039 0.678431
0.709804 0.713725 0.694118
0.733333 0.729412 0.713725
0.749020 0.745098 0.729412
0.776471 0.760784 0.749020
0.792157 0.776471 0.764706
0.811765 0.800000 0.780392
0.498039 0.556863 0.529412
0.501961 0.560784 0.533333
0.505882 0.568627 0.529412
0.505882 0.568627 0.529412
0.509804 0.572549 0.533333
0.513725 0.576471 0.537255
0.517647 0.580392 0.541176
0.529412 0.592157 0.552941
0.545098 0.596078 0.560784
0.556863 0.607843 0.572549
0.572549 0.615686 0.584314
0.580392 0.623529 0.592157
0.596078 0.635294 0.603922
0.611765 0.650980 0.619608
0.631373 0.658824 0.631373
0.650980 0.670588 0.647059
0.662745 0.682353 0.658824
0.678431 0.698039 0.674510
0.701961 0.709804 0.690196
0.721569 0.729412 0.709804
0.737255 0.745098 0.725490
0.760784 0.764706 0.745098
0.776471 0.780392 0.760784
0.792157 0.788235 0.772549
0.807843 0.811765 0.788235
0.596078 0.647059 0.619608
0.580392 0.639216 0.611765
0.568627 0.647059 0.603922
0.572549 0.639216 0.607843
0.580392 0.643137 0.603922
0.580392 0.643137 0.603922
0.596078 0.639216 0.607843
0.603922 0.647059 0.615686
0.607843 0.650980 0.619608
0.615686 0.658824 0.627451
0.623529 0.666667 0.635294
0.635294 0.678431 0.647059
0.647059 0.690196 0.658824
0.662745 0.701961 0.670588
0.674510 0.713725 0.682353
0.686275 0.713725 0.686275
0.701961 0.729412 0.701961
0.717647 0.737255 0.713725
0.729412 0.749020 0.725490
0.749020 0.756863 0.737255
0.764706 0.772549 0.752941
0.780392 0.788235 0.768627
0.796078 0.800000 0.780392
0.823529 0.807843 0.796078
0.827451 0.831373 0.811765
0.647059 0.698039 0.670588
0.639216 0.701961 0.662745
0.623529 0.709804 0.662745
0.627451 0.694118 0.654902
0.635294 0.698039 0.658824
0.639216 0.690196 0.662745
0.647059 0.698039 0.662745
0.654902 0.698039 0.666667
0.658824 0.701961 0.670588
0.666667 0.709804 0.678431
0.678431 0.717647 0.686275
0.686275 0.725490 0.694118
0.701961 0.729412 0.701961
0.709804 0.737255 0.709804
0.721569 0.745098 0.729412
0.729412 0.752941 0.737255
0.737255 0.760784 0.745098
0.752941 0.772549 0.749020
0.764706 0.784314 0.760784
0.776471 0.796078 0.772549
0.796078 0.803922 0.784314
0.807843 0.815686 0.796078
0.835294 0.819608 0.815686
0.843137 0.839216 0.831373
0.862745 0.858824 0.839216
0.701961 0.752941 0.725490
0.698039 0.749020 0.713725
0.698039 0.741176 0.717647
0.686275 0.749020 0.705882
0.694118 0.737255 0.705882
0.694118 0.737255 0.713725
0.698039 0.741176 0.717647
0.701961 0.745098 0.713725
0.709804 0.752941 0.721569
0.717647 0.760784 0.729412
0.721569 0.764706 0.733333
0.729412 0.768627 0.737255
0.733333 0.772549 0.741176
0.749020 0.776471 0.749020
0.760784 0.788235 0.760784
0.772549 0.800000 0.772549
0.784314 0.803922 0.780392
0.788235 0.807843 0.784314
0.796078 0.815686 0.792157
0.807843 0.827451 0.803922
0.815686 0.835294 0.811765
0.839216 0.847059 0.835294
0.854902 0.858824 0.839216
0.870588 0.866667 0.850980
0.882353 0.886275 0.866667
0.749020 0.792157 0.768627
0.741176 0.792157 0.764706
0.737255 0.780392 0.756863
0.741176 0.780392 0.749020
0.733333 0.784314 0.749020
0.733333 0.784314 0.749020
0.741176 0.784314 0.752941
0.749020 0.792157 0.760784
0.752941 0.796078 0.764706
0.756863 0.800000 0.768627
0.764706 0.807843 0.776471
0.772549 0.811765 0.780392
0.788235 0.815686 0.788235
0.792157 0.815686 0.800000
0.792157 0.815686 0.800000
0.803922 0.827451 0.811765
0.811765 0.835294 0.819608
0.823529 0.843137 0.827451
0.831373 0.850980 0.835294
0.839216 0.858824 0.843137
0.850980 0.858824 0.839216
0.854902 0.862745 0.843137
0.870588 0.878431 0.858824
0.878431 0.886275 0.866667
0.894118 0.898039 0.878431
0.741176 0.792157 0.764706
0.737255 0.788235 0.760784
0.741176 0.792157 0.764706
0.741176 0.792157 0.764706
0.745098 0.788235 0.764706
0.749020 0.792157 0.768627
0.752941 0.796078 0.772549
0.760784 0.803922 0.780392
0.760784 0.803922 0.780392
0.768627 0.811765 0.788235
0.776471 0.819608 0.796078
0.780392 0.823529 0.800000
0.792157 0.831373 0.800000
0.800000 0.839216 0.807843
0.811765 0.839216 0.811765
0.815686 0.843137 0.815686
0.831373 0.850980 0.835294
0.839216 0.858824 0.843137
0.843137 0.862745 0.839216
0.862745 0.870588 0.850980
0.866667 0.874510 0.854902
0.870588 0.878431 0.858824
0.882353 0.886275 0.866667
0.890196 0.894118 0.874510
0.901961 0.898039 0.878431
0.803922 0.847059 0.823529
0.807843 0.843137 0.823529
0.803922 0.847059 0.823529
0.800000 0.835294 0.815686
0.803922 0.839216 0.819608
0.796078 0.839216 0.807843
0.800000 0.843137 0.819608
0.803922 0.847059 0.823529
0.803922 0.847059 0.823529
0.815686 0.850980 0.831373
0.819608 0.854902 0.835294
0.823529 0.858824 0.839216
0.827451 0.866667 0.835294
0.831373 0.870588 0.839216
0.843137 0.870588 0.843137
0.850980 0.878431 0.850980
0.858824 0.886275 0.858824
0.866667 0.886275 0.862745
0.870588 0.890196 0.866667
0.874510 0.894118 0.870588
0.890196 0.898039 0.878431
0.894118 0.901961 0.882353
0.898039 0.905882 0.886275
0.905882 0.913725 0.894118
0.913725 0.921569 0.901961
0.839216 0.874510 0.854902
0.847059 0.870588 0.854902
0.839216 0.882353 0.850980
0.847059 0.870588 0.854902
0.835294 0.874510 0.843137
0.843137 0.878431 0.858824
0.835294 0.878431 0.854902
0.839216 0.882353 0.858824
0.847059 0.882353 0.862745
0.850980 0.886275 0.866667
0.847059 0.886275 0.854902
0.862745 0.890196 0.862745
0.866667 0.894118 0.866667
0.874510 0.894118 0.870588
0.874510 0.898039 0.882353
0.878431 0.901961 0.886275
0.886275 0.905882 0.890196
0.890196 0.909804 0.894118
0.894118 0.913725 0.898039
0.909804 0.917647 0.905882
0.913725 0.921569 0.909804
0.921569 0.921569 0.913725
0.913725 0.933333 0.917647
0.925490 0.937255 0.909804
0.933333 0.933333 0.925490
0.870588 0.909804 0.878431
0.870588 0.905882 0.894118
0.874510 0.901961 0.874510
0.862745 0.905882 0.882353
0.870588 0.909804 0.878431
0.870588 0.905882 0.886275
0.870588 0.905882 0.886275
0.874510 0.909804 0.890196
0.874510 0.909804 0.890196
0.878431 0.913725 0.894118
0.882353 0.921569 0.890196
0.882353 0.921569 0.890196
0.898039 0.925490 0.898039
0.898039 0.921569 0.905882
0.905882 0.925490 0.909804
0.905882 0.925490 0.909804
0.909804 0.929412 0.913725
0.913725 0.933333 0.917647
0.921569 0.941176 0.925490
0.933333 0.941176 0.921569
0.937255 0.945098 0.925490
0.933333 0.941176 0.929412
0.941176 0.949020 0.929412
0.945098 0.952941 0.933333
0.952941 0.960784 0.941176
0.913725 0.937255 0.921569
0.909804 0.933333 0.917647
0.901961 0.925490 0.909804
0.905882 0.933333 0.905882
0.894118 0.929412 0.909804
0.905882 0.929412 0.913725
0.905882 0.929412 0.913725
0.909804 0.933333 0.917647
0.909804 0.933333 0.917647
0.913725 0.933333 0.917647
0.917647 0.937255 0.921569
0.929412 0.937255 0.925490
0.921569 0.941176 0.925490
0.925490 0.945098 0.929412
0.929412 0.949020 0.933333
0.933333 0.952941 0.937255
0.937255 0.956863 0.941176
0.937255 0.956863 0.941176
0.949020 0.956863 0.945098
0.952941 0.960784 0.949020
0.945098 0.964706 0.941176
0.956863 0.964706 0.945098
0.960784 0.968627 0.949020
0.960784 0.968627 0.949020
0.968627 0.976471 0.956863
0.011765 0.003922 0.015686
0.011765 0.003922 0.015686
0.019608 0.011765 0.023529
0.031373 0.023529 0.027451
0.050980 0.035294 0.039216
0.070588 0.054902 0.058824
0.086275 0.070588 0.074510
0.101961 0.078431 0.086275
0.125490 0.090196 0.101961
0.149020 0.105882 0.121569
0.172549 0.133333 0.137255
0.192157 0.152941 0.156863
0.219608 0.172549 0.180392
0.239216 0.192157 0.200000
0.270588 0.211765 0.223529
0.294118 0.235294 0.247059
0.325490 0.262745 0.266667
0.349020 0.286275 0.290196
0.384314 0.309804 0.317647
0.419608 0.341176 0.349020
0.447059 0.368627 0.376471
0.478431 0.392157 0.403922
0.521569 0.423529 0.435294
0.556863 0.458824 0.470588
0.603922 0.490196 0.509804
0.027451 0.027451 0.027451
0.027451 0.035294 0.031373
0.039216 0.039216 0.039216
0.047059 0.054902 0.050980
0.058824 0.058824 0.058824
0.078431 0.074510 0.066667
0.090196 0.082353 0.086275
0.121569 0.098039 0.105882
0.133333 0.109804 0.117647
0.160784 0.125490 0.137255
0.180392 0.145098 0.149020
0.207843 0.168627 0.172549
0.235294 0.188235 0.196078
0.262745 0.203922 0.215686
0.282353 0.223529 0.235294
0.305882 0.250980 0.250980
0.329412 0.274510 0.274510
0.356863 0.294118 0.298039
0.392157 0.317647 0.325490
0.423529 0.345098 0.352941
0.450980 0.372549 0.380392
0.490196 0.403922 0.415686
0.529412 0.431373 0.447059
0.572549 0.458824 0.474510
0.603922 0.501961 0.513725
0.054902 0.054902 0.054902
0.058824 0.066667 0.062745
0.062745 0.070588 0.066667
0.070588 0.074510 0.082353
0.090196 0.086275 0.078431
0.101961 0.094118 0.098039
0.121569 0.105882 0.109804
0.133333 0.117647 0.121569
0.152941 0.129412 0.137255
0.172549 0.149020 0.149020
0.188235 0.164706 0.164706
0.215686 0.180392 0.184314
0.243137 0.203922 0.207843
0.262745 0.223529 0.227451
0.286275 0.239216 0.239216
0.305882 0.258824 0.258824
0.337255 0.282353 0.282353
0.368627 0.305882 0.309804
0.396078 0.333333 0.337255
0.435294 0.360784 0.368627
0.470588 0.392157 0.400000
0.501961 0.415686 0.427451
0.549020 0.447059 0.458824
0.580392 0.478431 0.490196
0.611765 0.513725 0.525490
0.086275 0.094118 0.082353
0.090196 0.098039 0.086275
0.101961 0.105882 0.113725
0.109804 0.109804 0.109804
0.113725 0.121569 0.117647
0.129412 0.121569 0.125490
0.137255 0.129412 0.133333
0.156863 0.141176 0.145098
0.172549 0.156863 0.160784
0.192157 0.168627 0.168627
0.207843 0.184314 0.184314
0.235294 0.200000 0.203922
0.250980 0.215686 0.219608
0.278431 0.239216 0.243137
0.298039 0.258824 0.262745
0.325490 0.278431 0.286275
0.360784 0.301961 0.313725
0.380392 0.325490 0.325490
0.411765 0.349020 0.352941
0.454902 0.380392 0.388235
0.482353 0.407843 0.415686
0.521569 0.435294 0.447059
0.556863 0.458824 0.470588
0.600000 0.501961 0.513725
0.627451 0.529412 0.545098
0.117647 0.137255 0.121569
0.121569 0.137255 0.133333
0.125490 0.141176 0.137255
0.129412 0.145098 0.141176
0.149020 0.149020 0.149020
0.156863 0.156863 0.156863
0.168627 0.168627 0.168627
0.180392 0.172549 0.176471
0.196078 0.188235 0.192157
0.215686 0.200000 0.203922
0.231373 0.215686 0.211765
0.250980 0.227451 0.227451
0.278431 0.247059 0.239216
0.298039 0.266667 0.258824
0.321569 0.282353 0.286275
0.349020 0.301961 0.309804
0.368627 0.321569 0.329412
0.400000 0.345098 0.345098
0.431373 0.368627 0.372549
0.458824 0.396078 0.400000
0.498039 0.411765 0.423529
0.533333 0.447059 0.458824
0.568627 0.482353 0.490196
0.611765 0.513725 0.525490
0.647059 0.549020 0.560784
0.125490 0.149020 0.141176
0.129412 0.152941 0.145098
0.137255 0.160784 0.152941
0.145098 0.160784 0.156863
0.152941 0.172549 0.156863
0.164706 0.184314 0.168627
0.180392 0.188235 0.176471
0.192157 0.200000 0.188235
0.207843 0.200000 0.203922
0.219608 0.211765 0.215686
0.243137 0.227451 0.231373
0.258824 0.243137 0.239216
0.278431 0.254902 0.254902
0.298039 0.274510 0.274510
0.325490 0.290196 0.294118
0.349020 0.309804 0.313725
0.368627 0.329412 0.325490
0.392157 0.345098 0.345098
0.427451 0.372549 0.372549
0.458824 0.396078 0.400000
0.498039 0.423529 0.431373
0.529412 0.458824 0.458824
0.564706 0.486275 0.490196
0.603922 0.517647 0.525490
0.639216 0.541176 0.556863
0.184314 0.207843 0.200000
0.172549 0.207843 0.196078
0.184314 0.200000 0.196078
0.192157 0.215686 0.207843
0.188235 0.211765 0.203922
0.203922 0.223529 0.207843
0.215686 0.231373 0.227451
0.231373 0.239216 0.235294
0.239216 0.247059 0.243137
0.258824 0.258824 0.258824
0.270588 0.266667 0.258824
0.286275 0.282353 0.274510
0.305882 0.290196 0.286275
0.325490 0.301961 0.301961
0.352941 0.317647 0.321569
0.376471 0.345098 0.337255
0.392157 0.360784 0.352941
0.415686 0.376471 0.372549
0.443137 0.396078 0.396078
0.478431 0.423529 0.423529
0.513725 0.450980 0.454902
0.552941 0.478431 0.486275
0.584314 0.505882 0.513725
0.619608 0.537255 0.533333
0.658824 0.560784 0.572549
0.211765 0.247059 0.235294
0.207843 0.243137 0.231373
0.227451 0.243137 0.247059
0.219608 0.254902 0.250980
0.227451 0.250980 0.235294
0.231373 0.266667 0.254902
0.247059 0.262745 0.258824
0.270588 0.278431 0.274510
0.282353 0.290196 0.278431
0.298039 0.298039 0.290196
0.301961 0.301961 0.294118
0.321569 0.317647 0.309804
0.345098 0.329412 0.325490
0.360784 0.345098 0.341176
0.376471 0.356863 0.345098
0.403922 0.372549 0.364706
0.423529 0.392157 0.384314
0.450980 0.411765 0.407843
0.478431 0.431373 0.431373
0.513725 0.458824 0.458824
0.545098 0.482353 0.482353
0.584314 0.513725 0.513725
0.611765 0.541176 0.541176
0.643137 0.572549 0.564706
0.678431 0.600000 0.607843
0.250980 0.294118 0.270588
0.262745 0.298039 0.286275
0.250980 0.294118 0.278431
0.270588 0.294118 0.286275
0.262745 0.305882 0.290196
0.278431 0.301961 0.294118
0.286275 0.309804 0.301961
0.301961 0.317647 0.313725
0.313725 0.333333 0.317647
0.329412 0.337255 0.325490
0.345098 0.345098 0.337255
0.360784 0.360784 0.352941
0.376471 0.372549 0.364706
0.392157 0.388235 0.380392
0.411765 0.396078 0.392157
0.431373 0.411765 0.400000
0.462745 0.431373 0.423529
0.486275 0.447059 0.443137
0.517647 0.470588 0.470588
0.541176 0.494118 0.494118
0.572549 0.517647 0.517647
0.607843 0.545098 0.545098
0.639216 0.576471 0.576471
0.670588 0.607843 0.607843
0.709804 0.631373 0.639216
0.294118 0.345098 0.317647
0.301961 0.337255 0.325490
0.294118 0.337255 0.321569
0.298039 0.341176 0.325490
0.309804 0.345098 0.333333
0.313725 0.349020 0.337255
0.325490 0.360784 0.341176
0.341176 0.364706 0.349020
0.352941 0.376471 0.360784
0.360784 0.384314 0.368627
0.376471 0.396078 0.380392
0.400000 0.407843 0.396078
0.415686 0.419608 0.400000
0.431373 0.427451 0.411765
0.447059 0.443137 0.427451
0.470588 0.454902 0.443137
0.494118 0.474510 0.462745
0.521569 0.490196 0.482353
0.545098 0.505882 0.501961
0.572549 0.533333 0.529412
0.600000 0.556863 0.549020
0.635294 0.580392 0.576471
0.662745 0.607843 0.603922
0.694118 0.631373 0.631373
0.725490 0.662745 0.662745
0.301961 0.345098 0.329412
0.305882 0.349020 0.333333
0.309804 0.352941 0.337255
0.313725 0.356863 0.341176
0.321569 0.364706 0.341176
0.329412 0.364706 0.345098
0.337255 0.372549 0.352941
0.345098 0.380392 0.360784
0.356863 0.392157 0.372549
0.376471 0.400000 0.384314
0.392157 0.411765 0.396078
