resources/LUTs/Black and White/20.cube
TITLE "B&W Preset #20"
#LUT size
LUT_3D_SIZE 9
#LUT data points
0.000000 0.000000 0.000000
0.027451 0.019608 0.023529
0.078431 0.054902 0.062745
0.133333 0.098039 0.101961
0.200000 0.160784 0.156863
0.282353 0.227451 0.227451
0.372549 0.298039 0.305882
0.470588 0.384314 0.392157
0.584314 0.482353 0.494118
0.086275 0.086275 0.078431
0.101961 0.109804 0.098039
0.141176 0.125490 0.121569
0.184314 0.160784 0.160784
0.250980 0.211765 0.215686
0.317647 0.270588 0.270588
0.403922 0.341176 0.341176
0.521569 0.423529 0.439216
0.619608 0.533333 0.545098
0.176471 0.196078 0.180392
0.176471 0.200000 0.192157
0.211765 0.219608 0.207843
0.247059 0.247059 0.239216
0.298039 0.282353 0.278431
0.360784 0.329412 0.321569
0.447059 0.392157 0.392157
0.541176 0.462745 0.466667
0.650980 0.552941 0.564706
0.290196 0.341176 0.313725
0.298039 0.333333 0.313725
0.321569 0.345098 0.329412
0.356863 0.376471 0.360784
0.407843 0.411765 0.392157
0.466667 0.447059 0.435294
0.545098 0.505882 0.498039
0.631373 0.576471 0.572549
0.725490 0.662745 0.662745
0.403922 0.462745 0.435294
0.403922 0.450980 0.435294
0.419608 0.462745 0.439216
0.450980 0.486275 0.466667
0.498039 0.525490 0.498039
0.552941 0.560784 0.541176
0.611765 0.607843 0.592157
0.698039 0.666667 0.654902
0.764706 0.725490 0.721569
0.498039 0.556863 0.529412
0.505882 0.568627 0.529412
0.517647 0.580392 0.541176
0.556863 0.607843 0.572549
0.596078 0.635294 0.603922
0.650980 0.670588 0.647059
0.701961 0.709804 0.690196
0.760784 0.764706 0.745098
0.807843 0.811765 0.788235
0.701961 0.752941 0.725490
0.686275 0.749020 0.705882
0.698039 0.741176 0.717647
0.717647 0.760784 0.729412
0.733333 0.772549 0.741176
0.772549 0.800000 0.772549
0.796078 0.815686 0.792157
0.839216 0.847059 0.835294
0.882353 0.886275 0.866667
0.803922 0.847059 0.823529
0.800000 0.835294 0.815686
0.800000 0.843137 0.819608
0.815686 0.850980 0.831373
0.827451 0.866667 0.835294
0.850980 0.878431 0.850980
0.870588 0.890196 0.866667
0.894118 0.901961 0.882353
0.913725 0.921569 0.901961
0.913725 0.937255 0.921569
0.905882 0.933333 0.905882
0.905882 0.929412 0.913725
0.913725 0.933333 0.917647
0.921569 0.941176 0.925490
0.933333 0.952941 0.937255
0.949020 0.956863 0.945098
0.956863 0.964706 0.945098
0.968627 0.976471 0.956863
0.019608 0.015686 0.047059
0.043137 0.031373 0.058824
0.101961 0.082353 0.109804
0.168627 0.145098 0.160784
0.239216 0.196078 0.219608
0.309804 0.258824 0.286275
0.400000 0.337255 0.349020
0.513725 0.415686 0.431373
0.623529 0.505882 0.537255
0.105882 0.109804 0.117647
0.121569 0.125490 0.145098
0.156863 0.152941 0.172549
0.211765 0.192157 0.207843
0.278431 0.243137 0.262745
0.349020 0.301961 0.317647
0.427451 0.364706 0.376471
0.537255 0.439216 0.454902
0.654902 0.541176 0.560784
0.184314 0.219608 0.215686
0.200000 0.219608 0.231373
0.231373 0.239216 0.235294
0.266667 0.266667 0.274510
0.325490 0.309804 0.313725
0.384314 0.349020 0.360784
0.462745 0.415686 0.423529
0.568627 0.494118 0.501961
0.666667 0.588235 0.592157
0.313725 0.352941 0.349020
0.325490 0.360784 0.349020
0.341176 0.376471 0.372549
0.384314 0.400000 0.396078
0.423529 0.431373 0.427451
0.482353 0.466667 0.462745
0.552941 0.517647 0.521569
0.627451 0.580392 0.580392
0.721569 0.666667 0.662745
0.439216 0.486275 0.470588
0.419608 0.478431 0.450980
0.447059 0.490196 0.474510
0.478431 0.513725 0.501961
0.521569 0.545098 0.529412
0.572549 0.580392 0.560784
0.635294 0.631373 0.615686
0.709804 0.690196 0.678431
0.772549 0.752941 0.737255
0.529412 0.588235 0.568627
0.533333 0.600000 0.576471
0.549020 0.607843 0.580392
0.576471 0.627451 0.600000
0.615686 0.650980 0.631373
0.662745 0.682353 0.666667
0.721569 0.725490 0.705882
0.772549 0.768627 0.752941
0.815686 0.811765 0.796078
0.717647 0.760784 0.737255
0.705882 0.752941 0.737255
0.717647 0.760784 0.737255
0.733333 0.776471 0.752941
0.752941 0.788235 0.768627
0.784314 0.803922 0.780392
0.803922 0.823529 0.800000
0.843137 0.847059 0.827451
0.886275 0.882353 0.866667
0.803922 0.854902 0.827451
0.811765 0.847059 0.827451
0.807843 0.850980 0.827451
0.819608 0.854902 0.835294
0.839216 0.862745 0.847059
0.854902 0.878431 0.862745
0.874510 0.894118 0.878431
0.894118 0.901961 0.890196
0.921569 0.925490 0.901961
0.913725 0.937255 0.929412
0.905882 0.945098 0.913725
0.913725 0.937255 0.921569
0.921569 0.945098 0.929412
0.921569 0.945098 0.929412
0.937255 0.956863 0.941176
0.949020 0.956863 0.945098
0.956863 0.964706 0.952941
0.972549 0.972549 0.964706
0.039216 0.035294 0.090196
0.062745 0.050980 0.117647
0.113725 0.098039 0.156863
0.180392 0.156863 0.203922
0.247059 0.215686 0.258824
0.325490 0.278431 0.317647
0.415686 0.352941 0.392157
0.521569 0.439216 0.474510
0.619608 0.529412 0.560784
0.117647 0.125490 0.176471
0.137255 0.137255 0.176471
0.172549 0.164706 0.207843
0.223529 0.211765 0.254902
0.290196 0.266667 0.313725
0.372549 0.325490 0.364706
0.450980 0.388235 0.427451
0.549020 0.462745 0.509804
0.650980 0.560784 0.592157
0.203922 0.231373 0.254902
0.207843 0.235294 0.266667
0.239216 0.250980 0.286275
0.282353 0.282353 0.313725
0.333333 0.321569 0.349020
0.400000 0.372549 0.400000
0.478431 0.435294 0.466667
0.576471 0.509804 0.533333
0.678431 0.596078 0.623529
0.329412 0.364706 0.384314
0.333333 0.368627 0.388235
0.352941 0.380392 0.403922
0.392157 0.411765 0.427451
0.439216 0.443137 0.462745
0.486275 0.478431 0.498039
0.568627 0.533333 0.552941
0.635294 0.592157 0.607843
0.729412 0.670588 0.682353
0.443137 0.498039 0.498039
0.435294 0.490196 0.494118
0.454902 0.501961 0.501961
0.482353 0.521569 0.525490
0.521569 0.552941 0.560784
0.584314 0.592157 0.588235
0.647059 0.639216 0.643137
0.705882 0.690196 0.686275
0.776471 0.752941 0.760784
0.545098 0.607843 0.596078
0.549020 0.611765 0.600000
0.564706 0.623529 0.611765
0.588235 0.635294 0.627451
0.627451 0.670588 0.654902
0.666667 0.690196 0.682353
0.721569 0.729412 0.725490
0.776471 0.776471 0.768627
0.819608 0.819608 0.811765
0.721569 0.768627 0.752941
0.705882 0.764706 0.745098
0.721569 0.768627 0.752941
0.737255 0.780392 0.764706
0.756863 0.792157 0.772549
0.780392 0.803922 0.788235
0.807843 0.827451 0.811765
0.835294 0.854902 0.839216
0.882353 0.882353 0.874510
0.819608 0.858824 0.854902
0.807843 0.858824 0.831373
0.811765 0.854902 0.831373
0.827451 0.862745 0.843137
0.847059 0.870588 0.854902
0.858824 0.882353 0.866667
0.878431 0.898039 0.882353
0.905882 0.909804 0.890196
0.921569 0.925490 0.905882
0.917647 0.933333 0.929412
0.905882 0.941176 0.921569
0.917647 0.941176 0.925490
0.921569 0.941176 0.925490
0.929412 0.949020 0.933333
0.933333 0.952941 0.937255
0.949020 0.956863 0.945098
0.952941 0.972549 0.956863
0.972549 0.980392 0.960784
0.066667 0.070588 0.180392
0.082353 0.082353 0.184314
0.137255 0.129412 0.223529
0.196078 0.176471 0.262745
0.270588 0.235294 0.309804
0.341176 0.298039 0.364706
0.419608 0.364706 0.423529
0.533333 0.450980 0.517647
0.627451 0.533333 0.588235
0.145098 0.152941 0.235294
0.160784 0.160784 0.254902
0.192157 0.184314 0.270588
0.235294 0.223529 0.305882
0.305882 0.274510 0.356863
0.380392 0.337255 0.403922
0.462745 0.407843 0.474510
0.568627 0.486275 0.552941
0.658824 0.568627 0.631373
0.223529 0.243137 0.317647
0.231373 0.254902 0.309804
0.254902 0.266667 0.333333
0.294118 0.298039 0.368627
0.349020 0.341176 0.396078
0.415686 0.388235 0.450980
0.501961 0.454902 0.509804
0.596078 0.525490 0.572549
0.678431 0.600000 0.647059
0.329412 0.376471 0.423529
0.341176 0.380392 0.419608
0.364706 0.396078 0.447059
0.400000 0.415686 0.462745
0.454902 0.454902 0.501961
0.509804 0.498039 0.541176
0.576471 0.545098 0.588235
0.654902 0.607843 0.647059
0.733333 0.682353 0.717647
0.447059 0.513725 0.552941
0.450980 0.501961 0.533333
0.466667 0.517647 0.541176
0.498039 0.533333 0.560784
0.541176 0.560784 0.584314
0.588235 0.600000 0.619608
0.650980 0.647059 0.670588
0.717647 0.698039 0.721569
0.796078 0.749020 0.756863
0.556863 0.615686 0.627451
0.556863 0.615686 0.627451
0.576471 0.631373 0.635294
0.603922 0.647059 0.654902
0.631373 0.670588 0.678431
0.678431 0.698039 0.709804
0.725490 0.729412 0.737255
0.784314 0.776471 0.780392
0.835294 0.819608 0.807843
0.713725 0.776471 0.772549
0.713725 0.772549 0.760784
0.721569 0.768627 0.760784
0.741176 0.780392 0.776471
0.768627 0.792157 0.792157
0.788235 0.811765 0.803922
0.811765 0.827451 0.823529
0.847059 0.854902 0.850980
0.886275 0.886275 0.878431
0.819608 0.858824 0.862745
0.815686 0.858824 0.843137
0.819608 0.862745 0.847059
0.827451 0.862745 0.850980
0.850980 0.874510 0.866667
0.858824 0.882353 0.874510
0.882353 0.898039 0.894118
0.905882 0.913725 0.909804
0.925490 0.925490 0.917647
0.917647 0.933333 0.929412
0.909804 0.933333 0.917647
0.917647 0.933333 0.929412
0.917647 0.941176 0.925490
0.929412 0.945098 0.941176
0.937255 0.952941 0.949020
0.941176 0.960784 0.945098
0.960784 0.968627 0.956863
0.972549 0.980392 0.960784
0.105882 0.113725 0.262745
0.117647 0.129412 0.266667
0.164706 0.164706 0.298039
0.223529 0.211765 0.333333
0.286275 0.258824 0.380392
0.360784 0.317647 0.435294
0.450980 0.388235 0.490196
0.549020 0.470588 0.568627
0.647059 0.552941 0.647059
0.172549 0.192157 0.317647
0.192157 0.192157 0.325490
0.215686 0.219608 0.341176
0.266667 0.254902 0.376471
0.325490 0.305882 0.423529
0.400000 0.360784 0.466667
0.478431 0.423529 0.525490
0.568627 0.498039 0.592157
0.670588 0.584314 0.666667
0.247059 0.274510 0.384314
0.262745 0.278431 0.384314
0.278431 0.294118 0.400000
0.317647 0.325490 0.423529
0.368627 0.360784 0.454902
0.435294 0.415686 0.501961
0.509804 0.474510 0.556863
0.603922 0.545098 0.619608
0.698039 0.615686 0.674510
0.352941 0.400000 0.494118
0.356863 0.400000 0.478431
0.380392 0.411765 0.494118
0.419608 0.439216 0.517647
0.462745 0.470588 0.552941
0.521569 0.517647 0.588235
0.592157 0.564706 0.627451
0.658824 0.615686 0.670588
0.733333 0.678431 0.729412
0.466667 0.517647 0.580392
0.466667 0.517647 0.580392
0.482353 0.529412 0.584314
0.513725 0.541176 0.603922
0.552941 0.576471 0.631373
0.607843 0.615686 0.666667
0.666667 0.658824 0.701961
0.725490 0.701961 0.741176
0.792157 0.752941 0.784314
0.564706 0.623529 0.650980
0.568627 0.627451 0.654902
0.584314 0.635294 0.670588
0.611765 0.654902 0.678431
0.639216 0.674510 0.701961
0.682353 0.701961 0.725490
0.741176 0.745098 0.764706
0.788235 0.784314 0.803922
0.839216 0.823529 0.827451
0.721569 0.764706 0.772549
0.713725 0.756863 0.764706
0.725490 0.768627 0.776471
0.737255 0.776471 0.784314
0.764706 0.796078 0.803922
0.792157 0.815686 0.815686
0.815686 0.831373 0.835294
0.854902 0.854902 0.862745
0.890196 0.890196 0.890196
0.819608 0.858824 0.854902
0.819608 0.854902 0.843137
0.819608 0.858824 0.854902
0.827451 0.862745 0.858824
0.850980 0.874510 0.866667
0.866667 0.890196 0.882353
0.886275 0.901961 0.898039
0.905882 0.913725 0.909804
0.933333 0.933333 0.933333
0.913725 0.941176 0.913725
0.901961 0.937255 0.925490
0.901961 0.937255 0.925490
0.921569 0.945098 0.937255
0.925490 0.949020 0.941176
0.933333 0.949020 0.945098
0.952941 0.960784 0.956863
0.960784 0.968627 0.964706
0.976471 0.976471 0.968627
0.160784 0.172549 0.349020
0.172549 0.184314 0.360784
0.203922 0.207843 0.380392
0.262745 0.243137 0.403922
0.321569 0.286275 0.454902
0.392157 0.349020 0.513725
0.474510 0.419608 0.560784
0.556863 0.490196 0.615686
0.647059 0.584314 0.698039
0.223529 0.227451 0.400000
0.223529 0.239216 0.415686
0.250980 0.254902 0.427451
0.294118 0.290196 0.447059
0.349020 0.329412 0.486275
0.423529 0.380392 0.537255
0.494118 0.439216 0.580392
0.580392 0.505882 0.623529
0.666667 0.592157 0.701961
0.290196 0.321569 0.466667
0.301961 0.317647 0.462745
0.321569 0.329412 0.482353
0.345098 0.352941 0.501961
0.403922 0.400000 0.533333
0.470588 0.443137 0.576471
0.533333 0.498039 0.619608
0.615686 0.560784 0.662745
0.686275 0.635294 0.713725
0.392157 0.435294 0.560784
0.407843 0.431373 0.556863
0.419608 0.447059 0.560784
0.447059 0.466667 0.584314
0.486275 0.501961 0.615686
0.545098 0.537255 0.631373
0.596078 0.576471 0.662745
0.662745 0.631373 0.713725
0.737255 0.686275 0.756863
0.501961 0.549020 0.650980
0.509804 0.556863 0.650980
0.525490 0.568627 0.647059
0.560784 0.588235 0.662745
0.596078 0.607843 0.682353
0.623529 0.635294 0.701961
0.674510 0.670588 0.725490
0.725490 0.709804 0.764706
0.780392 0.749020 0.792157
0.596078 0.643137 0.698039
0.600000 0.647059 0.701961
0.619608 0.658824 0.705882
0.643137 0.674510 0.725490
0.670588 0.694118 0.741176
0.713725 0.729412 0.772549
0.760784 0.760784 0.792157
0.788235 0.784314 0.807843
0.835294 0.823529 0.858824
0.733333 0.768627 0.788235
0.729412 0.768627 0.803922
0.737255 0.772549 0.792157
0.749020 0.784314 0.803922
0.768627 0.796078 0.819608
0.800000 0.811765 0.831373
0.819608 0.831373 0.850980
0.862745 0.862745 0.870588
0.894118 0.890196 0.909804
0.823529 0.862745 0.870588
0.819608 0.866667 0.866667
0.839216 0.858824 0.874510
0.835294 0.870588 0.866667
0.850980 0.886275 0.882353
0.870588 0.894118 0.894118
0.890196 0.905882 0.909804
0.909804 0.917647 0.913725
0.941176 0.933333 0.945098
0.909804 0.945098 0.933333
0.917647 0.937255 0.921569
0.917647 0.941176 0.933333
0.913725 0.949020 0.945098
0.925490 0.949020 0.941176
0.941176 0.956863 0.952941
0.956863 0.964706 0.952941
0.972549 0.972549 0.972549
0.980392 0.980392 0.980392
0.215686 0.223529 0.447059
0.227451 0.231373 0.454902
0.247059 0.250980 0.470588
0.294118 0.282353 0.498039
0.352941 0.325490 0.529412
0.411765 0.380392 0.572549
0.486275 0.443137 0.611765
0.564706 0.505882 0.658824
0.650980 0.584314 0.717647
0.262745 0.270588 0.494118
0.270588 0.282353 0.498039
0.286275 0.298039 0.505882
0.325490 0.325490 0.529412
0.372549 0.356863 0.556863
0.439216 0.407843 0.592157
0.498039 0.462745 0.631373
0.584314 0.529412 0.670588
0.666667 0.607843 0.729412
0.337255 0.352941 0.541176
0.341176 0.364706 0.552941
0.356863 0.372549 0.560784
0.384314 0.396078 0.572549
0.435294 0.431373 0.603922
0.486275 0.466667 0.627451
0.549020 0.517647 0.662745
0.619608 0.576471 0.701961
0.682353 0.643137 0.741176
0.431373 0.462745 0.615686
0.439216 0.470588 0.623529
0.458824 0.478431 0.627451
0.482353 0.498039 0.643137
0.521569 0.521569 0.654902
0.560784 0.556863 0.678431
0.619608 0.603922 0.709804
0.666667 0.647059 0.737255
0.729412 0.694118 0.776471
0.560784 0.588235 0.690196
0.564706 0.603922 0.709804
0.576471 0.603922 0.705882
0.596078 0.619608 0.713725
0.611765 0.627451 0.725490
0.650980 0.658824 0.741176
0.690196 0.682353 0.764706
0.725490 0.713725 0.780392
0.776471 0.760784 0.827451
0.650980 0.686275 0.752941
0.654902 0.690196 0.756863
0.666667 0.694118 0.756863
0.686275 0.713725 0.776471
0.713725 0.725490 0.784314
0.741176 0.749020 0.800000
0.772549 0.772549 0.819608
0.800000 0.792157 0.835294
0.831373 0.819608 0.854902
0.737255 0.780392 0.803922
0.741176 0.776471 0.803922
0.745098 0.780392 0.815686
0.764706 0.792157 0.823529
0.788235 0.803922 0.839216
0.807843 0.827451 0.850980
0.831373 0.843137 0.862745
0.866667 0.870588 0.878431
0.890196 0.894118 0.901961
0.819608 0.858824 0.866667
0.823529 0.862745 0.870588
0.823529 0.862745 0.866667
0.835294 0.866667 0.874510
0.850980 0.882353 0.890196
0.866667 0.886275 0.898039
0.890196 0.905882 0.917647
0.913725 0.917647 0.933333
0.945098 0.933333 0.960784
0.917647 0.941176 0.941176
0.917647 0.941176 0.941176
0.909804 0.941176 0.949020
0.925490 0.949020 0.949020
0.925490 0.960784 0.949020
0.937255 0.952941 0.949020
0.960784 0.968627 0.964706
0.968627 0.976471 0.972549
0.984314 0.984314 0.984314
0.266667 0.278431 0.541176
0.282353 0.286275 0.549020
0.305882 0.309804 0.564706
0.337255 0.329412 0.588235
0.384314 0.368627 0.607843
0.447059 0.415686 0.639216
0.513725 0.474510 0.678431
0.580392 0.533333 0.713725
0.650980 0.607843 0.741176
0.305882 0.317647 0.580392
0.321569 0.317647 0.576471
0.333333 0.337255 0.592157
0.364706 0.364706 0.607843
0.403922 0.400000 0.635294
0.470588 0.443137 0.654902
0.525490 0.494118 0.686275
0.600000 0.556863 0.721569
0.658824 0.615686 0.749020
0.368627 0.392157 0.627451
0.384314 0.403922 0.623529
0.403922 0.411765 0.635294
0.423529 0.435294 0.650980
0.470588 0.462745 0.658824
0.521569 0.509804 0.694118
0.576471 0.549020 0.713725
0.639216 0.600000 0.745098
0.694118 0.650980 0.776471
0.474510 0.501961 0.682353
0.482353 0.509804 0.682353
0.501961 0.517647 0.694118
0.525490 0.537255 0.705882
0.552941 0.560784 0.713725
0.592157 0.584314 0.729412
0.639216 0.623529 0.752941
0.686275 0.662745 0.772549
0.733333 0.701961 0.796078
0.611765 0.635294 0.760784
0.607843 0.635294 0.749020
0.611765 0.631373 0.749020
0.627451 0.643137 0.756863
0.650980 0.654902 0.764706
0.678431 0.678431 0.780392
0.709804 0.701961 0.796078
0.745098 0.733333 0.807843
0.788235 0.764706 0.819608
0.717647 0.737255 0.811765
0.721569 0.741176 0.815686
0.725490 0.749020 0.811765
0.733333 0.756863 0.819608
0.745098 0.756863 0.823529
0.756863 0.768627 0.827451
0.780392 0.788235 0.835294
0.811765 0.811765 0.858824
0.839216 0.823529 0.878431
0.780392 0.807843 0.847059
0.784314 0.807843 0.862745
0.784314 0.811765 0.850980
0.792157 0.819608 0.858824
0.815686 0.831373 0.874510
0.831373 0.843137 0.870588
0.847059 0.858824 0.886275
0.862745 0.874510 0.894118
0.898039 0.886275 0.921569
0.847059 0.866667 0.890196
0.839216 0.866667 0.905882
0.850980 0.870588 0.894118
0.847059 0.874510 0.898039
0.870588 0.882353 0.901961
0.882353 0.894118 0.913725
0.905882 0.909804 0.925490
0.929412 0.925490 0.945098
0.952941 0.949020 0.968627
0.913725 0.949020 0.945098
0.921569 0.941176 0.952941
0.925490 0.945098 0.956863
0.925490 0.949020 0.949020
0.933333 0.956863 0.956863
0.945098 0.960784 0.964706
0.956863 0.972549 0.968627
0.972549 0.980392 0.976471
0.992157 0.992157 0.984314
0.329412 0.345098 0.635294
0.337255 0.345098 0.635294
0.360784 0.360784 0.643137
0.392157 0.384314 0.670588
0.435294 0.415686 0.678431
0.486275 0.462745 0.705882
0.549020 0.513725 0.729412
0.615686 0.568627 0.756863
0.690196 0.635294 0.776471
0.368627 0.380392 0.658824
0.364706 0.372549 0.666667
0.392157 0.392157 0.666667
0.419608 0.415686 0.682353
0.454902 0.447059 0.694118
0.505882 0.486275 0.713725
0.564706 0.533333 0.733333
0.631373 0.588235 0.756863
0.690196 0.643137 0.784314
0.435294 0.439216 0.690196
0.443137 0.447059 0.698039
0.454902 0.458824 0.709804
0.478431 0.482353 0.705882
0.513725 0.513725 0.725490
0.556863 0.541176 0.737255
0.607843 0.584314 0.756863
0.658824 0.627451 0.780392
0.721569 0.678431 0.811765
0.537255 0.552941 0.741176
0.537255 0.545098 0.733333
0.552941 0.560784 0.749020
0.568627 0.572549 0.752941
0.592157 0.600000 0.760784
0.627451 0.619608 0.772549
0.666667 0.650980 0.780392
0.709804 0.690196 0.815686
0.756863 0.721569 0.827451
0.643137 0.666667 0.800000
0.639216 0.658824 0.784314
0.650980 0.662745 0.792157
0.658824 0.670588 0.792157
0.682353 0.686275 0.803922
0.701961 0.701961 0.803922
0.733333 0.725490 0.819608
0.768627 0.756863 0.839216
0.803922 0.776471 0.847059
0.788235 0.800000 0.866667
0.784314 0.796078 0.862745
0.784314 0.796078 0.854902
0.772549 0.784314 0.858824
0.764706 0.768627 0.839216
0.780392 0.784314 0.854902
0.803922 0.800000 0.862745
0.831373 0.823529 0.878431
0.858824 0.847059 0.882353
0.843137 0.870588 0.901961
0.850980 0.870588 0.894118
0.850980 0.866667 0.901961
0.858824 0.870588 0.905882
0.870588 0.882353 0.909804
0.858824 0.870588 0.898039
0.858824 0.870588 0.898039
0.886275 0.882353 0.905882
0.909804 0.898039 0.933333
0.898039 0.917647 0.929412
0.898039 0.909804 0.929412
0.901961 0.913725 0.933333
0.898039 0.909804 0.929412
0.909804 0.921569 0.941176
0.917647 0.933333 0.945098
0.937255 0.941176 0.956863
0.952941 0.952941 0.960784
0.960784 0.956863 0.976471
0.949020 0.964706 0.968627
0.945098 0.964706 0.976471
0.952941 0.968627 0.972549
0.952941 0.968627 0.972549
0.956863 0.972549 0.976471
0.972549 0.980392 0.976471
0.980392 0.988235 0.984314
0.996078 0.996078 0.996078
1.000000 1.000000 1.000000
