resources/LUTs/Black and White/20.cube
TITLE "B&W Preset #20"
#LUT size
LUT_3D_SIZE 5
#LUT data points
0.000000 0.000000 0.000000
0.078431 0.054902 0.062745
0.200000 0.160784 0.156863
0.372549 0.298039 0.305882
0.584314 0.482353 0.494118
0.176471 0.196078 0.180392
0.211765 0.219608 0.207843
0.298039 0.282353 0.278431
0.447059 0.392157 0.392157
0.650980 0.552941 0.564706
0.403922 0.462745 0.435294
0.419608 0.462745 0.439216
0.498039 0.525490 0.498039
0.611765 0.607843 0.592157
0.764706 0.725490 0.721569
0.701961 0.752941 0.725490
0.698039 0.741176 0.717647
0.733333 0.772549 0.741176
0.796078 0.815686 0.792157
0.882353 0.886275 0.866667
0.913725 0.937255 0.921569
0.905882 0.929412 0.913725
0.921569 0.941176 0.925490
0.949020 0.956863 0.945098
0.968627 0.976471 0.956863
0.039216 0.035294 0.090196
0.113725 0.098039 0.156863
0.247059 0.215686 0.258824
0.415686 0.352941 0.392157
0.619608 0.529412 0.560784
0.203922 0.231373 0.254902
0.239216 0.250980 0.286275
0.333333 0.321569 0.349020
0.478431 0.435294 0.466667
0.678431 0.596078 0.623529
0.443137 0.498039 0.498039
0.454902 0.501961 0.501961
0.521569 0.552941 0.560784
0.647059 0.639216 0.643137
0.776471 0.752941 0.760784
0.721569 0.768627 0.752941
0.721569 0.768627 0.752941
0.756863 0.792157 0.772549
0.807843 0.827451 0.811765
0.882353 0.882353 0.874510
0.917647 0.933333 0.929412
0.917647 0.941176 0.925490
0.929412 0.949020 0.933333
0.949020 0.956863 0.945098
0.972549 0.980392 0.960784
0.105882 0.113725 0.262745
0.164706 0.164706 0.298039
0.286275 0.258824 0.380392
0.450980 0.388235 0.490196
0.647059 0.552941 0.647059
0.247059 0.274510 0.384314
0.278431 0.294118 0.400000
0.368627 0.360784 0.454902
0.509804 0.474510 0.556863
0.698039 0.615686 0.674510
0.466667 0.517647 0.580392
0.482353 0.529412 0.584314
0.552941 0.576471 0.631373
0.666667 0.658824 0.701961
0.792157 0.752941 0.784314
0.721569 0.764706 0.772549
0.725490 0.768627 0.776471
0.764706 0.796078 0.803922
0.815686 0.831373 0.835294
0.890196 0.890196 0.890196
0.913725 0.941176 0.913725
0.901961 0.937255 0.925490
0.925490 0.949020 0.941176
0.952941 0.960784 0.956863
0.976471 0.976471 0.968627
0.215686 0.223529 0.447059
0.247059 0.250980 0.470588
0.352941 0.325490 0.529412
0.486275 0.443137 0.611765
0.650980 0.584314 0.717647
0.337255 0.352941 0.541176
0.356863 0.372549 0.560784
0.435294 0.431373 0.603922
0.549020 0.517647 0.662745
0.682353 0.643137 0.741176
0.560784 0.588235 0.690196
0.576471 0.603922 0.705882
0.611765 0.627451 0.725490
0.690196 0.682353 0.764706
0.776471 0.760784 0.827451
0.737255 0.780392 0.803922
0.745098 0.780392 0.815686
0.788235 0.803922 0.839216
0.831373 0.843137 0.862745
0.890196 0.894118 0.901961
0.917647 0.941176 0.941176
0.909804 0.941176 0.949020
0.925490 0.960784 0.949020
0.960784 0.968627 0.964706
0.984314 0.984314 0.984314
0.329412 0.345098 0.635294
0.360784 0.360784 0.643137
0.435294 0.415686 0.678431
0.549020 0.513725 0.729412
0.690196 0.635294 0.776471
0.435294 0.439216 0.690196
0.454902 0.458824 0.709804
0.513725 0.513725 0.725490
0.607843 0.584314 0.756863
0.721569 0.678431 0.811765
0.643137 0.666667 0.800000
0.650980 0.662745 0.792157
0.682353 0.686275 0.803922
0.733333 0.725490 0.819608
0.803922 0.776471 0.847059
0.843137 0.870588 0.901961
0.850980 0.866667 0.901961
0.870588 0.882353 0.909804
0.858824 0.870588 0.898039
0.909804 0.898039 0.933333
0.949020 0.964706 0.968627
0.952941 0.968627 0.972549
0.956863 0.972549 0.976471
0.980392 0.988235 0.984314
1.000000 1.000000 1.000000
