resources/LUTs/Black and White/3.cube
TITLE "B&W Preset #3"
#LUT size
LUT_3D_SIZE 9
#LUT data points
0.000000 0.000000 0.000000
0.019608 0.019608 0.019608
0.054902 0.054902 0.054902
0.105882 0.105882 0.105882
0.164706 0.164706 0.164706
0.235294 0.235294 0.235294
0.305882 0.305882 0.305882
0.392157 0.392157 0.392157
0.505882 0.505882 0.505882
0.074510 0.074510 0.074510
0.082353 0.082353 0.082353
0.109804 0.109804 0.109804
0.149020 0.149020 0.149020
0.200000 0.200000 0.200000
0.258824 0.258824 0.258824
0.337255 0.337255 0.337255
0.423529 0.423529 0.423529
0.541176 0.541176 0.541176
0.168627 0.168627 0.168627
0.164706 0.164706 0.164706
0.184314 0.184314 0.184314
0.219608 0.219608 0.219608
0.258824 0.258824 0.258824
0.309804 0.309804 0.309804
0.380392 0.380392 0.380392
0.462745 0.462745 0.462745
0.572549 0.572549 0.572549
0.282353 0.282353 0.282353
0.278431 0.278431 0.278431
0.286275 0.286275 0.286275
0.313725 0.313725 0.313725
0.364706 0.364706 0.364706
0.407843 0.407843 0.407843
0.466667 0.466667 0.466667
0.556863 0.556863 0.556863
0.666667 0.666667 0.666667
0.400000 0.400000 0.400000
0.392157 0.392157 0.392157
0.400000 0.400000 0.400000
0.423529 0.423529 0.423529
0.450980 0.450980 0.450980
0.509804 0.509804 0.509804
0.572549 0.572549 0.572549
0.643137 0.643137 0.643137
0.741176 0.741176 0.741176
0.517647 0.517647 0.517647
0.521569 0.521569 0.521569
0.533333 0.533333 0.533333
0.552941 0.552941 0.552941
0.580392 0.580392 0.580392
0.615686 0.615686 0.615686
0.686275 0.686275 0.686275
0.749020 0.749020 0.749020
0.815686 0.815686 0.815686
0.717647 0.717647 0.717647
0.713725 0.713725 0.713725
0.713725 0.713725 0.713725
0.733333 0.733333 0.733333
0.745098 0.745098 0.745098
0.772549 0.772549 0.772549
0.788235 0.788235 0.788235
0.843137 0.843137 0.843137
0.894118 0.894118 0.894118
0.850980 0.850980 0.850980
0.847059 0.847059 0.847059
0.850980 0.850980 0.850980
0.858824 0.858824 0.858824
0.870588 0.870588 0.870588
0.882353 0.882353 0.882353
0.898039 0.898039 0.898039
0.909804 0.909804 0.909804
0.937255 0.937255 0.937255
0.956863 0.956863 0.956863
0.956863 0.956863 0.956863
0.956863 0.956863 0.956863
0.956863 0.956863 0.956863
0.968627 0.968627 0.968627
0.972549 0.972549 0.972549
0.976471 0.976471 0.976471
0.984314 0.984314 0.984314
0.996078 0.996078 0.996078
0.015686 0.015686 0.015686
0.027451 0.027451 0.027451
0.074510 0.074510 0.074510
0.129412 0.129412 0.129412
0.188235 0.188235 0.188235
0.250980 0.250980 0.250980
0.325490 0.325490 0.325490
0.411765 0.411765 0.411765
0.521569 0.521569 0.521569
0.078431 0.078431 0.078431
0.094118 0.094118 0.094118
0.121569 0.121569 0.121569
0.164706 0.164706 0.164706
0.219608 0.219608 0.219608
0.282353 0.282353 0.282353
0.349020 0.349020 0.349020
0.443137 0.443137 0.443137
0.560784 0.560784 0.560784
0.176471 0.176471 0.176471
0.176471 0.176471 0.176471
0.196078 0.196078 0.196078
0.231373 0.231373 0.231373
0.266667 0.266667 0.266667
0.325490 0.325490 0.325490
0.388235 0.388235 0.388235
0.478431 0.478431 0.478431
0.596078 0.596078 0.596078
0.290196 0.290196 0.290196
0.294118 0.294118 0.294118
0.305882 0.305882 0.305882
0.325490 0.325490 0.325490
0.376471 0.376471 0.376471
0.419608 0.419608 0.419608
0.478431 0.478431 0.478431
0.564706 0.564706 0.564706
0.678431 0.678431 0.678431
0.415686 0.415686 0.415686
0.407843 0.407843 0.407843
0.415686 0.415686 0.415686
0.435294 0.435294 0.435294
0.462745 0.462745 0.462745
0.517647 0.517647 0.517647
0.584314 0.584314 0.584314
0.662745 0.662745 0.662745
0.752941 0.752941 0.752941
0.533333 0.533333 0.533333
0.537255 0.537255 0.537255
0.549020 0.549020 0.549020
0.560784 0.560784 0.560784
0.588235 0.588235 0.588235
0.619608 0.619608 0.619608
0.698039 0.698039 0.698039
0.764706 0.764706 0.764706
0.823529 0.823529 0.823529
0.725490 0.725490 0.725490
0.729412 0.729412 0.729412
0.725490 0.725490 0.725490
0.737255 0.737255 0.737255
0.756863 0.756863 0.756863
0.772549 0.772549 0.772549
0.807843 0.807843 0.807843
0.850980 0.850980 0.850980
0.894118 0.894118 0.894118
0.854902 0.854902 0.854902
0.854902 0.854902 0.854902
0.858824 0.858824 0.858824
0.862745 0.862745 0.862745
0.866667 0.866667 0.866667
0.886275 0.886275 0.886275
0.901961 0.901961 0.901961
0.909804 0.909804 0.909804
0.937255 0.937255 0.937255
0.956863 0.956863 0.956863
0.956863 0.956863 0.956863
0.960784 0.960784 0.960784
0.964706 0.964706 0.964706
0.964706 0.964706 0.964706
0.972549 0.972549 0.972549
0.976471 0.976471 0.976471
0.984314 0.984314 0.984314
0.996078 0.996078 0.996078
0.035294 0.035294 0.035294
0.047059 0.047059 0.047059
0.078431 0.078431 0.078431
0.133333 0.133333 0.133333
0.196078 0.196078 0.196078
0.262745 0.262745 0.262745
0.337255 0.337255 0.337255
0.419608 0.419608 0.419608
0.533333 0.533333 0.533333
0.101961 0.101961 0.101961
0.109804 0.109804 0.109804
0.129412 0.129412 0.129412
0.176471 0.176471 0.176471
0.231373 0.231373 0.231373
0.294118 0.294118 0.294118
0.364706 0.364706 0.364706
0.450980 0.450980 0.450980
0.564706 0.564706 0.564706
0.164706 0.164706 0.164706
0.180392 0.180392 0.180392
0.203922 0.203922 0.203922
0.239216 0.239216 0.239216
0.282353 0.282353 0.282353
0.337255 0.337255 0.337255
0.400000 0.400000 0.400000
0.490196 0.490196 0.490196
0.596078 0.596078 0.596078
0.298039 0.298039 0.298039
0.301961 0.301961 0.301961
0.317647 0.317647 0.317647
0.337255 0.337255 0.337255
0.376471 0.376471 0.376471
0.423529 0.423529 0.423529
0.490196 0.490196 0.490196
0.576471 0.576471 0.576471
0.682353 0.682353 0.682353
0.423529 0.423529 0.423529
0.415686 0.415686 0.415686
0.427451 0.427451 0.427451
0.443137 0.443137 0.443137
0.470588 0.470588 0.470588
0.525490 0.525490 0.525490
0.588235 0.588235 0.588235
0.666667 0.666667 0.666667
0.752941 0.752941 0.752941
0.549020 0.549020 0.549020
0.552941 0.552941 0.552941
0.560784 0.560784 0.560784
0.572549 0.572549 0.572549
0.596078 0.596078 0.596078
0.627451 0.627451 0.627451
0.701961 0.701961 0.701961
0.764706 0.764706 0.764706
0.827451 0.827451 0.827451
0.733333 0.733333 0.733333
0.729412 0.729412 0.729412
0.737255 0.737255 0.737255
0.745098 0.745098 0.745098
0.760784 0.760784 0.760784
0.780392 0.780392 0.780392
0.807843 0.807843 0.807843
0.854902 0.854902 0.854902
0.898039 0.898039 0.898039
0.862745 0.862745 0.862745
0.858824 0.858824 0.858824
0.862745 0.862745 0.862745
0.866667 0.866667 0.866667
0.878431 0.878431 0.878431
0.886275 0.886275 0.886275
0.898039 0.898039 0.898039
0.917647 0.917647 0.917647
0.941176 0.941176 0.941176
0.960784 0.960784 0.960784
0.956863 0.956863 0.956863
0.960784 0.960784 0.960784
0.964706 0.964706 0.964706
0.968627 0.968627 0.968627
0.972549 0.972549 0.972549
0.976471 0.976471 0.976471
0.984314 0.984314 0.984314
0.996078 0.996078 0.996078
0.074510 0.074510 0.074510
0.082353 0.082353 0.082353
0.105882 0.105882 0.105882
0.137255 0.137255 0.137255
0.196078 0.196078 0.196078
0.266667 0.266667 0.266667
0.341176 0.341176 0.341176
0.431373 0.431373 0.431373
0.537255 0.537255 0.537255
0.133333 0.133333 0.133333
0.141176 0.141176 0.141176
0.152941 0.152941 0.152941
0.176471 0.176471 0.176471
0.227451 0.227451 0.227451
0.298039 0.298039 0.298039
0.368627 0.368627 0.368627
0.458824 0.458824 0.458824
0.564706 0.564706 0.564706
0.184314 0.184314 0.184314
0.200000 0.200000 0.200000
0.227451 0.227451 0.227451
0.243137 0.243137 0.243137
0.290196 0.290196 0.290196
0.345098 0.345098 0.345098
0.415686 0.415686 0.415686
0.498039 0.498039 0.498039
0.600000 0.600000 0.600000
0.278431 0.278431 0.278431
0.286275 0.286275 0.286275
0.309804 0.309804 0.309804
0.341176 0.341176 0.341176
0.380392 0.380392 0.380392
0.435294 0.435294 0.435294
0.498039 0.498039 0.498039
0.580392 0.580392 0.580392
0.686275 0.686275 0.686275
0.419608 0.419608 0.419608
0.419608 0.419608 0.419608
0.435294 0.435294 0.435294
0.454902 0.454902 0.454902
0.478431 0.478431 0.478431
0.533333 0.533333 0.533333
0.596078 0.596078 0.596078
0.670588 0.670588 0.670588
0.756863 0.756863 0.756863
0.556863 0.556863 0.556863
0.560784 0.560784 0.560784
0.572549 0.572549 0.572549
0.584314 0.584314 0.584314
0.607843 0.607843 0.607843
0.639216 0.639216 0.639216
0.705882 0.705882 0.705882
0.768627 0.768627 0.768627
0.827451 0.827451 0.827451
0.737255 0.737255 0.737255
0.737255 0.737255 0.737255
0.737255 0.737255 0.737255
0.745098 0.745098 0.745098
0.764706 0.764706 0.764706
0.784314 0.784314 0.784314
0.807843 0.807843 0.807843
0.854902 0.854902 0.854902
0.901961 0.901961 0.901961
0.862745 0.862745 0.862745
0.862745 0.862745 0.862745
0.862745 0.862745 0.862745
0.870588 0.870588 0.870588
0.878431 0.878431 0.878431
0.890196 0.890196 0.890196
0.901961 0.901961 0.901961
0.913725 0.913725 0.913725
0.941176 0.941176 0.941176
0.960784 0.960784 0.960784
0.960784 0.960784 0.960784
0.960784 0.960784 0.960784
0.964706 0.964706 0.964706
0.968627 0.968627 0.968627
0.972549 0.972549 0.972549
0.976471 0.976471 0.976471
0.988235 0.988235 0.988235
0.996078 0.996078 0.996078
0.113725 0.113725 0.113725
0.121569 0.121569 0.121569
0.141176 0.141176 0.141176
0.172549 0.172549 0.172549
0.207843 0.207843 0.207843
0.266667 0.266667 0.266667
0.352941 0.352941 0.352941
0.447059 0.447059 0.447059
0.552941 0.552941 0.552941
0.168627 0.168627 0.168627
0.176471 0.176471 0.176471
0.188235 0.188235 0.188235
0.211765 0.211765 0.211765
0.243137 0.243137 0.243137
0.294118 0.294118 0.294118
0.380392 0.380392 0.380392
0.474510 0.474510 0.474510
0.580392 0.580392 0.580392
0.235294 0.235294 0.235294
0.247059 0.247059 0.247059
0.254902 0.254902 0.254902
0.270588 0.270588 0.270588
0.298039 0.298039 0.298039
0.345098 0.345098 0.345098
0.423529 0.423529 0.423529
0.505882 0.505882 0.505882
0.607843 0.607843 0.607843
0.298039 0.298039 0.298039
0.305882 0.305882 0.305882
0.325490 0.325490 0.325490
0.368627 0.368627 0.368627
0.388235 0.388235 0.388235
0.443137 0.443137 0.443137
0.505882 0.505882 0.505882
0.588235 0.588235 0.588235
0.686275 0.686275 0.686275
0.400000 0.400000 0.400000
0.400000 0.400000 0.400000
0.423529 0.423529 0.423529
0.450980 0.450980 0.450980
0.498039 0.498039 0.498039
0.541176 0.541176 0.541176
0.603922 0.603922 0.603922
0.674510 0.674510 0.674510
0.752941 0.752941 0.752941
0.552941 0.552941 0.552941
0.556863 0.556863 0.556863
0.568627 0.568627 0.568627
0.600000 0.600000 0.600000
0.619608 0.619608 0.619608
0.647059 0.647059 0.647059
0.709804 0.709804 0.709804
0.772549 0.772549 0.772549
0.831373 0.831373 0.831373
0.741176 0.741176 0.741176
0.737255 0.737255 0.737255
0.745098 0.745098 0.745098
0.756863 0.756863 0.756863
0.768627 0.768627 0.768627
0.792157 0.792157 0.792157
0.811765 0.811765 0.811765
0.858824 0.858824 0.858824
0.901961 0.901961 0.901961
0.862745 0.862745 0.862745
0.858824 0.858824 0.858824
0.866667 0.866667 0.866667
0.874510 0.874510 0.874510
0.882353 0.882353 0.882353
0.890196 0.890196 0.890196
0.905882 0.905882 0.905882
0.917647 0.917647 0.917647
0.945098 0.945098 0.945098
0.960784 0.960784 0.960784
0.960784 0.960784 0.960784
0.960784 0.960784 0.960784
0.964706 0.964706 0.964706
0.968627 0.968627 0.968627
0.972549 0.972549 0.972549
0.976471 0.976471 0.976471
0.984314 0.984314 0.984314
0.992157 0.992157 0.992157
0.176471 0.176471 0.176471
0.176471 0.176471 0.176471
0.196078 0.196078 0.196078
0.215686 0.215686 0.215686
0.247059 0.247059 0.247059
0.290196 0.290196 0.290196
0.349020 0.349020 0.349020
0.454902 0.454902 0.454902
0.584314 0.584314 0.584314
0.219608 0.219608 0.219608
0.219608 0.219608 0.219608
0.231373 0.231373 0.231373
0.250980 0.250980 0.250980
0.274510 0.274510 0.274510
0.317647 0.317647 0.317647
0.372549 0.372549 0.372549
0.478431 0.478431 0.478431
0.603922 0.603922 0.603922
0.286275 0.286275 0.286275
0.286275 0.286275 0.286275
0.290196 0.290196 0.290196
0.309804 0.309804 0.309804
0.333333 0.333333 0.333333
0.372549 0.372549 0.372549
0.423529 0.423529 0.423529
0.521569 0.521569 0.521569
0.635294 0.635294 0.635294
0.345098 0.345098 0.345098
0.356863 0.356863 0.356863
0.388235 0.388235 0.388235
0.407843 0.407843 0.407843
0.427451 0.427451 0.427451
0.454902 0.454902 0.454902
0.509804 0.509804 0.509804
0.607843 0.607843 0.607843
0.701961 0.701961 0.701961
0.431373 0.431373 0.431373
0.439216 0.439216 0.439216
0.454902 0.454902 0.454902
0.482353 0.482353 0.482353
0.533333 0.533333 0.533333
0.556863 0.556863 0.556863
0.611765 0.611765 0.611765
0.682353 0.682353 0.682353
0.756863 0.756863 0.756863
0.537255 0.537255 0.537255
0.541176 0.541176 0.541176
0.560784 0.560784 0.560784
0.584314 0.584314 0.584314
0.623529 0.623529 0.623529
0.674510 0.674510 0.674510
0.721569 0.721569 0.721569
0.772549 0.772549 0.772549
0.835294 0.835294 0.835294
0.741176 0.741176 0.741176
0.737255 0.737255 0.737255
0.752941 0.752941 0.752941
0.764706 0.764706 0.764706
0.784314 0.784314 0.784314
0.800000 0.800000 0.800000
0.823529 0.823529 0.823529
0.866667 0.866667 0.866667
0.905882 0.905882 0.905882
0.870588 0.870588 0.870588
0.866667 0.866667 0.866667
0.870588 0.870588 0.870588
0.878431 0.878431 0.878431
0.890196 0.890196 0.890196
0.898039 0.898039 0.898039
0.913725 0.913725 0.913725
0.925490 0.925490 0.925490
0.952941 0.952941 0.952941
0.964706 0.964706 0.964706
0.964706 0.964706 0.964706
0.964706 0.964706 0.964706
0.968627 0.968627 0.968627
0.968627 0.968627 0.968627
0.976471 0.976471 0.976471
0.980392 0.980392 0.980392
0.992157 0.992157 0.992157
1.000000 1.000000 1.000000
0.235294 0.235294 0.235294
0.243137 0.243137 0.243137
0.254902 0.254902 0.254902
0.274510 0.274510 0.274510
0.305882 0.305882 0.305882
0.337255 0.337255 0.337255
0.384314 0.384314 0.384314
0.443137 0.443137 0.443137
0.576471 0.576471 0.576471
0.270588 0.270588 0.270588
0.278431 0.278431 0.278431
0.290196 0.290196 0.290196
0.305882 0.305882 0.305882
0.329412 0.329412 0.329412
0.364706 0.364706 0.364706
0.411765 0.411765 0.411765
0.470588 0.470588 0.470588
0.600000 0.600000 0.600000
0.337255 0.337255 0.337255
0.341176 0.341176 0.341176
0.345098 0.345098 0.345098
0.364706 0.364706 0.364706
0.384314 0.384314 0.384314
0.411765 0.411765 0.411765
0.450980 0.450980 0.450980
0.509804 0.509804 0.509804
0.639216 0.639216 0.639216
0.419608 0.419608 0.419608
0.431373 0.431373 0.431373
0.439216 0.439216 0.439216
0.450980 0.450980 0.450980
0.470588 0.470588 0.470588
0.498039 0.498039 0.498039
0.537255 0.537255 0.537255
0.596078 0.596078 0.596078
0.705882 0.705882 0.705882
0.466667 0.466667 0.466667
0.474510 0.474510 0.474510
0.501961 0.501961 0.501961
0.549020 0.549020 0.549020
0.572549 0.572549 0.572549
0.596078 0.596078 0.596078
0.623529 0.623529 0.623529
0.682353 0.682353 0.682353
0.772549 0.772549 0.772549
0.580392 0.580392 0.580392
0.588235 0.588235 0.588235
0.603922 0.603922 0.603922
0.623529 0.623529 0.623529
0.654902 0.654902 0.654902
0.705882 0.705882 0.705882
0.733333 0.733333 0.733333
0.776471 0.776471 0.776471
0.835294 0.835294 0.835294
0.721569 0.721569 0.721569
0.721569 0.721569 0.721569
0.729412 0.729412 0.729412
0.749020 0.749020 0.749020
0.768627 0.768627 0.768627
0.803922 0.803922 0.803922
0.831373 0.831373 0.831373
0.870588 0.870588 0.870588
0.905882 0.905882 0.905882
0.866667 0.866667 0.866667
0.866667 0.866667 0.866667
0.874510 0.874510 0.874510
0.882353 0.882353 0.882353
0.898039 0.898039 0.898039
0.905882 0.905882 0.905882
0.909804 0.909804 0.909804
0.929412 0.929412 0.929412
0.952941 0.952941 0.952941
0.964706 0.964706 0.964706
0.964706 0.964706 0.964706
0.960784 0.960784 0.960784
0.968627 0.968627 0.968627
0.972549 0.972549 0.972549
0.976471 0.976471 0.976471
0.984314 0.984314 0.984314
0.992157 0.992157 0.992157
1.000000 1.000000 1.000000
0.329412 0.329412 0.329412
0.337255 0.337255 0.337255
0.345098 0.345098 0.345098
0.360784 0.360784 0.360784
0.388235 0.388235 0.388235
0.423529 0.423529 0.423529
0.462745 0.462745 0.462745
0.513725 0.513725 0.513725
0.584314 0.584314 0.584314
0.360784 0.360784 0.360784
0.360784 0.360784 0.360784
0.372549 0.372549 0.372549
0.388235 0.388235 0.388235
0.415686 0.415686 0.415686
0.447059 0.447059 0.447059
0.482353 0.482353 0.482353
0.541176 0.541176 0.541176
0.603922 0.603922 0.603922
0.411765 0.411765 0.411765
0.415686 0.415686 0.415686
0.427451 0.427451 0.427451
0.443137 0.443137 0.443137
0.462745 0.462745 0.462745
0.494118 0.494118 0.494118
0.529412 0.529412 0.529412
0.580392 0.580392 0.580392
0.635294 0.635294 0.635294
0.501961 0.501961 0.501961
0.505882 0.505882 0.505882
0.513725 0.513725 0.513725
0.525490 0.525490 0.525490
0.549020 0.549020 0.549020
0.568627 0.568627 0.568627
0.607843 0.607843 0.607843
0.647059 0.647059 0.647059
0.698039 0.698039 0.698039
0.564706 0.564706 0.564706
0.580392 0.580392 0.580392
0.603922 0.603922 0.603922
0.623529 0.623529 0.623529
0.639216 0.639216 0.639216
0.662745 0.662745 0.662745
0.686275 0.686275 0.686275
0.721569 0.721569 0.721569
0.764706 0.764706 0.764706
0.639216 0.639216 0.639216
0.643137 0.643137 0.643137
0.647059 0.647059 0.647059
0.674510 0.674510 0.674510
0.725490 0.725490 0.725490
0.752941 0.752941 0.752941
0.772549 0.772549 0.772549
0.796078 0.796078 0.796078
0.835294 0.835294 0.835294
0.764706 0.764706 0.764706
0.772549 0.772549 0.772549
0.772549 0.772549 0.772549
0.784314 0.784314 0.784314
0.803922 0.803922 0.803922
0.827451 0.827451 0.827451
0.862745 0.862745 0.862745
0.874510 0.874510 0.874510
0.909804 0.909804 0.909804
0.858824 0.858824 0.858824
0.858824 0.858824 0.858824
0.862745 0.862745 0.862745
0.870588 0.870588 0.870588
0.878431 0.878431 0.878431
0.898039 0.898039 0.898039
0.913725 0.913725 0.913725
0.937255 0.937255 0.937255
0.956863 0.956863 0.956863
0.956863 0.956863 0.956863
0.960784 0.960784 0.960784
0.964706 0.964706 0.964706
0.964706 0.964706 0.964706
0.972549 0.972549 0.972549
0.980392 0.980392 0.980392
0.984314 0.984314 0.984314
0.992157 0.992157 0.992157
1.000000 1.000000 1.000000
0.494118 0.494118 0.494118
0.498039 0.498039 0.498039
0.509804 0.509804 0.509804
0.525490 0.525490 0.525490
0.549020 0.549020 0.549020
0.584314 0.584314 0.584314
0.623529 0.623529 0.623529
0.666667 0.666667 0.666667
0.717647 0.717647 0.717647
0.529412 0.529412 0.529412
0.525490 0.525490 0.525490
0.537255 0.537255 0.537255
0.552941 0.552941 0.552941
0.576471 0.576471 0.576471
0.603922 0.603922 0.603922
0.643137 0.643137 0.643137
0.686275 0.686275 0.686275
0.729412 0.729412 0.729412
0.568627 0.568627 0.568627
0.572549 0.572549 0.572549
0.584314 0.584314 0.584314
0.592157 0.592157 0.592157
0.615686 0.615686 0.615686
0.643137 0.643137 0.643137
0.674510 0.674510 0.674510
0.713725 0.713725 0.713725
0.752941 0.752941 0.752941
0.647059 0.647059 0.647059
0.650980 0.650980 0.650980
0.647059 0.647059 0.647059
0.666667 0.666667 0.666667
0.686275 0.686275 0.686275
0.705882 0.705882 0.705882
0.729412 0.729412 0.729412
0.760784 0.760784 0.760784
0.796078 0.796078 0.796078
0.717647 0.717647 0.717647
0.721569 0.721569 0.721569
0.721569 0.721569 0.721569
0.733333 0.733333 0.733333
0.745098 0.745098 0.745098
0.764706 0.764706 0.764706
0.784314 0.784314 0.784314
0.803922 0.803922 0.803922
0.831373 0.831373 0.831373
0.741176 0.741176 0.741176
0.752941 0.752941 0.752941
0.764706 0.764706 0.764706
0.788235 0.788235 0.788235
0.815686 0.815686 0.815686
0.823529 0.823529 0.823529
0.839216 0.839216 0.839216
0.858824 0.858824 0.858824
0.878431 0.878431 0.878431
0.835294 0.835294 0.835294
0.831373 0.831373 0.831373
0.835294 0.835294 0.835294
0.835294 0.835294 0.835294
0.847059 0.847059 0.847059
0.878431 0.878431 0.878431
0.898039 0.898039 0.898039
0.913725 0.913725 0.913725
0.925490 0.925490 0.925490
0.913725 0.913725 0.913725
0.909804 0.909804 0.909804
0.913725 0.913725 0.913725
0.913725 0.913725 0.913725
0.921569 0.921569 0.921569
0.929412 0.929412 0.929412
0.937255 0.937255 0.937255
0.956863 0.956863 0.956863
0.960784 0.960784 0.960784
0.964706 0.964706 0.964706
0.964706 0.964706 0.964706
0.968627 0.968627 0.968627
0.968627 0.968627 0.968627
0.972549 0.972549 0.972549
0.976471 0.976471 0.976471
0.984314 0.984314 0.984314
0.992157 0.992157 0.992157
1.000000 1.000000 1.000000
