resources/LUTs/Black and White/3.cube
TITLE "B&W Preset #3"
#LUT size
LUT_3D_SIZE 5
#LUT data points
0.000000 0.000000 0.000000
0.054902 0.054902 0.054902
0.164706 0.164706 0.164706
0.305882 0.305882 0.305882
0.505882 0.505882 0.505882
0.168627 0.168627 0.168627
0.184314 0.184314 0.184314
0.258824 0.258824 0.258824
0.380392 0.380392 0.380392
0.572549 0.572549 0.572549
0.400000 0.400000 0.400000
0.400000 0.400000 0.400000
0.450980 0.450980 0.450980
0.572549 0.572549 0.572549
0.741176 0.741176 0.741176
0.717647 0.717647 0.717647
0.713725 0.713725 0.713725
0.745098 0.745098 0.745098
0.788235 0.788235 0.788235
0.894118 0.894118 0.894118
0.956863 0.956863 0.956863
0.956863 0.956863 0.956863
0.968627 0.968627 0.968627
0.976471 0.976471 0.976471
0.996078 0.996078 0.996078
0.035294 0.035294 0.035294
0.078431 0.078431 0.078431
0.196078 0.196078 0.196078
0.337255 0.337255 0.337255
0.533333 0.533333 0.533333
0.164706 0.164706 0.164706
0.203922 0.203922 0.203922
0.282353 0.282353 0.282353
0.400000 0.400000 0.400000
0.596078 0.596078 0.596078
0.423529 0.423529 0.423529
0.427451 0.427451 0.427451
0.470588 0.470588 0.470588
0.588235 0.588235 0.588235
0.752941 0.752941 0.752941
0.733333 0.733333 0.733333
0.737255 0.737255 0.737255
0.760784 0.760784 0.760784
0.807843 0.807843 0.807843
0.898039 0.898039 0.898039
0.960784 0.960784 0.960784
0.960784 0.960784 0.960784
0.968627 0.968627 0.968627
0.976471 0.976471 0.976471
0.996078 0.996078 0.996078
0.113725 0.113725 0.113725
0.141176 0.141176 0.141176
0.207843 0.207843 0.207843
0.352941 0.352941 0.352941
0.552941 0.552941 0.552941
0.235294 0.235294 0.235294
0.254902 0.254902 0.254902
0.298039 0.298039 0.298039
0.423529 0.423529 0.423529
0.607843 0.607843 0.607843
0.400000 0.400000 0.400000
0.423529 0.423529 0.423529
0.498039 0.498039 0.498039
0.603922 0.603922 0.603922
0.752941 0.752941 0.752941
0.741176 0.741176 0.741176
0.745098 0.745098 0.745098
0.768627 0.768627 0.768627
0.811765 0.811765 0.811765
0.901961 0.901961 0.901961
0.960784 0.960784 0.960784
0.960784 0.960784 0.960784
0.968627 0.968627 0.968627
0.976471 0.976471 0.976471
0.992157 0.992157 0.992157
0.235294 0.235294 0.235294
0.254902 0.254902 0.254902
0.305882 0.305882 0.305882
0.384314 0.384314 0.384314
0.576471 0.576471 0.576471
0.337255 0.337255 0.337255
0.345098 0.345098 0.345098
0.384314 0.384314 0.384314
0.450980 0.450980 0.450980
0.639216 0.639216 0.639216
0.466667 0.466667 0.466667
0.501961 0.501961 0.501961
0.572549 0.572549 0.572549
0.623529 0.623529 0.623529
0.772549 0.772549 0.772549
0.721569 0.721569 0.721569
0.729412 0.729412 0.729412
0.768627 0.768627 0.768627
0.831373 0.831373 0.831373
0.905882 0.905882 0.905882
0.964706 0.964706 0.964706
0.960784 0.960784 0.960784
0.972549 0.972549 0.972549
0.984314 0.984314 0.984314
1.000000 1.000000 1.000000
0.494118 0.494118 0.494118
0.509804 0.509804 0.509804
0.549020 0.549020 0.549020
0.623529 0.623529 0.623529
0.717647 0.717647 0.717647
0.568627 0.568627 0.568627
0.584314 0.584314 0.584314
0.615686 0.615686 0.615686
0.674510 0.674510 0.674510
0.752941 0.752941 0.752941
0.717647 0.717647 0.717647
0.721569 0.721569 0.721569
0.745098 0.745098 0.745098
0.784314 0.784314 0.784314
0.831373 0.831373 0.831373
0.835294 0.835294 0.835294
0.835294 0.835294 0.835294
0.847059 0.847059 0.847059
0.898039 0.898039 0.898039
0.925490 0.925490 0.925490
0.964706 0.964706 0.964706
0.968627 0.968627 0.968627
0.972549 0.972549 0.972549
0.984314 0.984314 0.984314
1.000000 1.000000 1.000000
