resources/LUTs/Black and White/4.cube
TITLE "B&W Preset #4"
#LUT size
LUT_3D_SIZE 9
#LUT data points
0.003922 0.000000 0.000000
0.039216 0.023529 0.019608
0.098039 0.058824 0.062745
0.168627 0.098039 0.098039
0.235294 0.152941 0.149020
0.313725 0.203922 0.200000
0.396078 0.262745 0.258824
0.498039 0.325490 0.329412
0.627451 0.411765 0.431373
0.062745 0.090196 0.062745
0.090196 0.094118 0.074510
0.133333 0.113725 0.101961
0.192157 0.149020 0.141176
0.258824 0.180392 0.176471
0.333333 0.231373 0.227451
0.407843 0.282353 0.286275
0.509804 0.345098 0.349020
0.631373 0.435294 0.439216
0.137255 0.188235 0.149020
0.160784 0.188235 0.156863
0.200000 0.203922 0.180392
0.243137 0.223529 0.200000
0.301961 0.250980 0.227451
0.364706 0.290196 0.274510
0.443137 0.333333 0.321569
0.545098 0.388235 0.380392
0.666667 0.470588 0.466667
0.231373 0.294118 0.250980
0.247059 0.294118 0.254902
0.266667 0.305882 0.262745
0.317647 0.325490 0.282353
0.360784 0.345098 0.309804
0.423529 0.372549 0.341176
0.490196 0.411765 0.384314
0.580392 0.466667 0.435294
0.690196 0.537255 0.517647
0.333333 0.400000 0.337255
0.337255 0.407843 0.352941
0.349020 0.415686 0.352941
0.384314 0.427451 0.372549
0.435294 0.450980 0.396078
0.486275 0.470588 0.423529
0.556863 0.509804 0.462745
0.643137 0.556863 0.513725
0.733333 0.639216 0.592157
0.431373 0.529412 0.447059
0.435294 0.533333 0.450980
0.450980 0.541176 0.462745
0.482353 0.549020 0.474510
0.517647 0.568627 0.498039
0.568627 0.596078 0.525490
0.635294 0.623529 0.564706
0.698039 0.666667 0.615686
0.780392 0.729412 0.694118
0.560784 0.674510 0.588235
0.576471 0.658824 0.584314
0.580392 0.670588 0.592157
0.603922 0.690196 0.607843
0.627451 0.694118 0.619608
0.678431 0.713725 0.647059
0.713725 0.729412 0.670588
0.768627 0.752941 0.705882
0.839216 0.800000 0.752941
0.705882 0.803922 0.729412
0.713725 0.796078 0.729412
0.709804 0.800000 0.721569
0.737255 0.803922 0.733333
0.756863 0.811765 0.745098
0.780392 0.831373 0.764706
0.807843 0.843137 0.776471
0.843137 0.850980 0.800000
0.882353 0.886275 0.831373
0.847059 0.909804 0.866667
0.843137 0.905882 0.854902
0.850980 0.913725 0.862745
0.858824 0.913725 0.862745
0.878431 0.925490 0.878431
0.890196 0.929412 0.886275
0.913725 0.937255 0.898039
0.937255 0.949020 0.921569
0.960784 0.964706 0.933333
0.011765 0.015686 0.035294
0.050980 0.031373 0.058824
0.113725 0.070588 0.094118
0.180392 0.121569 0.141176
0.250980 0.172549 0.180392
0.325490 0.223529 0.235294
0.403922 0.278431 0.290196
0.501961 0.337255 0.345098
0.623529 0.423529 0.419608
0.070588 0.090196 0.101961
0.101961 0.105882 0.113725
0.145098 0.129412 0.133333
0.203922 0.164706 0.168627
0.274510 0.200000 0.215686
0.337255 0.243137 0.243137
0.407843 0.290196 0.290196
0.498039 0.341176 0.345098
0.623529 0.427451 0.439216
0.149020 0.184314 0.180392
0.176471 0.196078 0.180392
0.196078 0.211765 0.207843
0.247059 0.231373 0.219608
0.301961 0.258824 0.250980
0.368627 0.290196 0.286275
0.447059 0.337255 0.333333
0.549020 0.400000 0.396078
0.662745 0.486275 0.474510
0.227451 0.286275 0.258824
0.254902 0.298039 0.266667
0.278431 0.305882 0.278431
0.317647 0.329412 0.301961
0.364706 0.345098 0.321569
0.419608 0.368627 0.345098
0.478431 0.403922 0.380392
0.564706 0.458824 0.431373
0.670588 0.525490 0.501961
0.337255 0.407843 0.352941
0.337255 0.407843 0.352941
0.360784 0.415686 0.356863
0.400000 0.431373 0.380392
0.443137 0.458824 0.403922
0.486275 0.478431 0.431373
0.552941 0.513725 0.474510
0.643137 0.564706 0.529412
0.733333 0.635294 0.607843
0.423529 0.529412 0.454902
0.435294 0.533333 0.458824
0.454902 0.537255 0.470588
0.482353 0.549020 0.478431
0.525490 0.568627 0.505882
0.572549 0.588235 0.529412
0.635294 0.623529 0.564706
0.701961 0.662745 0.615686
0.776471 0.729412 0.674510
0.572549 0.670588 0.588235
0.572549 0.662745 0.592157
0.580392 0.670588 0.592157
0.607843 0.682353 0.607843
0.631373 0.698039 0.627451
0.670588 0.713725 0.647059
0.709804 0.725490 0.666667
0.756863 0.749020 0.701961
0.831373 0.803922 0.764706
0.705882 0.796078 0.733333
0.709804 0.800000 0.729412
0.717647 0.800000 0.741176
0.733333 0.803922 0.741176
0.756863 0.811765 0.752941
0.780392 0.827451 0.772549
0.815686 0.839216 0.792157
0.847059 0.854902 0.803922
0.890196 0.874510 0.839216
0.843137 0.909804 0.847059
0.847059 0.909804 0.858824
0.858824 0.913725 0.862745
0.862745 0.917647 0.866667
0.874510 0.921569 0.882353
0.886275 0.925490 0.882353
0.909804 0.941176 0.898039
0.925490 0.945098 0.917647
0.960784 0.964706 0.933333
0.023529 0.031373 0.090196
0.058824 0.050980 0.105882
0.125490 0.082353 0.137255
0.184314 0.133333 0.172549
0.254902 0.188235 0.219608
0.325490 0.235294 0.258824
0.415686 0.286275 0.313725
0.509804 0.349020 0.372549
0.639216 0.431373 0.454902
0.094118 0.105882 0.141176
0.109804 0.109804 0.141176
0.149020 0.145098 0.168627
0.207843 0.168627 0.200000
0.278431 0.211765 0.235294
0.349020 0.258824 0.282353
0.423529 0.301961 0.325490
0.521569 0.360784 0.384314
0.639216 0.439216 0.458824
0.152941 0.188235 0.207843
0.172549 0.200000 0.223529
0.215686 0.219608 0.235294
0.250980 0.243137 0.254902
0.313725 0.270588 0.286275
0.384314 0.309804 0.325490
0.454902 0.352941 0.364706
0.549020 0.407843 0.415686
0.666667 0.490196 0.501961
0.250980 0.298039 0.282353
0.258824 0.298039 0.294118
0.282353 0.317647 0.313725
0.329412 0.337255 0.325490
0.372549 0.356863 0.345098
0.423529 0.380392 0.372549
0.494118 0.415686 0.411765
0.576471 0.466667 0.462745
0.686275 0.533333 0.537255
0.345098 0.411765 0.372549
0.337255 0.415686 0.380392
0.360784 0.419608 0.392157
0.392157 0.439216 0.400000
0.439216 0.462745 0.423529
0.494118 0.482353 0.454902
0.560784 0.521569 0.486275
0.643137 0.568627 0.541176
0.745098 0.635294 0.631373
0.443137 0.537255 0.474510
0.443137 0.537255 0.482353
0.458824 0.545098 0.494118
0.490196 0.552941 0.501961
0.529412 0.568627 0.525490
0.580392 0.592157 0.549020
0.635294 0.627451 0.580392
0.709804 0.670588 0.635294
0.792157 0.721569 0.705882
0.564706 0.670588 0.603922
0.572549 0.666667 0.603922
0.588235 0.678431 0.607843
0.607843 0.690196 0.623529
0.631373 0.698039 0.627451
0.674510 0.705882 0.647059
0.713725 0.729412 0.674510
0.760784 0.752941 0.701961
0.835294 0.800000 0.764706
0.709804 0.803922 0.749020
0.705882 0.796078 0.725490
0.717647 0.800000 0.733333
0.737255 0.807843 0.745098
0.760784 0.815686 0.756863
0.776471 0.823529 0.768627
0.815686 0.839216 0.792157
0.847059 0.854902 0.811765
0.874510 0.882353 0.831373
0.839216 0.901961 0.850980
0.847059 0.909804 0.866667
0.850980 0.913725 0.862745
0.866667 0.921569 0.870588
0.874510 0.921569 0.874510
0.890196 0.929412 0.886275
0.905882 0.937255 0.894118
0.929412 0.949020 0.921569
0.960784 0.964706 0.933333
0.050980 0.054902 0.164706
0.082353 0.070588 0.176471
0.137255 0.101961 0.207843
0.196078 0.145098 0.223529
0.270588 0.196078 0.270588
0.333333 0.239216 0.301961
0.415686 0.294118 0.352941
0.517647 0.356863 0.411765
0.639216 0.435294 0.482353
0.113725 0.113725 0.207843
0.121569 0.129412 0.188235
0.164706 0.145098 0.223529
0.215686 0.180392 0.247059
0.282353 0.215686 0.286275
0.352941 0.266667 0.317647
0.427451 0.317647 0.364706
0.517647 0.368627 0.411765
0.650980 0.454902 0.501961
0.172549 0.211765 0.258824
0.188235 0.211765 0.266667
0.227451 0.223529 0.286275
0.262745 0.247059 0.301961
0.321569 0.282353 0.317647
0.384314 0.313725 0.360784
0.462745 0.360784 0.403922
0.556863 0.419608 0.447059
0.670588 0.494118 0.521569
0.254902 0.305882 0.337255
0.258824 0.309804 0.333333
0.290196 0.325490 0.345098
0.337255 0.341176 0.360784
0.376471 0.372549 0.396078
0.431373 0.396078 0.415686
0.498039 0.435294 0.447059
0.584314 0.478431 0.498039
0.694118 0.552941 0.568627
0.341176 0.419608 0.415686
0.356863 0.419608 0.407843
0.368627 0.431373 0.427451
0.403922 0.443137 0.439216
0.458824 0.466667 0.462745
0.501961 0.498039 0.490196
0.572549 0.525490 0.525490
0.654902 0.572549 0.568627
0.749020 0.639216 0.635294
0.447059 0.537255 0.498039
0.450980 0.541176 0.509804
0.466667 0.549020 0.521569
0.494118 0.560784 0.521569
0.537255 0.580392 0.549020
0.592157 0.600000 0.580392
0.643137 0.631373 0.603922
0.709804 0.674510 0.647059
0.788235 0.733333 0.698039
0.572549 0.678431 0.619608
0.572549 0.678431 0.619608
0.588235 0.682353 0.627451
0.607843 0.686275 0.639216
0.647059 0.698039 0.658824
0.674510 0.713725 0.670588
0.717647 0.729412 0.694118
0.768627 0.756863 0.721569
0.839216 0.811765 0.772549
0.701961 0.807843 0.749020
0.721569 0.803922 0.737255
0.717647 0.803922 0.752941
0.741176 0.811765 0.764706
0.752941 0.815686 0.772549
0.780392 0.827451 0.780392
0.811765 0.843137 0.792157
0.850980 0.854902 0.823529
0.886275 0.874510 0.839216
0.847059 0.909804 0.858824
0.850980 0.913725 0.862745
0.862745 0.913725 0.874510
0.866667 0.921569 0.870588
0.878431 0.925490 0.878431
0.890196 0.929412 0.894118
0.913725 0.933333 0.905882
0.929412 0.949020 0.921569
0.960784 0.964706 0.941176
0.090196 0.086275 0.243137
0.101961 0.094118 0.247059
0.149020 0.125490 0.258824
0.211765 0.156863 0.286275
0.278431 0.203922 0.313725
0.349020 0.254902 0.356863
0.427451 0.301961 0.392157
0.533333 0.368627 0.454902
0.654902 0.439216 0.521569
0.125490 0.152941 0.266667
0.145098 0.149020 0.266667
0.172549 0.172549 0.282353
0.235294 0.200000 0.313725
0.294118 0.231373 0.337255
0.360784 0.274510 0.364706
0.435294 0.321569 0.407843
0.529412 0.372549 0.466667
0.650980 0.450980 0.525490
0.192157 0.219608 0.321569
0.200000 0.231373 0.321569
0.223529 0.243137 0.321569
0.278431 0.266667 0.349020
0.333333 0.286275 0.372549
0.396078 0.329412 0.403922
0.470588 0.372549 0.447059
0.560784 0.427451 0.494118
0.674510 0.501961 0.560784
0.274510 0.309804 0.376471
0.274510 0.321569 0.376471
0.301961 0.329412 0.392157
0.337255 0.349020 0.407843
0.384314 0.368627 0.427451
0.443137 0.400000 0.454902
0.505882 0.435294 0.482353
0.588235 0.478431 0.533333
0.694118 0.533333 0.588235
0.352941 0.427451 0.450980
0.356863 0.431373 0.454902
0.380392 0.439216 0.466667
0.411765 0.454902 0.478431
0.454902 0.470588 0.505882
0.505882 0.501961 0.521569
0.580392 0.537255 0.560784
0.662745 0.580392 0.600000
0.745098 0.639216 0.658824
0.447059 0.541176 0.541176
0.462745 0.545098 0.549020
0.474510 0.552941 0.549020
0.501961 0.564706 0.560784
0.541176 0.580392 0.576471
0.592157 0.607843 0.603922
0.647059 0.643137 0.635294
0.713725 0.682353 0.674510
0.792157 0.729412 0.729412
0.576471 0.674510 0.650980
0.576471 0.678431 0.643137
0.592157 0.682353 0.658824
0.611765 0.686275 0.662745
0.647059 0.705882 0.678431
0.686275 0.725490 0.694118
0.717647 0.737255 0.713725
0.772549 0.768627 0.749020
0.839216 0.819608 0.796078
0.705882 0.800000 0.749020
0.709804 0.803922 0.749020
0.717647 0.811765 0.760784
0.733333 0.811765 0.764706
0.756863 0.819608 0.780392
0.788235 0.835294 0.796078
0.815686 0.847059 0.803922
0.847059 0.858824 0.823529
0.901961 0.890196 0.870588
0.843137 0.913725 0.866667
0.847059 0.909804 0.866667
0.850980 0.913725 0.870588
0.858824 0.921569 0.882353
0.878431 0.925490 0.878431
0.890196 0.929412 0.894118
0.913725 0.933333 0.905882
0.933333 0.952941 0.925490
0.964706 0.968627 0.945098
0.113725 0.121569 0.313725
0.133333 0.137255 0.325490
0.172549 0.160784 0.345098
0.231373 0.188235 0.356863
0.294118 0.227451 0.392157
0.364706 0.266667 0.423529
0.439216 0.317647 0.450980
0.537255 0.376471 0.509804
0.654902 0.454902 0.576471
0.152941 0.172549 0.337255
0.168627 0.176471 0.337255
0.203922 0.196078 0.352941
0.247059 0.215686 0.376471
0.301961 0.247059 0.388235
0.372549 0.290196 0.419608
0.439216 0.333333 0.454902
0.525490 0.380392 0.501961
0.647059 0.454902 0.572549
0.211765 0.254902 0.380392
0.219608 0.254902 0.384314
0.254902 0.254902 0.396078
0.286275 0.282353 0.407843
0.345098 0.309804 0.431373
0.407843 0.345098 0.458824
0.478431 0.380392 0.494118
0.568627 0.435294 0.541176
0.678431 0.498039 0.607843
0.270588 0.321569 0.447059
0.290196 0.337255 0.439216
0.301961 0.341176 0.439216
0.349020 0.356863 0.454902
0.392157 0.384314 0.470588
0.443137 0.403922 0.498039
0.509804 0.435294 0.521569
0.588235 0.478431 0.568627
0.690196 0.541176 0.623529
0.352941 0.439216 0.529412
0.372549 0.439216 0.501961
0.392157 0.454902 0.517647
0.427451 0.462745 0.529412
0.458824 0.482353 0.545098
0.513725 0.501961 0.568627
0.580392 0.529412 0.596078
0.658824 0.576471 0.635294
0.752941 0.627451 0.678431
0.462745 0.552941 0.584314
0.466667 0.556863 0.588235
0.490196 0.560784 0.600000
0.505882 0.572549 0.600000
0.552941 0.592157 0.627451
0.596078 0.611765 0.647059
0.650980 0.639216 0.666667
0.713725 0.678431 0.690196
0.792157 0.733333 0.760784
0.580392 0.678431 0.662745
0.584314 0.678431 0.686275
0.600000 0.682353 0.686275
0.611765 0.690196 0.686275
0.643137 0.705882 0.705882
0.686275 0.721569 0.717647
0.721569 0.737255 0.733333
0.772549 0.772549 0.764706
0.831373 0.811765 0.800000
0.713725 0.800000 0.788235
0.721569 0.803922 0.776471
0.721569 0.800000 0.792157
0.737255 0.811765 0.788235
0.756863 0.823529 0.792157
0.784314 0.835294 0.807843
0.819608 0.847059 0.819608
0.854902 0.862745 0.843137
0.894118 0.898039 0.874510
0.827451 0.909804 0.874510
0.835294 0.913725 0.870588
0.850980 0.917647 0.878431
0.858824 0.921569 0.882353
0.870588 0.921569 0.894118
0.898039 0.937255 0.905882
0.917647 0.937255 0.909804
0.933333 0.952941 0.925490
0.964706 0.968627 0.945098
0.152941 0.168627 0.419608
0.172549 0.168627 0.427451
0.211765 0.192157 0.443137
0.254902 0.215686 0.450980
0.321569 0.254902 0.470588
0.388235 0.290196 0.505882
0.466667 0.341176 0.533333
0.545098 0.392157 0.568627
0.666667 0.462745 0.643137
0.180392 0.200000 0.427451
0.200000 0.207843 0.439216
0.223529 0.219608 0.447059
0.274510 0.247059 0.458824
0.325490 0.270588 0.478431
0.400000 0.309804 0.513725
0.466667 0.352941 0.533333
0.549020 0.396078 0.568627
0.662745 0.474510 0.639216
0.227451 0.266667 0.458824
0.239216 0.278431 0.478431
0.266667 0.290196 0.486275
0.309804 0.301961 0.494118
0.364706 0.329412 0.513725
0.427451 0.360784 0.537255
0.498039 0.400000 0.564706
0.584314 0.447059 0.603922
0.698039 0.517647 0.658824
0.290196 0.349020 0.517647
0.298039 0.352941 0.505882
0.325490 0.360784 0.521569
0.364706 0.380392 0.529412
0.411765 0.392157 0.549020
0.470588 0.423529 0.572549
0.533333 0.454902 0.592157
0.600000 0.494118 0.623529
0.698039 0.552941 0.682353
0.372549 0.454902 0.568627
0.392157 0.454902 0.588235
0.403922 0.462745 0.584314
0.439216 0.474510 0.596078
0.470588 0.490196 0.607843
0.525490 0.505882 0.623529
0.596078 0.545098 0.647059
0.658824 0.580392 0.678431
0.752941 0.635294 0.729412
0.478431 0.580392 0.647059
0.490196 0.580392 0.650980
0.509804 0.580392 0.658824
0.529412 0.596078 0.666667
0.560784 0.603922 0.674510
0.600000 0.623529 0.686275
0.658824 0.647059 0.713725
0.713725 0.670588 0.733333
0.792157 0.725490 0.764706
0.576471 0.682353 0.709804
0.600000 0.678431 0.705882
0.600000 0.690196 0.721569
0.623529 0.698039 0.725490
0.650980 0.709804 0.737255
0.690196 0.725490 0.752941
0.729412 0.741176 0.768627
0.792157 0.772549 0.796078
0.847059 0.803922 0.827451
0.713725 0.800000 0.792157
0.725490 0.803922 0.796078
0.721569 0.803922 0.807843
0.733333 0.811765 0.807843
0.756863 0.831373 0.823529
0.788235 0.835294 0.835294
0.823529 0.847059 0.847059
0.862745 0.870588 0.866667
0.901961 0.901961 0.894118
0.835294 0.909804 0.886275
0.835294 0.917647 0.898039
0.847059 0.913725 0.890196
0.858824 0.925490 0.901961
0.866667 0.925490 0.905882
0.886275 0.929412 0.905882
0.917647 0.941176 0.925490
0.937255 0.956863 0.933333
0.972549 0.976471 0.956863
0.196078 0.211765 0.568627
0.219608 0.219608 0.564706
0.254902 0.231373 0.568627
0.301961 0.254902 0.576471
0.360784 0.286275 0.596078
0.431373 0.329412 0.615686
0.513725 0.376471 0.643137
0.592157 0.427451 0.674510
0.682353 0.498039 0.701961
0.211765 0.235294 0.572549
0.235294 0.243137 0.568627
0.266667 0.254902 0.572549
0.309804 0.274510 0.584314
0.376471 0.305882 0.603922
0.443137 0.341176 0.619608
0.513725 0.388235 0.650980
0.592157 0.443137 0.682353
0.670588 0.498039 0.705882
0.258824 0.294118 0.596078
0.278431 0.301961 0.592157
0.309804 0.321569 0.600000
0.345098 0.333333 0.611765
0.400000 0.356863 0.623529
0.470588 0.396078 0.647059
0.533333 0.435294 0.662745
0.611765 0.482353 0.690196
0.694118 0.541176 0.725490
0.317647 0.376471 0.607843
0.337255 0.380392 0.623529
0.349020 0.388235 0.627451
0.396078 0.403922 0.643137
0.443137 0.423529 0.650980
0.501961 0.450980 0.662745
0.568627 0.482353 0.674510
0.631373 0.521569 0.709804
0.701961 0.576471 0.729412
0.392157 0.486275 0.666667
0.407843 0.490196 0.674510
0.419608 0.486275 0.666667
0.450980 0.494118 0.674510
0.498039 0.509804 0.686275
0.556863 0.533333 0.705882
0.615686 0.568627 0.725490
0.682353 0.603922 0.741176
0.756863 0.650980 0.780392
0.513725 0.603922 0.725490
0.525490 0.607843 0.729412
0.537255 0.611765 0.737255
0.552941 0.611765 0.733333
0.576471 0.619608 0.737255
0.623529 0.639216 0.752941
0.678431 0.670588 0.764706
0.729412 0.690196 0.784314
0.800000 0.729412 0.815686
0.623529 0.713725 0.776471
0.631373 0.713725 0.788235
0.635294 0.717647 0.784314
0.654902 0.721569 0.792157
0.678431 0.729412 0.796078
0.701961 0.737255 0.796078
0.741176 0.752941 0.811765
0.792157 0.780392 0.823529
0.858824 0.815686 0.870588
0.737255 0.811765 0.835294
0.729412 0.823529 0.839216
0.749020 0.819608 0.835294
0.756863 0.823529 0.850980
0.772549 0.831373 0.850980
0.796078 0.839216 0.862745
0.823529 0.854902 0.866667
0.862745 0.878431 0.890196
0.913725 0.905882 0.917647
0.858824 0.921569 0.921569
0.858824 0.921569 0.917647
0.858824 0.921569 0.917647
0.862745 0.925490 0.921569
0.870588 0.933333 0.929412
0.894118 0.933333 0.929412
0.909804 0.945098 0.933333
0.937255 0.960784 0.952941
0.976471 0.976471 0.976471
0.254902 0.266667 0.717647
0.266667 0.274510 0.717647
0.305882 0.290196 0.725490
0.352941 0.305882 0.729412
0.423529 0.341176 0.737255
0.490196 0.384314 0.749020
0.568627 0.431373 0.760784
0.647059 0.486275 0.784314
0.733333 0.560784 0.792157
0.258824 0.294118 0.705882
0.290196 0.294118 0.717647
0.317647 0.313725 0.721569
0.360784 0.329412 0.733333
0.423529 0.352941 0.741176
0.494118 0.396078 0.752941
0.572549 0.443137 0.760784
0.647059 0.498039 0.784314
0.737255 0.564706 0.803922
0.301961 0.341176 0.725490
0.317647 0.349020 0.737255
0.349020 0.364706 0.745098
0.396078 0.376471 0.737255
0.454902 0.403922 0.749020
0.521569 0.447059 0.764706
0.588235 0.486275 0.772549
0.674510 0.537255 0.788235
0.749020 0.603922 0.815686
0.356863 0.415686 0.749020
0.364706 0.423529 0.756863
0.396078 0.427451 0.745098
0.423529 0.443137 0.760784
0.482353 0.466667 0.768627
0.541176 0.498039 0.768627
0.615686 0.537255 0.784314
0.694118 0.588235 0.803922
0.768627 0.643137 0.827451
0.435294 0.509804 0.768627
0.435294 0.509804 0.780392
0.462745 0.517647 0.772549
0.494118 0.533333 0.776471
0.545098 0.552941 0.792157
0.596078 0.576471 0.803922
0.662745 0.611765 0.819608
0.729412 0.654902 0.831373
0.784314 0.698039 0.850980
0.568627 0.650980 0.819608
0.576471 0.650980 0.819608
0.584314 0.650980 0.819608
0.596078 0.654902 0.823529
0.611765 0.647059 0.815686
0.658824 0.666667 0.827451
0.713725 0.698039 0.835294
0.772549 0.729412 0.854902
0.827451 0.764706 0.866667
0.682353 0.760784 0.858824
0.686275 0.764706 0.862745
0.694118 0.764706 0.858824
0.701961 0.764706 0.862745
0.717647 0.764706 0.850980
0.733333 0.764706 0.854902
0.768627 0.776471 0.866667
0.823529 0.803922 0.890196
0.870588 0.839216 0.898039
0.796078 0.874510 0.917647
0.800000 0.870588 0.909804
0.807843 0.874510 0.913725
0.807843 0.874510 0.905882
0.823529 0.878431 0.913725
0.843137 0.882353 0.921569
0.858824 0.886275 0.925490
0.898039 0.898039 0.929412
0.945098 0.917647 0.949020
0.901961 0.964706 0.964706
0.905882 0.960784 0.960784
0.905882 0.960784 0.964706
0.909804 0.964706 0.964706
0.913725 0.968627 0.968627
0.933333 0.972549 0.968627
0.956863 0.980392 0.980392
0.972549 0.988235 0.984314
1.000000 1.000000 1.000000
