resources/LUTs/Black and White/4.cube
TITLE "B&W Preset #4"
#LUT size
LUT_3D_SIZE 25
#LUT data points
0.003922 0.000000 0.000000
0.007843 0.000000 0.003922
0.027451 0.011765 0.015686
0.039216 0.023529 0.019608
0.058824 0.035294 0.035294
0.082353 0.047059 0.050980
0.098039 0.058824 0.062745
0.113725 0.066667 0.074510
0.145098 0.082353 0.082353
0.168627 0.098039 0.098039
0.192157 0.113725 0.117647
0.211765 0.129412 0.125490
0.235294 0.152941 0.149020
0.266667 0.172549 0.172549
0.290196 0.188235 0.192157
0.313725 0.203922 0.200000
0.337255 0.219608 0.219608
0.368627 0.243137 0.247059
0.396078 0.262745 0.258824
0.427451 0.274510 0.278431
0.458824 0.301961 0.305882
0.498039 0.325490 0.329412
0.545098 0.352941 0.364706
0.584314 0.380392 0.388235
0.627451 0.411765 0.431373
0.019608 0.019608 0.011765
0.027451 0.027451 0.019608
0.039216 0.035294 0.027451
0.050980 0.047059 0.031373
0.082353 0.050980 0.043137
0.090196 0.058824 0.050980
0.105882 0.074510 0.066667
0.137255 0.082353 0.082353
0.156863 0.094118 0.098039
0.180392 0.109804 0.109804
0.203922 0.125490 0.129412
0.219608 0.141176 0.145098
0.239216 0.156863 0.152941
0.270588 0.176471 0.176471
0.294118 0.192157 0.196078
0.321569 0.211765 0.207843
0.345098 0.227451 0.227451
0.368627 0.243137 0.247059
0.407843 0.266667 0.266667
0.435294 0.282353 0.286275
0.466667 0.309804 0.313725
0.501961 0.329412 0.333333
0.537255 0.356863 0.356863
0.584314 0.380392 0.388235
0.619608 0.423529 0.427451
0.043137 0.047059 0.027451
0.047059 0.050980 0.031373
0.050980 0.058824 0.047059
0.070588 0.062745 0.066667
0.082353 0.066667 0.054902
0.109804 0.074510 0.078431
0.121569 0.082353 0.078431
0.141176 0.094118 0.094118
0.164706 0.109804 0.105882
0.184314 0.121569 0.121569
0.207843 0.137255 0.137255
0.231373 0.152941 0.149020
0.254902 0.172549 0.168627
0.270588 0.188235 0.184314
0.301961 0.200000 0.196078
0.329412 0.219608 0.215686
0.349020 0.231373 0.231373
0.384314 0.250980 0.247059
0.403922 0.270588 0.266667
0.443137 0.290196 0.294118
0.466667 0.309804 0.313725
0.501961 0.337255 0.341176
0.549020 0.356863 0.368627
0.596078 0.392157 0.400000
0.619608 0.431373 0.431373
0.062745 0.090196 0.062745
0.062745 0.082353 0.058824
0.086275 0.090196 0.070588
0.090196 0.094118 0.074510
0.101961 0.098039 0.082353
0.125490 0.105882 0.094118
0.133333 0.113725 0.101961
0.156863 0.117647 0.109804
0.172549 0.129412 0.121569
0.192157 0.149020 0.141176
0.215686 0.156863 0.145098
0.239216 0.168627 0.160784
0.258824 0.180392 0.176471
0.282353 0.200000 0.196078
0.309804 0.215686 0.215686
0.333333 0.231373 0.227451
0.356863 0.247059 0.243137
0.380392 0.262745 0.262745
0.407843 0.282353 0.286275
0.439216 0.298039 0.298039
0.474510 0.321569 0.325490
0.509804 0.345098 0.349020
0.560784 0.372549 0.372549
0.600000 0.400000 0.396078
0.631373 0.435294 0.439216
0.090196 0.109804 0.082353
0.090196 0.117647 0.090196
0.098039 0.125490 0.094118
0.117647 0.129412 0.094118
0.129412 0.133333 0.113725
0.145098 0.141176 0.125490
0.156863 0.145098 0.125490
0.168627 0.149020 0.133333
0.192157 0.160784 0.149020
0.203922 0.168627 0.149020
0.227451 0.172549 0.160784
0.243137 0.188235 0.176471
0.274510 0.203922 0.196078
0.290196 0.215686 0.200000
0.313725 0.231373 0.219608
0.341176 0.247059 0.239216
0.360784 0.258824 0.254902
0.392157 0.274510 0.274510
0.415686 0.294118 0.286275
0.447059 0.313725 0.309804
0.486275 0.329412 0.329412
0.513725 0.349020 0.352941
0.552941 0.380392 0.376471
0.596078 0.407843 0.407843
0.631373 0.435294 0.431373
0.113725 0.152941 0.121569
0.113725 0.152941 0.121569
0.129412 0.156863 0.125490
0.137255 0.156863 0.129412
0.152941 0.164706 0.137255
0.164706 0.168627 0.145098
0.180392 0.176471 0.156863
0.200000 0.188235 0.160784
0.207843 0.188235 0.164706
0.227451 0.200000 0.176471
0.250980 0.207843 0.192157
0.270588 0.219608 0.196078
0.286275 0.227451 0.207843
0.313725 0.239216 0.223529
0.333333 0.250980 0.239216
0.356863 0.262745 0.254902
0.372549 0.278431 0.270588
0.396078 0.294118 0.290196
0.427451 0.309804 0.301961
0.462745 0.329412 0.321569
0.490196 0.352941 0.345098
0.529412 0.372549 0.364706
0.568627 0.396078 0.392157
0.607843 0.419608 0.411765
0.666667 0.458824 0.443137
0.137255 0.188235 0.149020
0.137255 0.180392 0.156863
0.164706 0.192157 0.164706
0.160784 0.188235 0.156863
0.180392 0.188235 0.168627
0.180392 0.200000 0.176471
0.200000 0.203922 0.180392
0.211765 0.207843 0.188235
0.231373 0.219608 0.192157
0.243137 0.223529 0.200000
0.262745 0.235294 0.211765
0.278431 0.243137 0.223529
0.301961 0.250980 0.227451
0.321569 0.262745 0.243137
0.345098 0.274510 0.258824
0.364706 0.290196 0.274510
0.384314 0.301961 0.290196
0.415686 0.317647 0.301961
0.443137 0.333333 0.321569
0.470588 0.349020 0.337255
0.509804 0.372549 0.356863
0.545098 0.388235 0.380392
0.576471 0.415686 0.400000
0.615686 0.443137 0.431373
0.666667 0.470588 0.466667
0.168627 0.219608 0.180392
0.176471 0.223529 0.184314
0.188235 0.215686 0.188235
0.184314 0.223529 0.188235
0.192157 0.231373 0.188235
0.203922 0.235294 0.192157
0.223529 0.235294 0.200000
0.235294 0.247059 0.211765
0.254902 0.254902 0.223529
0.270588 0.258824 0.223529
0.282353 0.266667 0.231373
0.301961 0.274510 0.243137
0.321569 0.278431 0.254902
0.341176 0.290196 0.266667
0.356863 0.305882 0.282353
0.376471 0.317647 0.298039
0.403922 0.329412 0.305882
0.423529 0.341176 0.321569
0.454902 0.356863 0.341176
0.482353 0.372549 0.356863
0.513725 0.392157 0.372549
0.549020 0.419608 0.400000
0.592157 0.439216 0.419608
0.635294 0.466667 0.443137
0.682353 0.494118 0.478431
0.203922 0.247059 0.215686
0.207843 0.250980 0.219608
0.203922 0.254902 0.215686
0.215686 0.262745 0.223529
0.223529 0.262745 0.231373
0.227451 0.266667 0.231373
0.243137 0.270588 0.239216
0.254902 0.278431 0.239216
0.274510 0.286275 0.250980
0.290196 0.290196 0.258824
0.305882 0.294118 0.258824
0.317647 0.301961 0.266667
0.341176 0.305882 0.278431
0.360784 0.317647 0.294118
0.384314 0.333333 0.309804
0.400000 0.341176 0.313725
0.423529 0.349020 0.325490
0.447059 0.368627 0.341176
0.474510 0.376471 0.356863
0.505882 0.392157 0.368627
0.537255 0.415686 0.396078
0.568627 0.439216 0.419608
0.611765 0.466667 0.443137
0.635294 0.490196 0.466667
0.674510 0.513725 0.498039
0.231373 0.294118 0.250980
0.243137 0.286275 0.254902
0.231373 0.294118 0.254902
0.247059 0.294118 0.254902
0.250980 0.298039 0.250980
0.254902 0.301961 0.254902
0.266667 0.305882 0.262745
0.282353 0.313725 0.270588
0.305882 0.317647 0.274510
0.317647 0.325490 0.282353
0.333333 0.333333 0.294118
0.349020 0.337255 0.301961
0.360784 0.345098 0.309804
0.380392 0.352941 0.321569
0.400000 0.364706 0.329412
0.423529 0.372549 0.341176
0.435294 0.376471 0.349020
0.462745 0.388235 0.360784
0.490196 0.411765 0.384314
0.525490 0.427451 0.400000
0.549020 0.443137 0.415686
0.580392 0.466667 0.435294
0.615686 0.486275 0.458824
0.654902 0.509804 0.486275
0.690196 0.537255 0.517647
0.258824 0.329412 0.282353
0.262745 0.325490 0.282353
0.266667 0.329412 0.286275
0.270588 0.333333 0.290196
0.278431 0.333333 0.282353
0.286275 0.333333 0.286275
0.298039 0.337255 0.294118
0.305882 0.345098 0.301961
0.321569 0.352941 0.309804
0.333333 0.356863 0.309804
0.352941 0.364706 0.321569
0.368627 0.376471 0.333333
0.392157 0.380392 0.345098
0.403922 0.388235 0.352941
0.419608 0.392157 0.352941
0.435294 0.400000 0.364706
0.462745 0.411765 0.380392
0.482353 0.427451 0.392157
0.509804 0.435294 0.407843
0.533333 0.454902 0.419608
0.568627 0.470588 0.443137
0.603922 0.498039 0.470588
0.639216 0.521569 0.490196
0.674510 0.545098 0.517647
0.701961 0.576471 0.533333
0.294118 0.364706 0.309804
0.309804 0.364706 0.313725
0.298039 0.360784 0.309804
0.298039 0.368627 0.305882
0.309804 0.372549 0.321569
0.317647 0.372549 0.321569
0.329412 0.376471 0.321569
0.329412 0.384314 0.333333
0.341176 0.388235 0.341176
0.360784 0.392157 0.341176
0.376471 0.400000 0.352941
0.396078 0.407843 0.364706
0.411765 0.411765 0.372549
0.431373 0.423529 0.376471
0.447059 0.431373 0.388235
0.466667 0.439216 0.400000
0.482353 0.450980 0.407843
0.505882 0.454902 0.419608
0.529412 0.474510 0.431373
0.560784 0.490196 0.450980
0.588235 0.509804 0.474510
0.623529 0.529412 0.490196
0.654902 0.549020 0.513725
0.694118 0.576471 0.537255
0.721569 0.603922 0.572549
0.333333 0.400000 0.337255
0.329412 0.400000 0.345098
0.321569 0.411765 0.349020
0.337255 0.407843 0.352941
0.337255 0.407843 0.352941
0.352941 0.407843 0.356863
0.349020 0.415686 0.352941
0.364706 0.419608 0.360784
0.376471 0.423529 0.368627
0.384314 0.427451 0.372549
0.400000 0.431373 0.372549
0.419608 0.443137 0.388235
0.435294 0.450980 0.396078
0.450980 0.458824 0.407843
0.466667 0.470588 0.415686
0.486275 0.470588 0.423529
0.509804 0.486275 0.439216
0.537255 0.490196 0.443137
0.556863 0.509804 0.462745
0.588235 0.525490 0.474510
0.611765 0.541176 0.494118
0.643137 0.556863 0.513725
0.682353 0.576471 0.541176
0.701961 0.607843 0.560784
0.733333 0.639216 0.592157
0.356863 0.439216 0.380392
0.356863 0.447059 0.384314
0.360784 0.443137 0.376471
0.364706 0.447059 0.380392
0.372549 0.443137 0.380392
0.380392 0.450980 0.388235
0.384314 0.454902 0.392157
0.392157 0.458824 0.388235
0.403922 0.458824 0.392157
0.415686 0.466667 0.400000
0.427451 0.470588 0.407843
0.447059 0.478431 0.419608
0.458824 0.486275 0.423529
0.478431 0.494118 0.439216
0.494118 0.501961 0.447059
0.505882 0.509804 0.454902
0.529412 0.521569 0.462745
0.556863 0.533333 0.478431
0.576471 0.545098 0.494118
0.607843 0.560784 0.505882
0.627451 0.572549 0.521569
0.654902 0.600000 0.549020
0.690196 0.619608 0.572549
0.717647 0.639216 0.596078
0.752941 0.674510 0.631373
0.384314 0.482353 0.400000
0.392157 0.490196 0.407843
0.392157 0.490196 0.415686
0.400000 0.482353 0.415686
0.403922 0.494118 0.415686
0.407843 0.490196 0.415686
0.407843 0.490196 0.415686
0.427451 0.501961 0.427451
0.435294 0.501961 0.431373
0.450980 0.505882 0.439216
0.466667 0.517647 0.447059
0.470588 0.521569 0.450980
0.494118 0.529412 0.462745
0.505882 0.533333 0.470588
0.521569 0.537255 0.478431
0.541176 0.552941 0.486275
0.564706 0.556863 0.498039
0.584314 0.572549 0.513725
0.607843 0.580392 0.517647
0.627451 0.592157 0.533333
0.658824 0.611765 0.556863
0.674510 0.627451 0.572549
0.698039 0.643137 0.592157
0.729412 0.666667 0.615686
0.760784 0.690196 0.643137
0.431373 0.529412 0.447059
0.435294 0.533333 0.450980
0.435294 0.533333 0.450980
0.435294 0.533333 0.450980
0.439216 0.537255 0.454902
0.439216 0.537255 0.454902
0.450980 0.541176 0.462745
0.454902 0.545098 0.466667
0.470588 0.545098 0.466667
0.482353 0.549020 0.474510
0.498039 0.556863 0.482353
0.509804 0.560784 0.490196
0.517647 0.568627 0.498039
0.533333 0.580392 0.501961
0.549020 0.584314 0.509804
0.568627 0.596078 0.525490
0.592157 0.596078 0.533333
0.611765 0.603922 0.545098
0.635294 0.623529 0.564706
0.658824 0.635294 0.580392
0.674510 0.650980 0.596078
0.698039 0.666667 0.615686
0.733333 0.686275 0.639216
0.756863 0.701961 0.658824
0.780392 0.729412 0.694118
0.458824 0.564706 0.490196
0.462745 0.580392 0.486275
0.470588 0.580392 0.494118
0.478431 0.576471 0.494118
0.470588 0.580392 0.494118
0.482353 0.580392 0.494118
0.494118 0.576471 0.501961
0.501961 0.588235 0.505882
0.505882 0.592157 0.509804
0.517647 0.592157 0.513725
0.529412 0.596078 0.521569
0.549020 0.607843 0.533333
0.556863 0.615686 0.533333
0.568627 0.619608 0.541176
0.580392 0.627451 0.549020
0.611765 0.627451 0.560784
0.623529 0.639216 0.572549
0.639216 0.650980 0.584314
0.654902 0.658824 0.596078
0.674510 0.666667 0.607843
0.694118 0.682353 0.623529
0.725490 0.694118 0.643137
0.749020 0.709804 0.662745
0.772549 0.733333 0.686275
0.796078 0.756863 0.709804
0.509804 0.619608 0.533333
0.509804 0.623529 0.537255
0.525490 0.623529 0.537255
0.517647 0.627451 0.529412
0.529412 0.627451 0.545098
0.525490 0.623529 0.537255
0.541176 0.623529 0.549020
0.545098 0.631373 0.549020
0.549020 0.635294 0.552941
0.560784 0.635294 0.556863
0.568627 0.643137 0.564706
0.584314 0.650980 0.576471
0.596078 0.654902 0.580392
0.603922 0.654902 0.584314
0.619608 0.666667 0.588235
0.635294 0.670588 0.596078
0.662745 0.678431 0.611765
0.666667 0.682353 0.615686
0.686275 0.690196 0.627451
0.698039 0.705882 0.650980
0.725490 0.717647 0.658824
0.745098 0.733333 0.674510
0.768627 0.745098 0.698039
0.796078 0.756863 0.717647
0.811765 0.780392 0.729412
0.560784 0.674510 0.588235
0.560784 0.678431 0.584314
0.560784 0.670588 0.584314
0.576471 0.658824 0.584314
0.572549 0.674510 0.576471
0.572549 0.670588 0.588235
0.580392 0.670588 0.592157
0.584314 0.674510 0.596078
0.592157 0.678431 0.596078
0.603922 0.690196 0.607843
0.607843 0.694118 0.611765
0.619608 0.694118 0.615686
0.627451 0.694118 0.619608
0.643137 0.694118 0.623529
0.662745 0.705882 0.639216
0.678431 0.713725 0.647059
0.686275 0.721569 0.654902
0.698039 0.725490 0.662745
0.713725 0.729412 0.670588
0.729412 0.737255 0.682353
0.741176 0.745098 0.690196
0.768627 0.752941 0.705882
0.788235 0.772549 0.725490
0.811765 0.784314 0.745098
0.839216 0.800000 0.752941
0.603922 0.717647 0.631373
0.615686 0.717647 0.619608
0.615686 0.713725 0.627451
0.615686 0.713725 0.631373
0.623529 0.713725 0.635294
0.623529 0.713725 0.635294
0.631373 0.713725 0.639216
0.635294 0.717647 0.643137
0.639216 0.721569 0.647059
0.639216 0.721569 0.647059
0.654902 0.729412 0.654902
0.658824 0.733333 0.658824
0.678431 0.737255 0.662745
0.682353 0.741176 0.666667
0.694118 0.745098 0.674510
0.705882 0.749020 0.682353
0.709804 0.752941 0.686275
0.729412 0.764706 0.698039
0.741176 0.768627 0.705882
0.756863 0.772549 0.713725
0.768627 0.776471 0.721569
0.780392 0.784314 0.729412
0.803922 0.796078 0.745098
0.827451 0.811765 0.764706
0.843137 0.827451 0.780392
0.662745 0.752941 0.674510
0.666667 0.756863 0.678431
0.662745 0.752941 0.674510
0.666667 0.756863 0.678431
0.670588 0.760784 0.682353
0.670588 0.756863 0.674510
0.682353 0.756863 0.678431
0.686275 0.760784 0.682353
0.682353 0.764706 0.690196
0.694118 0.768627 0.694118
0.698039 0.772549 0.698039
0.701961 0.768627 0.698039
0.709804 0.776471 0.705882
0.725490 0.780392 0.713725
0.733333 0.784314 0.713725
0.745098 0.788235 0.721569
0.749020 0.792157 0.725490
0.764706 0.800000 0.733333
0.780392 0.807843 0.745098
0.796078 0.811765 0.752941
0.800000 0.815686 0.756863
0.811765 0.819608 0.764706
0.823529 0.827451 0.772549
0.850980 0.843137 0.792157
0.866667 0.850980 0.803922
0.705882 0.803922 0.729412
0.709804 0.796078 0.713725
0.717647 0.788235 0.725490
0.713725 0.796078 0.729412
0.709804 0.800000 0.721569
0.717647 0.800000 0.725490
0.709804 0.800000 0.721569
0.721569 0.803922 0.737255
0.733333 0.803922 0.741176
0.737255 0.803922 0.733333
0.741176 0.807843 0.737255
0.752941 0.807843 0.741176
0.756863 0.811765 0.745098
0.768627 0.819608 0.752941
0.776471 0.819608 0.756863
0.780392 0.831373 0.764706
0.788235 0.831373 0.764706
0.792157 0.835294 0.768627
0.807843 0.843137 0.776471
0.819608 0.843137 0.788235
0.835294 0.850980 0.796078
0.843137 0.850980 0.800000
0.862745 0.862745 0.815686
0.870588 0.862745 0.811765
0.882353 0.886275 0.831373
0.760784 0.831373 0.768627
0.756863 0.827451 0.764706
0.752941 0.835294 0.768627
0.764706 0.839216 0.764706
0.760784 0.831373 0.776471
0.764706 0.835294 0.772549
0.760784 0.843137 0.776471
0.768627 0.839216 0.776471
0.772549 0.843137 0.780392
0.772549 0.843137 0.780392
0.780392 0.847059 0.784314
0.784314 0.850980 0.780392
0.796078 0.850980 0.784314
0.803922 0.854902 0.788235
0.807843 0.862745 0.803922
0.819608 0.862745 0.807843
0.823529 0.866667 0.803922
0.835294 0.858824 0.811765
0.835294 0.878431 0.823529
0.854902 0.878431 0.831373
0.858824 0.882353 0.835294
0.878431 0.886275 0.843137
0.882353 0.890196 0.839216
0.894118 0.901961 0.858824
0.898039 0.913725 0.854902
0.800000 0.870588 0.815686
0.803922 0.870588 0.800000
0.800000 0.870588 0.815686
0.796078 0.878431 0.819608
0.807843 0.874510 0.803922
0.803922 0.874510 0.819608
0.811765 0.878431 0.815686
0.811765 0.878431 0.815686
0.815686 0.882353 0.819608
0.819608 0.886275 0.823529
0.827451 0.882353 0.823529
0.835294 0.882353 0.827451
0.839216 0.886275 0.831373
0.839216 0.886275 0.831373
0.847059 0.894118 0.839216
0.854902 0.898039 0.843137
0.858824 0.901961 0.847059
0.870588 0.901961 0.850980
0.878431 0.909804 0.858824
0.886275 0.909804 0.862745
0.898039 0.909804 0.866667
0.894118 0.917647 0.870588
0.913725 0.921569 0.878431
0.917647 0.925490 0.882353
0.929412 0.937255 0.886275
0.847059 0.909804 0.866667
0.847059 0.909804 0.858824
0.839216 0.909804 0.854902
0.843137 0.905882 0.854902
0.839216 0.909804 0.854902
0.843137 0.913725 0.858824
0.850980 0.913725 0.862745
0.850980 0.913725 0.862745
0.850980 0.913725 0.862745
0.858824 0.913725 0.862745
0.866667 0.921569 0.870588
0.874510 0.921569 0.866667
0.878431 0.925490 0.878431
0.878431 0.925490 0.878431
0.882353 0.925490 0.870588
0.890196 0.929412 0.886275
0.894118 0.933333 0.890196
0.909804 0.941176 0.898039
0.913725 0.937255 0.898039
0.925490 0.937255 0.901961
0.921569 0.941176 0.913725
0.937255 0.949020 0.921569
0.941176 0.952941 0.917647
0.952941 0.956863 0.925490
0.960784 0.964706 0.933333
0.007843 0.007843 0.007843
0.015686 0.007843 0.011765
0.019608 0.011765 0.015686
0.039216 0.023529 0.027451
0.058824 0.035294 0.043137
0.086275 0.050980 0.062745
0.105882 0.062745 0.078431
0.125490 0.078431 0.086275
0.149020 0.094118 0.094118
0.172549 0.109804 0.113725
0.200000 0.129412 0.129412
0.219608 0.141176 0.145098
0.243137 0.156863 0.164706
0.270588 0.172549 0.184314
0.290196 0.188235 0.200000
0.317647 0.203922 0.211765
0.349020 0.231373 0.239216
0.372549 0.239216 0.243137
0.403922 0.262745 0.270588
0.435294 0.282353 0.286275
0.470588 0.305882 0.313725
0.501961 0.325490 0.337255
0.545098 0.352941 0.364706
0.580392 0.384314 0.396078
0.631373 0.407843 0.431373
0.015686 0.023529 0.011765
0.035294 0.035294 0.035294
0.039216 0.031373 0.035294
0.054902 0.050980 0.043137
0.074510 0.058824 0.062745
0.086275 0.062745 0.062745
0.113725 0.078431 0.082353
0.137255 0.090196 0.090196
0.149020 0.101961 0.101961
0.180392 0.117647 0.121569
0.207843 0.133333 0.141176
0.223529 0.152941 0.152941
0.247059 0.168627 0.172549
0.270588 0.184314 0.192157
0.294118 0.196078 0.207843
0.325490 0.211765 0.219608
0.349020 0.231373 0.239216
0.384314 0.250980 0.254902
0.411765 0.270588 0.278431
0.439216 0.286275 0.298039
0.466667 0.309804 0.313725
0.505882 0.333333 0.337255
0.541176 0.360784 0.368627
0.580392 0.384314 0.388235
0.623529 0.419608 0.435294
0.035294 0.054902 0.031373
0.050980 0.058824 0.047059
0.058824 0.058824 0.050980
0.078431 0.074510 0.066667
0.090196 0.074510 0.078431
0.109804 0.086275 0.086275
0.129412 0.098039 0.090196
0.145098 0.105882 0.101961
0.164706 0.117647 0.117647
0.188235 0.133333 0.133333
0.207843 0.145098 0.145098
0.235294 0.164706 0.164706
0.254902 0.176471 0.180392
0.278431 0.192157 0.200000
0.305882 0.203922 0.207843
0.321569 0.219608 0.223529
0.356863 0.239216 0.247059
0.376471 0.258824 0.258824
0.407843 0.274510 0.278431
0.431373 0.298039 0.294118
0.474510 0.317647 0.321569
0.501961 0.345098 0.349020
0.552941 0.360784 0.372549
0.584314 0.388235 0.392157
0.627451 0.423529 0.431373
0.074510 0.082353 0.070588
0.074510 0.082353 0.070588
0.082353 0.101961 0.078431
0.098039 0.094118 0.086275
0.109804 0.105882 0.098039
0.129412 0.109804 0.098039
0.149020 0.117647 0.109804
0.160784 0.129412 0.121569
0.176471 0.137255 0.129412
0.192157 0.149020 0.141176
0.215686 0.160784 0.156863
0.235294 0.172549 0.172549
0.262745 0.192157 0.192157
0.286275 0.200000 0.207843
0.309804 0.215686 0.215686
0.333333 0.231373 0.235294
0.360784 0.247059 0.254902
0.384314 0.266667 0.266667
0.407843 0.282353 0.286275
0.443137 0.309804 0.305882
0.466667 0.325490 0.325490
0.505882 0.349020 0.352941
0.552941 0.372549 0.380392
0.592157 0.403922 0.403922
0.631373 0.435294 0.447059
0.082353 0.121569 0.090196
0.098039 0.121569 0.105882
0.105882 0.125490 0.109804
0.121569 0.125490 0.105882
0.137255 0.133333 0.117647
0.145098 0.141176 0.125490
0.160784 0.149020 0.129412
0.172549 0.152941 0.137255
0.192157 0.160784 0.149020
0.211765 0.172549 0.164706
0.231373 0.188235 0.180392
0.247059 0.192157 0.188235
0.278431 0.207843 0.207843
0.294118 0.215686 0.211765
0.317647 0.235294 0.231373
0.345098 0.250980 0.250980
0.360784 0.266667 0.258824
0.392157 0.282353 0.278431
0.415686 0.298039 0.298039
0.439216 0.317647 0.309804
0.482353 0.333333 0.329412
0.513725 0.356863 0.349020
0.552941 0.380392 0.376471
0.584314 0.403922 0.403922
0.631373 0.435294 0.431373
0.113725 0.149020 0.129412
0.117647 0.152941 0.133333
0.129412 0.156863 0.129412
0.141176 0.160784 0.137255
0.156863 0.164706 0.145098
0.164706 0.168627 0.149020
0.180392 0.176471 0.160784
0.196078 0.184314 0.164706
0.211765 0.192157 0.176471
0.227451 0.196078 0.184314
0.247059 0.211765 0.192157
0.258824 0.215686 0.200000
0.286275 0.227451 0.215686
0.313725 0.243137 0.235294
0.333333 0.254902 0.250980
0.352941 0.270588 0.258824
0.376471 0.282353 0.274510
0.396078 0.294118 0.290196
0.431373 0.313725 0.305882
0.454902 0.333333 0.325490
0.486275 0.352941 0.345098
0.525490 0.376471 0.372549
0.564706 0.403922 0.396078
0.607843 0.427451 0.427451
0.658824 0.458824 0.443137
0.141176 0.188235 0.149020
0.160784 0.184314 0.168627
0.152941 0.192157 0.160784
0.152941 0.200000 0.160784
0.176471 0.196078 0.172549
0.192157 0.200000 0.180392
0.207843 0.211765 0.188235
0.215686 0.211765 0.192157
0.231373 0.219608 0.200000
0.247059 0.227451 0.211765
0.262745 0.235294 0.211765
0.286275 0.243137 0.227451
0.305882 0.250980 0.239216
0.321569 0.262745 0.250980
0.349020 0.278431 0.270588
0.368627 0.294118 0.278431
0.388235 0.305882 0.294118
0.415686 0.321569 0.313725
0.443137 0.333333 0.321569
0.466667 0.349020 0.341176
0.501961 0.368627 0.360784
0.545098 0.396078 0.384314
0.580392 0.427451 0.407843
0.615686 0.443137 0.431373
0.654902 0.474510 0.474510
0.180392 0.219608 0.188235
0.180392 0.219608 0.188235
0.180392 0.223529 0.192157
0.188235 0.227451 0.196078
0.196078 0.235294 0.200000
0.207843 0.239216 0.196078
0.227451 0.239216 0.211765
0.239216 0.243137 0.219608
0.254902 0.250980 0.231373
0.274510 0.262745 0.235294
0.286275 0.266667 0.243137
0.305882 0.270588 0.250980
0.321569 0.278431 0.254902
0.345098 0.294118 0.270588
0.360784 0.301961 0.282353
0.384314 0.313725 0.298039
0.403922 0.329412 0.305882
0.431373 0.341176 0.317647
0.454902 0.356863 0.337255
0.486275 0.372549 0.356863
0.513725 0.392157 0.372549
0.552941 0.415686 0.400000
0.580392 0.443137 0.419608
0.627451 0.466667 0.443137
0.662745 0.490196 0.478431
0.203922 0.254902 0.219608
0.203922 0.254902 0.227451
0.215686 0.254902 0.219608
0.215686 0.258824 0.227451
0.223529 0.266667 0.235294
0.235294 0.262745 0.231373
0.247059 0.274510 0.243137
0.258824 0.278431 0.250980
0.278431 0.290196 0.262745
0.290196 0.294118 0.262745
0.309804 0.298039 0.270588
0.325490 0.305882 0.282353
0.345098 0.317647 0.294118
0.360784 0.325490 0.305882
0.372549 0.329412 0.305882
0.400000 0.341176 0.321569
0.423529 0.356863 0.329412
0.447059 0.364706 0.345098
0.470588 0.380392 0.356863
0.505882 0.396078 0.380392
0.533333 0.419608 0.396078
0.572549 0.435294 0.419608
0.603922 0.458824 0.427451
0.643137 0.490196 0.462745
0.674510 0.513725 0.498039
0.243137 0.294118 0.254902
0.239216 0.290196 0.254902
0.247059 0.298039 0.262745
0.243137 0.294118 0.254902
0.254902 0.301961 0.262745
0.262745 0.301961 0.266667
0.274510 0.305882 0.262745
0.286275 0.309804 0.270588
0.305882 0.317647 0.282353
0.317647 0.321569 0.290196
0.333333 0.333333 0.301961
0.349020 0.337255 0.301961
0.364706 0.349020 0.313725
0.384314 0.356863 0.317647
0.396078 0.360784 0.325490
0.423529 0.372549 0.337255
0.439216 0.384314 0.349020
0.466667 0.392157 0.364706
0.486275 0.407843 0.372549
0.513725 0.423529 0.392157
0.545098 0.439216 0.411765
0.576471 0.462745 0.439216
0.603922 0.486275 0.454902
0.643137 0.505882 0.482353
0.686275 0.541176 0.517647
0.262745 0.325490 0.282353
0.262745 0.325490 0.282353
0.278431 0.329412 0.290196
0.278431 0.329412 0.290196
0.282353 0.337255 0.286275
0.290196 0.337255 0.290196
0.301961 0.341176 0.298039
0.305882 0.345098 0.301961
0.321569 0.352941 0.309804
0.333333 0.356863 0.317647
0.356863 0.364706 0.321569
