resources/LUTs/Black and White/4.cube
TITLE "B&W Preset #4"
#LUT size
LUT_3D_SIZE 5
#LUT data points
0.003922 0.000000 0.000000
0.098039 0.058824 0.062745
0.235294 0.152941 0.149020
0.396078 0.262745 0.258824
0.627451 0.411765 0.431373
0.137255 0.188235 0.149020
0.200000 0.203922 0.180392
0.301961 0.250980 0.227451
0.443137 0.333333 0.321569
0.666667 0.470588 0.466667
0.333333 0.400000 0.337255
0.349020 0.415686 0.352941
0.435294 0.450980 0.396078
0.556863 0.509804 0.462745
0.733333 0.639216 0.592157
0.560784 0.674510 0.588235
0.580392 0.670588 0.592157
0.627451 0.694118 0.619608
0.713725 0.729412 0.670588
0.839216 0.800000 0.752941
0.847059 0.909804 0.866667
0.850980 0.913725 0.862745
0.878431 0.925490 0.878431
0.913725 0.937255 0.898039
0.960784 0.964706 0.933333
0.023529 0.031373 0.090196
0.125490 0.082353 0.137255
0.254902 0.188235 0.219608
0.415686 0.286275 0.313725
0.639216 0.431373 0.454902
0.152941 0.188235 0.207843
0.215686 0.219608 0.235294
0.313725 0.270588 0.286275
0.454902 0.352941 0.364706
0.666667 0.490196 0.501961
0.345098 0.411765 0.372549
0.360784 0.419608 0.392157
0.439216 0.462745 0.423529
0.560784 0.521569 0.486275
0.745098 0.635294 0.631373
0.564706 0.670588 0.603922
0.588235 0.678431 0.607843
0.631373 0.698039 0.627451
0.713725 0.729412 0.674510
0.835294 0.800000 0.764706
0.839216 0.901961 0.850980
0.850980 0.913725 0.862745
0.874510 0.921569 0.874510
0.905882 0.937255 0.894118
0.960784 0.964706 0.933333
0.090196 0.086275 0.243137
0.149020 0.125490 0.258824
0.278431 0.203922 0.313725
0.427451 0.301961 0.392157
0.654902 0.439216 0.521569
0.192157 0.219608 0.321569
0.223529 0.243137 0.321569
0.333333 0.286275 0.372549
0.470588 0.372549 0.447059
0.674510 0.501961 0.560784
0.352941 0.427451 0.450980
0.380392 0.439216 0.466667
0.454902 0.470588 0.505882
0.580392 0.537255 0.560784
0.745098 0.639216 0.658824
0.576471 0.674510 0.650980
0.592157 0.682353 0.658824
0.647059 0.705882 0.678431
0.717647 0.737255 0.713725
0.839216 0.819608 0.796078
0.843137 0.913725 0.866667
0.850980 0.913725 0.870588
0.878431 0.925490 0.878431
0.913725 0.933333 0.905882
0.964706 0.968627 0.945098
0.152941 0.168627 0.419608
0.211765 0.192157 0.443137
0.321569 0.254902 0.470588
0.466667 0.341176 0.533333
0.666667 0.462745 0.643137
0.227451 0.266667 0.458824
0.266667 0.290196 0.486275
0.364706 0.329412 0.513725
0.498039 0.400000 0.564706
0.698039 0.517647 0.658824
0.372549 0.454902 0.568627
0.403922 0.462745 0.584314
0.470588 0.490196 0.607843
0.596078 0.545098 0.647059
0.752941 0.635294 0.729412
0.576471 0.682353 0.709804
0.600000 0.690196 0.721569
0.650980 0.709804 0.737255
0.729412 0.741176 0.768627
0.847059 0.803922 0.827451
0.835294 0.909804 0.886275
0.847059 0.913725 0.890196
0.866667 0.925490 0.905882
0.917647 0.941176 0.925490
0.972549 0.976471 0.956863
0.254902 0.266667 0.717647
0.305882 0.290196 0.725490
0.423529 0.341176 0.737255
0.568627 0.431373 0.760784
0.733333 0.560784 0.792157
0.301961 0.341176 0.725490
0.349020 0.364706 0.745098
0.454902 0.403922 0.749020
0.588235 0.486275 0.772549
0.749020 0.603922 0.815686
0.435294 0.509804 0.768627
0.462745 0.517647 0.772549
0.545098 0.552941 0.792157
0.662745 0.611765 0.819608
0.784314 0.698039 0.850980
0.682353 0.760784 0.858824
0.694118 0.764706 0.858824
0.717647 0.764706 0.850980
0.768627 0.776471 0.866667
0.870588 0.839216 0.898039
0.901961 0.964706 0.964706
0.905882 0.960784 0.964706
0.913725 0.968627 0.968627
0.956863 0.980392 0.980392
1.000000 1.000000 1.000000
