resources/LUTs/Black and White/5.cube
TITLE "B&W Preset #5"
#LUT size
LUT_3D_SIZE 9
#LUT data points
0.000000 0.000000 0.000000
0.031373 0.027451 0.019608
0.086275 0.062745 0.062745
0.141176 0.105882 0.109804
0.203922 0.156863 0.156863
0.270588 0.207843 0.207843
0.341176 0.270588 0.270588
0.423529 0.329412 0.329412
0.513725 0.419608 0.419608
0.074510 0.074510 0.066667
0.094118 0.094118 0.086275
0.129412 0.113725 0.109804
0.180392 0.149020 0.141176
0.231373 0.184314 0.184314
0.290196 0.235294 0.235294
0.360784 0.290196 0.290196
0.431373 0.345098 0.352941
0.529412 0.427451 0.423529
0.164706 0.172549 0.160784
0.164706 0.172549 0.160784
0.196078 0.200000 0.180392
0.235294 0.219608 0.207843
0.278431 0.247059 0.239216
0.321569 0.282353 0.274510
0.388235 0.333333 0.321569
0.462745 0.384314 0.380392
0.560784 0.466667 0.458824
0.239216 0.266667 0.239216
0.258824 0.266667 0.247059
0.274510 0.282353 0.262745
0.305882 0.301961 0.286275
0.341176 0.329412 0.309804
0.388235 0.356863 0.345098
0.435294 0.392157 0.376471
0.505882 0.447059 0.427451
0.600000 0.517647 0.505882
0.333333 0.372549 0.337255
0.345098 0.364706 0.341176
0.356863 0.376471 0.349020
0.380392 0.392157 0.364706
0.415686 0.419608 0.396078
0.454902 0.435294 0.411765
0.509804 0.474510 0.454902
0.572549 0.529412 0.513725
0.662745 0.603922 0.584314
0.431373 0.470588 0.435294
0.439216 0.478431 0.443137
0.450980 0.478431 0.447059
0.466667 0.498039 0.454902
0.505882 0.517647 0.482353
0.537255 0.541176 0.509804
0.588235 0.576471 0.549020
0.650980 0.623529 0.600000
0.713725 0.698039 0.654902
0.560784 0.600000 0.564706
0.560784 0.607843 0.560784
0.568627 0.607843 0.572549
0.596078 0.627451 0.584314
0.607843 0.639216 0.596078
0.643137 0.654902 0.619608
0.678431 0.682353 0.650980
0.717647 0.713725 0.694118
0.784314 0.772549 0.737255
0.690196 0.733333 0.701961
0.701961 0.741176 0.709804
0.713725 0.741176 0.709804
0.725490 0.752941 0.721569
0.741176 0.760784 0.733333
0.768627 0.780392 0.752941
0.788235 0.800000 0.772549
0.815686 0.819608 0.788235
0.866667 0.854902 0.827451
0.858824 0.878431 0.854902
0.854902 0.882353 0.854902
0.858824 0.886275 0.854902
0.870588 0.890196 0.866667
0.878431 0.898039 0.870588
0.901961 0.913725 0.886275
0.917647 0.929412 0.901961
0.937255 0.945098 0.925490
0.968627 0.972549 0.952941
0.011765 0.011765 0.019608
0.039216 0.031373 0.043137
0.098039 0.074510 0.082353
0.156863 0.121569 0.125490
0.215686 0.176471 0.180392
0.278431 0.231373 0.231373
0.352941 0.282353 0.282353
0.427451 0.341176 0.349020
0.529412 0.415686 0.431373
0.082353 0.082353 0.074510
0.098039 0.098039 0.090196
0.129412 0.125490 0.117647
0.184314 0.160784 0.160784
0.235294 0.200000 0.203922
0.294118 0.247059 0.247059
0.352941 0.290196 0.290196
0.423529 0.345098 0.341176
0.521569 0.419608 0.423529
0.164706 0.172549 0.160784
0.180392 0.188235 0.184314
0.200000 0.200000 0.192157
0.239216 0.223529 0.211765
0.286275 0.254902 0.247059
0.329412 0.290196 0.286275
0.392157 0.337255 0.333333
0.466667 0.388235 0.384314
0.564706 0.470588 0.462745
0.243137 0.266667 0.258824
0.262745 0.270588 0.250980
0.278431 0.286275 0.266667
0.309804 0.305882 0.290196
0.341176 0.329412 0.309804
0.384314 0.352941 0.341176
0.431373 0.388235 0.380392
0.490196 0.431373 0.419608
0.580392 0.505882 0.490196
0.341176 0.360784 0.337255
0.345098 0.372549 0.345098
0.356863 0.376471 0.349020
0.384314 0.396078 0.368627
0.415686 0.419608 0.396078
0.458824 0.439216 0.415686
0.509804 0.482353 0.458824
0.572549 0.529412 0.513725
0.658824 0.600000 0.588235
0.443137 0.470588 0.439216
0.443137 0.470588 0.439216
0.454902 0.482353 0.450980
0.474510 0.494118 0.466667
0.501961 0.513725 0.478431
0.541176 0.537255 0.517647
0.588235 0.568627 0.545098
0.650980 0.623529 0.600000
0.717647 0.690196 0.666667
0.564706 0.607843 0.552941
0.564706 0.611765 0.572549
0.568627 0.607843 0.564706
0.592157 0.623529 0.580392
0.611765 0.631373 0.603922
0.647059 0.650980 0.619608
0.674510 0.674510 0.643137
0.709804 0.698039 0.670588
0.796078 0.768627 0.745098
0.698039 0.741176 0.709804
0.709804 0.737255 0.705882
0.705882 0.745098 0.709804
0.721569 0.749020 0.717647
0.745098 0.768627 0.729412
0.760784 0.780392 0.752941
0.788235 0.792157 0.768627
0.819608 0.815686 0.796078
0.862745 0.850980 0.823529
0.847059 0.886275 0.854902
0.847059 0.886275 0.854902
0.858824 0.886275 0.858824
0.870588 0.890196 0.866667
0.874510 0.901961 0.874510
0.901961 0.913725 0.886275
0.921569 0.925490 0.901961
0.933333 0.941176 0.921569
0.972549 0.968627 0.952941
0.023529 0.019608 0.039216
0.047059 0.039216 0.058824
0.101961 0.082353 0.105882
0.164706 0.129412 0.141176
0.227451 0.188235 0.192157
0.294118 0.235294 0.247059
0.352941 0.290196 0.294118
0.431373 0.352941 0.356863
0.529412 0.431373 0.443137
0.086275 0.086275 0.086275
0.101961 0.098039 0.117647
0.145098 0.129412 0.133333
0.188235 0.164706 0.172549
0.247059 0.211765 0.223529
0.301961 0.254902 0.254902
0.364706 0.301961 0.305882
0.435294 0.356863 0.360784
0.533333 0.435294 0.447059
0.160784 0.176471 0.180392
0.176471 0.192157 0.196078
0.200000 0.207843 0.203922
0.235294 0.227451 0.231373
0.286275 0.262745 0.262745
0.341176 0.301961 0.305882
0.396078 0.341176 0.341176
0.478431 0.400000 0.403922
0.568627 0.474510 0.474510
0.254902 0.270588 0.266667
0.262745 0.282353 0.266667
0.282353 0.290196 0.278431
0.309804 0.309804 0.301961
0.337255 0.333333 0.317647
0.376471 0.356863 0.345098
0.431373 0.392157 0.388235
0.494118 0.439216 0.427451
0.592157 0.513725 0.509804
0.345098 0.372549 0.345098
0.352941 0.372549 0.356863
0.364706 0.384314 0.360784
0.388235 0.396078 0.376471
0.419608 0.423529 0.403922
0.454902 0.443137 0.423529
0.513725 0.482353 0.470588
0.572549 0.529412 0.513725
0.658824 0.603922 0.592157
0.439216 0.478431 0.443137
0.439216 0.478431 0.447059
0.458824 0.486275 0.454902
0.478431 0.498039 0.470588
0.509804 0.521569 0.494118
0.537255 0.541176 0.509804
0.588235 0.576471 0.556863
0.658824 0.631373 0.607843
0.725490 0.698039 0.674510
0.560784 0.600000 0.564706
0.556863 0.611765 0.560784
0.572549 0.611765 0.576471
0.596078 0.623529 0.592157
0.611765 0.635294 0.596078
0.639216 0.650980 0.623529
0.674510 0.674510 0.643137
0.721569 0.701961 0.678431
0.788235 0.772549 0.737255
0.701961 0.741176 0.709804
0.701961 0.741176 0.709804
0.705882 0.745098 0.709804
0.725490 0.752941 0.721569
0.737255 0.764706 0.733333
0.760784 0.780392 0.752941
0.788235 0.800000 0.772549
0.823529 0.819608 0.800000
0.866667 0.847059 0.823529
0.847059 0.870588 0.854902
0.854902 0.882353 0.854902
0.858824 0.886275 0.858824
0.870588 0.890196 0.862745
0.874510 0.901961 0.874510
0.890196 0.909804 0.886275
0.913725 0.925490 0.898039
0.937255 0.945098 0.925490
0.972549 0.968627 0.949020
0.039216 0.039216 0.078431
0.062745 0.058824 0.090196
0.101961 0.090196 0.117647
0.164706 0.137255 0.164706
0.231373 0.188235 0.211765
0.286275 0.239216 0.254902
0.356863 0.294118 0.305882
0.439216 0.360784 0.368627
0.533333 0.427451 0.462745
0.101961 0.105882 0.121569
0.121569 0.109804 0.145098
0.141176 0.137255 0.160784
0.192157 0.172549 0.196078
0.243137 0.219608 0.235294
0.305882 0.258824 0.266667
0.372549 0.309804 0.321569
0.447059 0.364706 0.384314
0.541176 0.443137 0.466667
0.180392 0.184314 0.203922
0.188235 0.184314 0.203922
0.211765 0.207843 0.227451
0.243137 0.235294 0.247059
0.290196 0.266667 0.274510
0.341176 0.305882 0.309804
0.403922 0.356863 0.364706
0.482353 0.407843 0.415686
0.568627 0.470588 0.482353
0.254902 0.278431 0.278431
0.258824 0.282353 0.274510
0.286275 0.290196 0.298039
0.313725 0.313725 0.313725
0.341176 0.333333 0.337255
0.392157 0.368627 0.368627
0.447059 0.400000 0.400000
0.505882 0.450980 0.447059
0.596078 0.517647 0.521569
0.341176 0.376471 0.364706
0.356863 0.380392 0.364706
0.364706 0.388235 0.380392
0.392157 0.400000 0.388235
0.419608 0.419608 0.411765
0.462745 0.447059 0.443137
0.517647 0.486275 0.474510
0.580392 0.537255 0.529412
0.678431 0.607843 0.600000
0.443137 0.482353 0.450980
0.447059 0.486275 0.454902
0.462745 0.486275 0.470588
0.478431 0.498039 0.474510
0.509804 0.517647 0.498039
0.541176 0.545098 0.521569
0.592157 0.580392 0.560784
0.654902 0.623529 0.611765
0.733333 0.690196 0.682353
0.564706 0.603922 0.568627
0.564706 0.607843 0.576471
0.572549 0.611765 0.576471
0.596078 0.623529 0.596078
0.619608 0.639216 0.615686
0.647059 0.658824 0.623529
0.678431 0.674510 0.654902
0.721569 0.709804 0.682353
0.792157 0.772549 0.756863
0.701961 0.737255 0.717647
0.701961 0.749020 0.709804
0.705882 0.749020 0.717647
0.721569 0.760784 0.725490
0.737255 0.764706 0.733333
0.760784 0.780392 0.756863
0.792157 0.803922 0.776471
0.823529 0.819608 0.800000
0.858824 0.858824 0.827451
0.847059 0.882353 0.870588
0.847059 0.886275 0.854902
0.854902 0.894118 0.862745
0.866667 0.894118 0.862745
0.878431 0.905882 0.878431
0.890196 0.909804 0.886275
0.913725 0.925490 0.898039
0.945098 0.949020 0.929412
0.976471 0.972549 0.952941
0.070588 0.070588 0.117647
0.082353 0.082353 0.129412
0.117647 0.109804 0.160784
0.172549 0.149020 0.188235
0.235294 0.196078 0.231373
0.298039 0.247059 0.282353
0.360784 0.301961 0.329412
0.443137 0.368627 0.392157
0.537255 0.435294 0.470588
0.121569 0.113725 0.156863
0.133333 0.125490 0.176471
0.156863 0.149020 0.192157
0.196078 0.184314 0.219608
0.250980 0.223529 0.254902
0.309804 0.266667 0.298039
0.376471 0.317647 0.345098
0.443137 0.368627 0.384314
0.545098 0.439216 0.474510
0.192157 0.192157 0.223529
0.203922 0.203922 0.235294
0.215686 0.211765 0.235294
0.254902 0.243137 0.270588
0.294118 0.274510 0.298039
0.349020 0.313725 0.333333
0.403922 0.356863 0.372549
0.486275 0.411765 0.427451
0.584314 0.478431 0.498039
0.258824 0.278431 0.294118
0.270588 0.286275 0.298039
0.294118 0.298039 0.313725
0.317647 0.317647 0.325490
0.349020 0.341176 0.352941
0.396078 0.372549 0.380392
0.447059 0.407843 0.411765
0.509804 0.450980 0.462745
0.592157 0.513725 0.521569
0.356863 0.380392 0.380392
0.352941 0.376471 0.376471
0.364706 0.388235 0.388235
0.388235 0.403922 0.400000
0.423529 0.423529 0.423529
0.466667 0.450980 0.447059
0.513725 0.490196 0.490196
0.584314 0.537255 0.537255
0.666667 0.603922 0.603922
0.447059 0.482353 0.470588
0.450980 0.486275 0.474510
0.466667 0.490196 0.474510
0.482353 0.501961 0.486275
0.509804 0.517647 0.505882
0.545098 0.545098 0.537255
0.596078 0.580392 0.568627
0.654902 0.635294 0.619608
0.733333 0.686275 0.686275
0.572549 0.607843 0.588235
0.568627 0.603922 0.584314
0.580392 0.619608 0.588235
0.596078 0.619608 0.603922
0.623529 0.643137 0.627451
0.647059 0.654902 0.635294
0.678431 0.682353 0.662745
0.721569 0.717647 0.698039
0.796078 0.776471 0.760784
0.698039 0.741176 0.717647
0.701961 0.741176 0.709804
0.705882 0.745098 0.713725
0.725490 0.749020 0.733333
0.741176 0.768627 0.741176
0.764706 0.784314 0.760784
0.792157 0.803922 0.776471
0.827451 0.823529 0.803922
0.866667 0.866667 0.835294
0.854902 0.882353 0.854902
0.854902 0.878431 0.862745
0.850980 0.890196 0.858824
0.866667 0.894118 0.862745
0.874510 0.901961 0.874510
0.894118 0.913725 0.890196
0.917647 0.929412 0.901961
0.941176 0.949020 0.929412
0.976471 0.972549 0.956863
0.098039 0.094118 0.164706
0.109804 0.105882 0.176471
0.141176 0.129412 0.196078
0.188235 0.164706 0.219608
0.250980 0.207843 0.262745
0.298039 0.250980 0.305882
0.368627 0.305882 0.349020
0.447059 0.368627 0.411765
0.533333 0.454902 0.501961
0.141176 0.133333 0.184314
0.149020 0.145098 0.207843
0.172549 0.164706 0.215686
0.207843 0.192157 0.247059
0.254902 0.231373 0.278431
0.313725 0.266667 0.305882
0.364706 0.313725 0.352941
0.447059 0.368627 0.403922
0.529412 0.447059 0.482353
0.211765 0.211765 0.250980
0.207843 0.215686 0.262745
0.231373 0.231373 0.278431
0.258824 0.250980 0.294118
0.305882 0.282353 0.321569
0.356863 0.317647 0.352941
0.407843 0.356863 0.392157
0.490196 0.411765 0.447059
0.576471 0.486275 0.517647
0.266667 0.286275 0.309804
0.278431 0.290196 0.309804
0.290196 0.301961 0.329412
0.317647 0.321569 0.341176
0.349020 0.345098 0.368627
0.392157 0.372549 0.396078
0.439216 0.403922 0.423529
0.505882 0.447059 0.466667
0.588235 0.505882 0.533333
0.352941 0.392157 0.400000
0.356863 0.388235 0.396078
0.376471 0.396078 0.411765
0.396078 0.407843 0.427451
0.431373 0.427451 0.447059
0.470588 0.450980 0.466667
0.521569 0.486275 0.498039
0.576471 0.529412 0.537255
0.650980 0.588235 0.600000
0.454902 0.486275 0.494118
0.454902 0.486275 0.494118
0.474510 0.498039 0.498039
0.486275 0.509804 0.509804
0.509804 0.525490 0.529412
0.549020 0.549020 0.549020
0.596078 0.580392 0.584314
0.654902 0.619608 0.623529
0.733333 0.674510 0.686275
0.568627 0.603922 0.592157
0.568627 0.611765 0.588235
0.576471 0.619608 0.603922
0.592157 0.627451 0.607843
0.611765 0.635294 0.619608
0.639216 0.658824 0.643137
0.670588 0.670588 0.662745
0.729412 0.713725 0.701961
0.800000 0.768627 0.756863
0.698039 0.745098 0.729412
0.701961 0.745098 0.729412
0.701961 0.752941 0.717647
0.721569 0.756863 0.737255
0.741176 0.764706 0.749020
0.760784 0.780392 0.756863
0.792157 0.800000 0.780392
0.823529 0.827451 0.807843
0.882353 0.862745 0.839216
0.835294 0.878431 0.854902
0.843137 0.878431 0.858824
0.850980 0.886275 0.866667
0.854902 0.894118 0.862745
0.870588 0.898039 0.870588
0.894118 0.913725 0.890196
0.917647 0.925490 0.905882
0.941176 0.945098 0.925490
0.976471 0.972549 0.956863
0.129412 0.121569 0.215686
0.141176 0.133333 0.227451
0.168627 0.152941 0.243137
0.211765 0.180392 0.270588
0.258824 0.231373 0.301961
0.317647 0.266667 0.337255
0.380392 0.313725 0.376471
0.447059 0.376471 0.431373
0.556863 0.454902 0.505882
0.149020 0.152941 0.235294
0.172549 0.164706 0.250980
0.192157 0.188235 0.258824
0.227451 0.211765 0.278431
0.274510 0.239216 0.313725
0.333333 0.282353 0.352941
0.380392 0.325490 0.384314
0.447059 0.376471 0.439216
0.556863 0.450980 0.509804
0.215686 0.223529 0.282353
0.219608 0.231373 0.298039
0.250980 0.247059 0.309804
0.274510 0.266667 0.321569
0.313725 0.290196 0.345098
0.368627 0.325490 0.380392
0.419608 0.364706 0.415686
0.490196 0.419608 0.466667
0.584314 0.490196 0.541176
0.282353 0.298039 0.341176
0.282353 0.298039 0.345098
0.298039 0.305882 0.356863
0.329412 0.329412 0.376471
0.360784 0.352941 0.396078
0.400000 0.376471 0.415686
0.458824 0.411765 0.450980
0.513725 0.450980 0.490196
0.603922 0.517647 0.564706
0.368627 0.384314 0.419608
0.368627 0.396078 0.427451
0.384314 0.400000 0.435294
0.400000 0.411765 0.447059
0.431373 0.431373 0.470588
0.470588 0.458824 0.494118
0.517647 0.490196 0.517647
0.584314 0.533333 0.560784
0.658824 0.600000 0.627451
0.470588 0.509804 0.517647
0.474510 0.513725 0.521569
0.486275 0.517647 0.529412
0.494118 0.525490 0.537255
0.521569 0.533333 0.552941
0.552941 0.549020 0.568627
0.603922 0.584314 0.600000
0.647059 0.623529 0.639216
0.725490 0.678431 0.686275
0.572549 0.603922 0.611765
0.572549 0.611765 0.619608
0.576471 0.623529 0.615686
0.596078 0.631373 0.627451
0.615686 0.639216 0.639216
0.650980 0.658824 0.654902
0.674510 0.682353 0.678431
0.721569 0.713725 0.717647
0.800000 0.768627 0.760784
0.694118 0.741176 0.725490
0.705882 0.745098 0.741176
0.713725 0.749020 0.737255
0.717647 0.752941 0.741176
0.745098 0.768627 0.752941
0.760784 0.784314 0.776471
0.792157 0.800000 0.796078
0.827451 0.823529 0.815686
0.890196 0.870588 0.858824
0.843137 0.878431 0.866667
0.839216 0.882353 0.866667
0.847059 0.890196 0.866667
0.854902 0.890196 0.870588
0.862745 0.898039 0.878431
0.886275 0.913725 0.886275
0.905882 0.925490 0.901961
0.941176 0.949020 0.937255
0.980392 0.976471 0.968627
0.156863 0.160784 0.282353
0.172549 0.168627 0.294118
0.200000 0.188235 0.309804
0.235294 0.211765 0.321569
0.290196 0.250980 0.356863
0.341176 0.294118 0.388235
0.415686 0.345098 0.439216
0.486275 0.400000 0.482353
0.580392 0.470588 0.556863
0.176471 0.180392 0.298039
0.192157 0.188235 0.309804
0.215686 0.203922 0.325490
0.247059 0.231373 0.337255
0.301961 0.266667 0.372549
0.356863 0.309804 0.403922
0.411765 0.352941 0.435294
0.494118 0.400000 0.494118
0.564706 0.466667 0.549020
0.215686 0.239216 0.341176
0.243137 0.250980 0.349020
0.254902 0.262745 0.360784
0.290196 0.282353 0.376471
0.329412 0.309804 0.400000
0.388235 0.352941 0.435294
0.450980 0.392157 0.474510
0.529412 0.447059 0.521569
0.596078 0.501961 0.564706
0.290196 0.298039 0.388235
0.294118 0.313725 0.392157
0.313725 0.321569 0.403922
0.337255 0.341176 0.423529
0.376471 0.364706 0.439216
0.419608 0.392157 0.462745
0.478431 0.431373 0.509804
0.541176 0.474510 0.545098
0.611765 0.529412 0.588235
0.372549 0.400000 0.474510
0.376471 0.411765 0.478431
0.384314 0.407843 0.470588
0.403922 0.415686 0.482353
0.443137 0.439216 0.509804
0.482353 0.466667 0.525490
0.537255 0.505882 0.564706
0.603922 0.549020 0.600000
0.682353 0.603922 0.650980
0.486275 0.525490 0.564706
0.490196 0.529412 0.568627
0.494118 0.525490 0.568627
0.501961 0.525490 0.572549
0.521569 0.537255 0.580392
0.560784 0.560784 0.600000
0.603922 0.592157 0.627451
0.670588 0.631373 0.666667
0.725490 0.682353 0.705882
0.592157 0.635294 0.658824
0.607843 0.643137 0.670588
0.603922 0.647059 0.662745
0.619608 0.654902 0.674510
0.627451 0.658824 0.670588
0.654902 0.666667 0.686275
0.686275 0.682353 0.701961
0.729412 0.721569 0.733333
0.803922 0.768627 0.788235
0.713725 0.756863 0.764706
0.717647 0.756863 0.764706
0.725490 0.764706 0.768627
0.733333 0.768627 0.764706
0.752941 0.776471 0.776471
0.764706 0.788235 0.788235
0.796078 0.803922 0.800000
0.831373 0.823529 0.827451
0.886275 0.870588 0.866667
0.843137 0.886275 0.870588
0.847059 0.890196 0.874510
0.850980 0.894118 0.878431
0.858824 0.894118 0.890196
0.866667 0.901961 0.890196
0.878431 0.913725 0.901961
0.901961 0.925490 0.917647
0.937255 0.945098 0.933333
0.988235 0.984314 0.968627
0.203922 0.207843 0.396078
0.215686 0.207843 0.392157
0.239216 0.227451 0.411765
0.278431 0.250980 0.423529
0.333333 0.290196 0.454902
0.400000 0.341176 0.501961
0.474510 0.388235 0.537255
0.556863 0.450980 0.588235
0.650980 0.529412 0.650980
0.215686 0.219608 0.400000
0.219608 0.223529 0.403922
0.250980 0.247059 0.419608
0.290196 0.266667 0.439216
0.341176 0.298039 0.462745
0.403922 0.341176 0.494118
0.482353 0.396078 0.545098
0.556863 0.454902 0.592157
0.647059 0.533333 0.650980
0.250980 0.262745 0.431373
0.258824 0.270588 0.439216
0.282353 0.290196 0.450980
0.325490 0.305882 0.462745
0.372549 0.341176 0.494118
0.439216 0.384314 0.525490
0.509804 0.431373 0.568627
0.588235 0.490196 0.607843
0.678431 0.568627 0.666667
0.294118 0.325490 0.466667
0.298039 0.329412 0.474510
0.325490 0.341176 0.486275
0.356863 0.356863 0.498039
0.407843 0.384314 0.525490
0.458824 0.419608 0.552941
0.533333 0.470588 0.584314
0.603922 0.525490 0.635294
0.686275 0.592157 0.686275
0.352941 0.396078 0.521569
0.349020 0.400000 0.533333
0.372549 0.407843 0.529412
0.403922 0.427451 0.552941
0.450980 0.454902 0.576471
0.505882 0.486275 0.603922
0.576471 0.537255 0.635294
0.650980 0.592157 0.682353
0.721569 0.654902 0.729412
0.494118 0.552941 0.643137
0.490196 0.549020 0.639216
0.494118 0.552941 0.643137
0.498039 0.537255 0.643137
0.513725 0.537255 0.639216
0.568627 0.568627 0.670588
0.635294 0.615686 0.701961
0.713725 0.670588 0.737255
0.776471 0.729412 0.784314
0.639216 0.686275 0.741176
0.647059 0.694118 0.741176
0.647059 0.694118 0.741176
0.643137 0.690196 0.737255
0.650980 0.682353 0.725490
0.658824 0.670588 0.737255
0.701961 0.698039 0.752941
0.760784 0.749020 0.784314
0.827451 0.788235 0.823529
0.768627 0.819608 0.843137
0.772549 0.827451 0.839216
0.780392 0.823529 0.847059
0.784314 0.827451 0.843137
0.792157 0.827451 0.847059
0.796078 0.823529 0.847059
0.811765 0.823529 0.843137
0.839216 0.835294 0.854902
0.898039 0.874510 0.890196
0.878431 0.921569 0.929412
0.886275 0.925490 0.921569
0.886275 0.925490 0.929412
0.894118 0.925490 0.933333
0.894118 0.933333 0.929412
0.905882 0.941176 0.937255
0.925490 0.949020 0.949020
0.949020 0.964706 0.968627
0.988235 0.988235 0.988235
