resources/LUTs/Black and White/5.cube
TITLE "B&W Preset #5"
#LUT size
LUT_3D_SIZE 25
#LUT data points
0.000000 0.000000 0.000000
0.003922 0.003922 0.003922
0.015686 0.015686 0.015686
0.031373 0.027451 0.019608
0.054902 0.039216 0.035294
0.074510 0.050980 0.050980
0.086275 0.062745 0.062745
0.105882 0.070588 0.074510
0.121569 0.086275 0.090196
0.141176 0.105882 0.109804
0.164706 0.125490 0.121569
0.184314 0.137255 0.137255
0.203922 0.156863 0.156863
0.231373 0.176471 0.176471
0.254902 0.200000 0.200000
0.270588 0.207843 0.207843
0.294118 0.231373 0.231373
0.313725 0.250980 0.250980
0.341176 0.270588 0.270588
0.368627 0.290196 0.294118
0.396078 0.309804 0.317647
0.423529 0.329412 0.329412
0.454902 0.352941 0.356863
0.482353 0.380392 0.384314
0.513725 0.419608 0.419608
0.023529 0.019608 0.011765
0.027451 0.027451 0.019608
0.035294 0.035294 0.027451
0.058824 0.043137 0.047059
0.066667 0.050980 0.047059
0.078431 0.062745 0.058824
0.094118 0.070588 0.070588
0.105882 0.086275 0.074510
0.133333 0.101961 0.094118
0.149020 0.117647 0.109804
0.172549 0.133333 0.129412
0.192157 0.152941 0.149020
0.207843 0.160784 0.160784
0.239216 0.184314 0.184314
0.254902 0.200000 0.200000
0.290196 0.215686 0.223529
0.305882 0.235294 0.235294
0.325490 0.254902 0.254902
0.349020 0.270588 0.274510
0.368627 0.290196 0.294118
0.396078 0.317647 0.321569
0.419608 0.337255 0.333333
0.447059 0.364706 0.360784
0.486275 0.392157 0.392157
0.529412 0.415686 0.423529
0.050980 0.047059 0.039216
0.050980 0.050980 0.050980
0.062745 0.058824 0.050980
0.066667 0.066667 0.058824
0.078431 0.082353 0.062745
0.098039 0.078431 0.066667
0.109804 0.086275 0.086275
0.125490 0.105882 0.094118
0.137255 0.117647 0.105882
0.164706 0.133333 0.125490
0.180392 0.141176 0.137255
0.200000 0.160784 0.156863
0.223529 0.176471 0.176471
0.239216 0.192157 0.192157
0.254902 0.207843 0.207843
0.282353 0.227451 0.227451
0.301961 0.239216 0.239216
0.321569 0.258824 0.258824
0.352941 0.282353 0.282353
0.376471 0.298039 0.301961
0.400000 0.317647 0.313725
0.427451 0.345098 0.341176
0.450980 0.368627 0.356863
0.482353 0.400000 0.396078
0.541176 0.423529 0.423529
0.074510 0.074510 0.066667
0.078431 0.078431 0.070588
0.082353 0.090196 0.078431
0.094118 0.094118 0.086275
0.098039 0.098039 0.090196
0.121569 0.105882 0.101961
0.129412 0.113725 0.109804
0.145098 0.121569 0.121569
0.164706 0.133333 0.125490
0.180392 0.149020 0.141176
0.196078 0.156863 0.152941
0.211765 0.172549 0.168627
0.231373 0.184314 0.184314
0.247059 0.200000 0.200000
0.266667 0.219608 0.219608
0.290196 0.235294 0.235294
0.309804 0.254902 0.250980
0.329412 0.266667 0.266667
0.360784 0.290196 0.290196
0.384314 0.305882 0.309804
0.403922 0.325490 0.329412
0.431373 0.345098 0.352941
0.466667 0.372549 0.372549
0.498039 0.403922 0.403922
0.529412 0.427451 0.423529
0.105882 0.105882 0.098039
0.105882 0.105882 0.098039
0.109804 0.117647 0.105882
0.117647 0.125490 0.113725
0.121569 0.121569 0.113725
0.141176 0.137255 0.129412
0.145098 0.141176 0.133333
0.160784 0.145098 0.133333
0.176471 0.160784 0.149020
0.192157 0.172549 0.160784
0.200000 0.180392 0.168627
0.223529 0.192157 0.180392
0.247059 0.207843 0.203922
0.262745 0.215686 0.215686
0.278431 0.235294 0.227451
0.305882 0.250980 0.247059
0.321569 0.266667 0.262745
0.341176 0.278431 0.278431
0.356863 0.294118 0.294118
0.392157 0.321569 0.321569
0.407843 0.337255 0.337255
0.435294 0.356863 0.360784
0.466667 0.384314 0.380392
0.501961 0.407843 0.407843
0.533333 0.431373 0.435294
0.133333 0.141176 0.129412
0.129412 0.137255 0.125490
0.137255 0.145098 0.133333
0.141176 0.149020 0.137255
0.152941 0.152941 0.145098
0.160784 0.160784 0.152941
0.172549 0.168627 0.152941
0.184314 0.180392 0.164706
0.200000 0.184314 0.172549
0.215686 0.196078 0.184314
0.227451 0.207843 0.196078
0.247059 0.215686 0.207843
0.258824 0.227451 0.219608
0.274510 0.235294 0.231373
0.298039 0.254902 0.247059
0.313725 0.270588 0.262745
0.329412 0.286275 0.278431
0.349020 0.294118 0.290196
0.364706 0.309804 0.305882
0.392157 0.333333 0.321569
0.423529 0.352941 0.345098
0.450980 0.372549 0.368627
0.482353 0.400000 0.396078
0.505882 0.423529 0.419608
0.560784 0.447059 0.454902
0.164706 0.172549 0.160784
0.156863 0.176471 0.152941
0.164706 0.172549 0.152941
0.164706 0.172549 0.160784
0.180392 0.188235 0.168627
0.184314 0.188235 0.168627
0.196078 0.200000 0.180392
0.207843 0.203922 0.188235
0.219608 0.215686 0.200000
0.235294 0.219608 0.207843
0.250980 0.231373 0.219608
0.258824 0.239216 0.227451
0.278431 0.247059 0.239216
0.294118 0.262745 0.250980
0.313725 0.274510 0.266667
0.321569 0.282353 0.274510
0.345098 0.301961 0.294118
0.360784 0.317647 0.309804
0.388235 0.333333 0.321569
0.407843 0.349020 0.337255
0.439216 0.368627 0.360784
0.462745 0.384314 0.380392
0.494118 0.411765 0.407843
0.517647 0.435294 0.423529
0.560784 0.466667 0.458824
0.184314 0.203922 0.180392
0.188235 0.207843 0.192157
0.192157 0.200000 0.180392
0.196078 0.215686 0.200000
0.203922 0.211765 0.200000
0.211765 0.219608 0.207843
0.223529 0.227451 0.207843
0.235294 0.239216 0.219608
0.247059 0.243137 0.227451
0.254902 0.250980 0.235294
0.270588 0.254902 0.243137
0.278431 0.262745 0.250980
0.294118 0.274510 0.258824
0.305882 0.286275 0.270588
0.329412 0.298039 0.286275
0.345098 0.305882 0.298039
0.360784 0.317647 0.309804
0.376471 0.333333 0.325490
0.403922 0.349020 0.337255
0.423529 0.364706 0.352941
0.447059 0.388235 0.376471
0.474510 0.403922 0.396078
0.509804 0.427451 0.415686
0.549020 0.454902 0.454902
0.572549 0.478431 0.470588
0.215686 0.243137 0.215686
0.207843 0.235294 0.207843
0.219608 0.239216 0.223529
0.227451 0.235294 0.223529
0.227451 0.247059 0.231373
0.235294 0.254902 0.231373
0.250980 0.258824 0.239216
0.258824 0.266667 0.247059
0.270588 0.274510 0.254902
0.282353 0.278431 0.262745
0.298039 0.282353 0.270588
0.305882 0.290196 0.278431
0.321569 0.301961 0.286275
0.341176 0.309804 0.298039
0.352941 0.321569 0.309804
0.364706 0.325490 0.317647
0.384314 0.345098 0.337255
0.400000 0.356863 0.341176
0.415686 0.372549 0.356863
0.439216 0.384314 0.372549
0.462745 0.403922 0.392157
0.490196 0.431373 0.411765
0.517647 0.447059 0.431373
0.552941 0.470588 0.458824
0.600000 0.498039 0.494118
0.239216 0.266667 0.239216
0.250980 0.270588 0.247059
0.250980 0.270588 0.247059
0.258824 0.266667 0.247059
0.254902 0.274510 0.250980
0.262745 0.282353 0.258824
0.274510 0.282353 0.262745
0.286275 0.290196 0.270588
0.294118 0.298039 0.278431
0.305882 0.301961 0.286275
0.325490 0.313725 0.294118
0.333333 0.321569 0.301961
0.341176 0.329412 0.309804
0.352941 0.341176 0.321569
0.368627 0.349020 0.333333
0.388235 0.356863 0.345098
0.400000 0.360784 0.352941
0.415686 0.372549 0.364706
0.435294 0.392157 0.376471
0.462745 0.407843 0.396078
0.482353 0.423529 0.403922
0.505882 0.447059 0.427451
0.537255 0.466667 0.450980
0.564706 0.490196 0.474510
0.600000 0.517647 0.505882
0.278431 0.298039 0.274510
0.278431 0.298039 0.274510
0.282353 0.301961 0.278431
0.286275 0.305882 0.282353
0.286275 0.305882 0.282353
0.290196 0.309804 0.286275
0.305882 0.313725 0.294118
0.313725 0.321569 0.301961
0.321569 0.325490 0.301961
0.325490 0.329412 0.305882
0.341176 0.337255 0.317647
0.352941 0.349020 0.329412
0.368627 0.356863 0.337255
0.380392 0.368627 0.349020
0.392157 0.372549 0.356863
0.403922 0.384314 0.368627
0.427451 0.392157 0.372549
0.443137 0.407843 0.388235
0.462745 0.419608 0.403922
0.478431 0.435294 0.419608
0.505882 0.450980 0.439216
0.529412 0.470588 0.450980
0.556863 0.498039 0.478431
0.592157 0.521569 0.505882
0.631373 0.549020 0.545098
0.305882 0.329412 0.313725
0.305882 0.333333 0.305882
0.313725 0.333333 0.309804
0.309804 0.333333 0.317647
0.317647 0.337255 0.313725
0.325490 0.345098 0.321569
0.325490 0.345098 0.321569
0.337255 0.349020 0.321569
0.345098 0.356863 0.329412
0.360784 0.364706 0.341176
0.368627 0.372549 0.349020
0.380392 0.384314 0.360784
0.392157 0.388235 0.368627
0.400000 0.396078 0.376471
0.415686 0.403922 0.384314
0.431373 0.411765 0.388235
0.443137 0.423529 0.400000
0.462745 0.435294 0.411765
0.482353 0.447059 0.427451
0.501961 0.458824 0.443137
0.533333 0.478431 0.466667
0.556863 0.498039 0.486275
0.588235 0.517647 0.509804
0.611765 0.552941 0.533333
0.639216 0.580392 0.552941
0.333333 0.372549 0.337255
0.333333 0.360784 0.333333
0.345098 0.364706 0.337255
0.345098 0.364706 0.341176
0.349020 0.368627 0.345098
0.349020 0.376471 0.349020
0.356863 0.376471 0.349020
0.364706 0.384314 0.356863
0.368627 0.388235 0.360784
0.380392 0.392157 0.364706
0.392157 0.396078 0.372549
0.403922 0.407843 0.384314
0.415686 0.419608 0.396078
0.427451 0.427451 0.396078
0.447059 0.427451 0.403922
0.454902 0.435294 0.411765
0.474510 0.447059 0.423529
0.490196 0.462745 0.439216
0.509804 0.474510 0.454902
0.525490 0.490196 0.470588
0.552941 0.509804 0.494118
0.572549 0.529412 0.513725
0.600000 0.549020 0.525490
0.635294 0.576471 0.564706
0.662745 0.603922 0.584314
0.372549 0.400000 0.372549
0.368627 0.396078 0.364706
0.372549 0.400000 0.368627
0.380392 0.400000 0.372549
0.372549 0.411765 0.376471
0.380392 0.407843 0.376471
0.388235 0.407843 0.380392
0.392157 0.411765 0.384314
0.403922 0.415686 0.388235
0.411765 0.423529 0.396078
0.423529 0.427451 0.403922
0.431373 0.435294 0.411765
0.439216 0.443137 0.411765
0.454902 0.454902 0.423529
0.462745 0.462745 0.431373
0.486275 0.474510 0.447059
0.501961 0.490196 0.462745
0.513725 0.494118 0.470588
0.525490 0.505882 0.482353
0.552941 0.525490 0.501961
0.580392 0.545098 0.525490
0.600000 0.556863 0.533333
0.623529 0.580392 0.564706
0.658824 0.603922 0.592157
0.686275 0.627451 0.607843
0.396078 0.435294 0.400000
0.403922 0.431373 0.400000
0.400000 0.439216 0.403922
0.403922 0.443137 0.407843
0.403922 0.443137 0.407843
0.403922 0.443137 0.407843
0.415686 0.443137 0.411765
0.419608 0.447059 0.415686
0.431373 0.450980 0.423529
0.439216 0.458824 0.431373
0.454902 0.466667 0.431373
0.462745 0.474510 0.439216
0.470588 0.482353 0.447059
0.482353 0.486275 0.454902
0.494118 0.494118 0.462745
0.505882 0.505882 0.474510
0.529412 0.517647 0.490196
0.545098 0.525490 0.501961
0.556863 0.537255 0.513725
0.576471 0.549020 0.525490
0.603922 0.568627 0.541176
0.619608 0.584314 0.556863
0.647059 0.603922 0.580392
0.670588 0.627451 0.611765
0.694118 0.650980 0.635294
0.431373 0.470588 0.435294
0.431373 0.470588 0.435294
0.439216 0.478431 0.443137
0.439216 0.478431 0.443137
0.439216 0.478431 0.443137
0.443137 0.482353 0.447059
0.450980 0.478431 0.447059
0.458824 0.486275 0.454902
0.466667 0.498039 0.454902
0.466667 0.498039 0.454902
0.482353 0.505882 0.466667
0.490196 0.513725 0.474510
0.505882 0.517647 0.482353
0.513725 0.525490 0.490196
0.525490 0.529412 0.498039
0.537255 0.541176 0.509804
0.552941 0.552941 0.521569
0.576471 0.564706 0.537255
0.588235 0.576471 0.549020
0.603922 0.584314 0.560784
0.623529 0.603922 0.580392
0.650980 0.623529 0.600000
0.674510 0.639216 0.619608
0.698039 0.662745 0.643137
0.713725 0.698039 0.654902
0.478431 0.517647 0.482353
0.482353 0.513725 0.470588
0.474510 0.513725 0.470588
0.478431 0.517647 0.482353
0.482353 0.513725 0.470588
0.494118 0.525490 0.482353
0.494118 0.525490 0.482353
0.501961 0.529412 0.498039
0.501961 0.529412 0.498039
0.509804 0.529412 0.501961
0.517647 0.541176 0.501961
0.525490 0.549020 0.509804
0.541176 0.552941 0.517647
0.552941 0.564706 0.529412
0.560784 0.572549 0.537255
0.576471 0.576471 0.545098
0.588235 0.588235 0.556863
0.600000 0.600000 0.568627
0.619608 0.607843 0.580392
0.635294 0.623529 0.596078
0.654902 0.635294 0.611765
0.674510 0.654902 0.631373
0.701961 0.674510 0.650980
0.725490 0.690196 0.670588
0.745098 0.717647 0.686275
0.513725 0.552941 0.517647
0.517647 0.564706 0.525490
0.513725 0.568627 0.517647
0.529412 0.556863 0.525490
0.521569 0.560784 0.517647
0.533333 0.556863 0.517647
0.525490 0.564706 0.529412
0.537255 0.564706 0.533333
0.541176 0.572549 0.529412
0.545098 0.576471 0.533333
0.556863 0.580392 0.541176
0.568627 0.592157 0.552941
0.580392 0.592157 0.556863
0.584314 0.596078 0.560784
0.596078 0.607843 0.580392
0.611765 0.615686 0.584314
0.619608 0.623529 0.592157
0.631373 0.631373 0.600000
0.643137 0.643137 0.611765
0.666667 0.654902 0.627451
0.682353 0.670588 0.643137
0.701961 0.682353 0.658824
0.729412 0.701961 0.678431
0.745098 0.713725 0.701961
0.760784 0.749020 0.713725
0.560784 0.600000 0.564706
0.564706 0.603922 0.568627
0.556863 0.603922 0.556863
0.560784 0.607843 0.560784
0.568627 0.607843 0.564706
0.564706 0.603922 0.568627
0.568627 0.607843 0.572549
0.580392 0.607843 0.576471
0.588235 0.619608 0.576471
0.596078 0.627451 0.584314
0.600000 0.631373 0.588235
0.603922 0.635294 0.592157
0.607843 0.639216 0.596078
0.623529 0.647059 0.607843
0.639216 0.650980 0.615686
0.643137 0.654902 0.619608
0.654902 0.666667 0.631373
0.666667 0.670588 0.639216
0.678431 0.682353 0.650980
0.690196 0.690196 0.658824
0.701961 0.701961 0.670588
0.717647 0.713725 0.694118
0.749020 0.729412 0.713725
0.776471 0.745098 0.733333
0.784314 0.772549 0.737255
0.611765 0.650980 0.615686
0.603922 0.650980 0.603922
0.600000 0.647059 0.600000
0.607843 0.647059 0.611765
0.611765 0.650980 0.615686
0.611765 0.650980 0.607843
0.615686 0.654902 0.611765
0.623529 0.662745 0.627451
0.627451 0.666667 0.631373
0.627451 0.666667 0.631373
0.635294 0.674510 0.631373
0.647059 0.678431 0.635294
0.654902 0.674510 0.647059
0.670588 0.682353 0.647059
0.678431 0.690196 0.654902
0.686275 0.698039 0.662745
0.690196 0.701961 0.666667
0.701961 0.705882 0.674510
0.709804 0.713725 0.682353
0.721569 0.725490 0.694118
0.729412 0.729412 0.698039
0.752941 0.741176 0.713725
0.768627 0.756863 0.729412
0.788235 0.776471 0.749020
0.815686 0.796078 0.772549
0.650980 0.698039 0.658824
0.650980 0.698039 0.658824
0.647059 0.694118 0.654902
0.654902 0.694118 0.658824
0.654902 0.694118 0.658824
0.658824 0.698039 0.662745
0.666667 0.698039 0.654902
0.674510 0.705882 0.662745
0.666667 0.705882 0.670588
0.670588 0.709804 0.674510
0.686275 0.713725 0.682353
0.690196 0.717647 0.686275
0.694118 0.721569 0.690196
0.705882 0.725490 0.698039
0.717647 0.729412 0.701961
0.725490 0.737255 0.709804
0.733333 0.745098 0.717647
0.741176 0.752941 0.725490
0.752941 0.756863 0.733333
0.756863 0.760784 0.737255
0.772549 0.772549 0.741176
0.780392 0.780392 0.749020
0.800000 0.788235 0.760784
0.819608 0.807843 0.780392
0.839216 0.827451 0.792157
0.690196 0.733333 0.701961
0.701961 0.741176 0.705882
0.698039 0.745098 0.705882
0.701961 0.741176 0.709804
0.717647 0.745098 0.713725
0.709804 0.737255 0.705882
0.713725 0.741176 0.709804
0.705882 0.745098 0.709804
0.709804 0.749020 0.713725
0.725490 0.752941 0.721569
0.729412 0.756863 0.725490
0.733333 0.760784 0.729412
0.741176 0.760784 0.733333
0.749020 0.768627 0.741176
0.760784 0.772549 0.745098
0.768627 0.780392 0.752941
0.776471 0.788235 0.760784
0.780392 0.792157 0.764706
0.788235 0.800000 0.772549
0.800000 0.803922 0.772549
0.807843 0.811765 0.780392
0.815686 0.819608 0.788235
0.831373 0.831373 0.800000
0.843137 0.831373 0.811765
0.866667 0.854902 0.827451
0.745098 0.784314 0.752941
0.756863 0.784314 0.756863
0.756863 0.784314 0.752941
0.760784 0.780392 0.752941
0.749020 0.796078 0.756863
0.749020 0.796078 0.756863
0.752941 0.792157 0.760784
0.756863 0.796078 0.760784
0.760784 0.800000 0.764706
0.768627 0.796078 0.764706
0.772549 0.800000 0.768627
0.784314 0.803922 0.776471
0.784314 0.803922 0.776471
0.792157 0.811765 0.784314
0.788235 0.815686 0.784314
0.803922 0.823529 0.796078
0.811765 0.831373 0.803922
0.823529 0.835294 0.807843
0.831373 0.843137 0.815686
0.843137 0.847059 0.823529
0.850980 0.854902 0.831373
0.858824 0.862745 0.831373
0.862745 0.866667 0.835294
0.878431 0.874510 0.854902
0.886275 0.886275 0.854902
0.796078 0.835294 0.803922
0.803922 0.831373 0.803922
0.807843 0.835294 0.803922
0.807843 0.835294 0.803922
0.807843 0.835294 0.803922
0.800000 0.839216 0.807843
0.800000 0.839216 0.803922
0.811765 0.839216 0.807843
0.815686 0.843137 0.811765
0.819608 0.847059 0.815686
0.819608 0.847059 0.815686
0.827451 0.847059 0.819608
0.835294 0.854902 0.827451
0.835294 0.854902 0.827451
0.843137 0.862745 0.835294
0.847059 0.866667 0.839216
0.858824 0.870588 0.843137
0.862745 0.874510 0.847059
0.870588 0.882353 0.854902
0.882353 0.886275 0.862745
0.890196 0.886275 0.866667
0.894118 0.898039 0.874510
0.901961 0.905882 0.882353
0.913725 0.909804 0.894118
0.929412 0.929412 0.898039
0.858824 0.878431 0.854902
0.854902 0.882353 0.850980
0.854902 0.882353 0.850980
0.854902 0.882353 0.854902
0.854902 0.882353 0.854902
0.854902 0.882353 0.850980
0.858824 0.886275 0.854902
0.862745 0.890196 0.858824
0.866667 0.886275 0.862745
0.870588 0.890196 0.866667
0.874510 0.894118 0.866667
0.878431 0.898039 0.870588
0.878431 0.898039 0.870588
0.882353 0.901961 0.874510
0.886275 0.905882 0.878431
0.901961 0.913725 0.886275
0.909804 0.921569 0.894118
0.917647 0.929412 0.901961
0.917647 0.929412 0.901961
0.929412 0.933333 0.909804
0.929412 0.937255 0.917647
0.937255 0.945098 0.925490
0.945098 0.952941 0.933333
0.956863 0.960784 0.941176
0.968627 0.972549 0.952941
0.003922 0.003922 0.003922
0.011765 0.011765 0.011765
0.023529 0.015686 0.019608
0.035294 0.027451 0.031373
0.047059 0.039216 0.043137
0.070588 0.054902 0.058824
0.090196 0.066667 0.074510
0.105882 0.082353 0.090196
0.133333 0.101961 0.094118
0.145098 0.113725 0.105882
0.172549 0.133333 0.129412
0.192157 0.145098 0.145098
0.211765 0.164706 0.164706
0.239216 0.184314 0.184314
0.254902 0.200000 0.196078
0.274510 0.211765 0.211765
0.298039 0.235294 0.235294
0.313725 0.250980 0.250980
0.345098 0.274510 0.274510
0.372549 0.294118 0.298039
0.392157 0.313725 0.317647
0.419608 0.333333 0.341176
0.454902 0.360784 0.360784
0.486275 0.392157 0.392157
0.517647 0.415686 0.427451
0.023529 0.023529 0.023529
0.027451 0.027451 0.019608
0.035294 0.027451 0.031373
0.047059 0.047059 0.047059
0.058824 0.054902 0.047059
0.082353 0.066667 0.070588
0.098039 0.082353 0.078431
0.125490 0.094118 0.086275
0.137255 0.105882 0.098039
0.160784 0.121569 0.117647
0.176471 0.137255 0.133333
0.196078 0.149020 0.149020
0.215686 0.168627 0.168627
0.247059 0.192157 0.192157
0.262745 0.207843 0.207843
0.278431 0.223529 0.219608
0.301961 0.239216 0.239216
0.321569 0.258824 0.258824
0.349020 0.278431 0.278431
0.372549 0.301961 0.301961
0.396078 0.317647 0.321569
0.427451 0.341176 0.349020
0.450980 0.364706 0.372549
0.486275 0.392157 0.392157
0.517647 0.423529 0.423529
0.047059 0.054902 0.043137
0.047059 0.054902 0.043137
0.062745 0.066667 0.047059
0.078431 0.074510 0.066667
0.078431 0.074510 0.066667
0.094118 0.090196 0.082353
0.121569 0.098039 0.098039
0.129412 0.109804 0.098039
0.152941 0.121569 0.113725
0.168627 0.137255 0.129412
0.188235 0.149020 0.145098
0.203922 0.164706 0.160784
0.223529 0.176471 0.176471
0.243137 0.196078 0.196078
0.266667 0.211765 0.207843
0.286275 0.231373 0.227451
0.305882 0.243137 0.243137
0.325490 0.262745 0.262745
0.356863 0.286275 0.286275
0.376471 0.305882 0.305882
0.400000 0.321569 0.325490
0.423529 0.345098 0.349020
0.462745 0.368627 0.368627
0.490196 0.392157 0.403922
0.513725 0.431373 0.427451
0.070588 0.078431 0.066667
0.074510 0.082353 0.070588
0.090196 0.090196 0.082353
0.094118 0.086275 0.090196
0.101961 0.101961 0.101961
0.117647 0.113725 0.105882
0.129412 0.113725 0.109804
0.145098 0.125490 0.113725
0.156863 0.137255 0.125490
0.180392 0.149020 0.141176
0.200000 0.160784 0.156863
0.215686 0.176471 0.172549
0.235294 0.188235 0.188235
0.250980 0.203922 0.203922
0.274510 0.219608 0.219608
0.294118 0.239216 0.235294
0.313725 0.258824 0.254902
0.333333 0.270588 0.270588
0.352941 0.290196 0.290196
0.384314 0.313725 0.313725
0.403922 0.325490 0.329412
0.427451 0.349020 0.345098
0.466667 0.372549 0.372549
0.494118 0.400000 0.400000
0.529412 0.427451 0.431373
0.101961 0.109804 0.098039
0.098039 0.117647 0.101961
0.098039 0.117647 0.101961
0.113725 0.121569 0.117647
0.129412 0.129412 0.121569
0.141176 0.137255 0.129412
0.149020 0.145098 0.137255
0.164706 0.149020 0.145098
0.176471 0.160784 0.156863
0.192157 0.168627 0.168627
0.215686 0.184314 0.176471
0.227451 0.196078 0.188235
0.250980 0.211765 0.207843
0.262745 0.223529 0.219608
0.282353 0.239216 0.231373
0.301961 0.258824 0.250980
0.321569 0.266667 0.262745
0.345098 0.282353 0.282353
0.368627 0.298039 0.298039
0.388235 0.317647 0.317647
0.411765 0.333333 0.329412
0.435294 0.352941 0.349020
0.462745 0.380392 0.376471
0.498039 0.403922 0.403922
0.529412 0.427451 0.431373
0.129412 0.137255 0.125490
0.133333 0.141176 0.129412
0.141176 0.141176 0.133333
0.149020 0.149020 0.141176
0.152941 0.156863 0.137255
0.164706 0.160784 0.145098
0.176471 0.172549 0.156863
0.192157 0.176471 0.164706
0.203922 0.188235 0.176471
0.211765 0.196078 0.184314
0.227451 0.207843 0.196078
0.235294 0.215686 0.203922
0.258824 0.227451 0.219608
0.274510 0.243137 0.235294
0.298039 0.258824 0.254902
0.309804 0.270588 0.266667
0.337255 0.282353 0.278431
0.349020 0.294118 0.290196
0.376471 0.313725 0.313725
0.400000 0.329412 0.321569
0.423529 0.352941 0.345098
0.450980 0.372549 0.368627
0.478431 0.396078 0.392157
0.517647 0.423529 0.423529
0.564706 0.450980 0.458824
0.156863 0.164706 0.152941
0.160784 0.180392 0.156863
0.176471 0.176471 0.168627
0.176471 0.176471 0.168627
0.180392 0.184314 0.164706
0.192157 0.188235 0.180392
0.203922 0.200000 0.184314
0.211765 0.207843 0.192157
0.215686 0.211765 0.196078
0.235294 0.219608 0.207843
0.247059 0.231373 0.219608
0.262745 0.243137 0.231373
0.274510 0.254902 0.243137
0.294118 0.262745 0.254902
0.309804 0.278431 0.270588
0.333333 0.290196 0.282353
0.349020 0.305882 0.298039
0.368627 0.313725 0.309804
0.384314 0.329412 0.325490
0.407843 0.349020 0.337255
0.435294 0.364706 0.356863
0.466667 0.388235 0.384314
0.494118 0.411765 0.407843
0.529412 0.435294 0.427451
0.568627 0.466667 0.462745
0.184314 0.203922 0.180392
0.188235 0.207843 0.192157
0.196078 0.203922 0.184314
0.203922 0.211765 0.200000
0.211765 0.211765 0.203922
0.215686 0.215686 0.207843
0.223529 0.227451 0.207843
0.235294 0.239216 0.219608
0.243137 0.247059 0.227451
0.258824 0.254902 0.239216
0.270588 0.254902 0.243137
0.282353 0.266667 0.254902
0.298039 0.278431 0.266667
0.309804 0.290196 0.274510
0.329412 0.290196 0.282353
0.345098 0.305882 0.298039
0.364706 0.321569 0.313725
0.388235 0.333333 0.329412
0.403922 0.349020 0.337255
0.423529 0.364706 0.352941
0.454902 0.384314 0.376471
0.482353 0.411765 0.403922
0.513725 0.431373 0.419608
0.545098 0.450980 0.450980
0.576471 0.474510 0.470588
0.223529 0.231373 0.219608
0.223529 0.243137 0.227451
0.219608 0.239216 0.223529
0.231373 0.239216 0.227451
0.227451 0.247059 0.231373
0.239216 0.247059 0.227451
0.243137 0.250980 0.231373
0.258824 0.262745 0.243137
0.274510 0.270588 0.254902
0.282353 0.278431 0.262745
0.298039 0.282353 0.270588
0.313725 0.294118 0.282353
0.321569 0.301961 0.290196
0.333333 0.313725 0.298039
0.349020 0.317647 0.305882
0.360784 0.329412 0.317647
0.380392 0.341176 0.333333
0.396078 0.356863 0.349020
0.415686 0.372549 0.364706
0.439216 0.384314 0.372549
0.458824 0.400000 0.388235
0.490196 0.419608 0.411765
0.517647 0.443137 0.427451
0.552941 0.478431 0.462745
0.600000 0.505882 0.498039
0.243137 0.266667 0.250980
0.258824 0.266667 0.254902
0.250980 0.270588 0.254902
0.250980 0.270588 0.254902
0.258824 0.278431 0.254902
0.262745 0.282353 0.258824
0.278431 0.286275 0.266667
0.290196 0.294118 0.274510
0.294118 0.298039 0.278431
0.305882 0.301961 0.286275
0.317647 0.313725 0.298039
0.337255 0.325490 0.305882
0.333333 0.329412 0.309804
0.352941 0.341176 0.321569
0.364706 0.345098 0.329412
0.380392 0.360784 0.345098
0.400000 0.368627 0.356863
0.415686 0.376471 0.368627
0.431373 0.388235 0.380392
0.447059 0.403922 0.388235
0.482353 0.423529 0.403922
0.501961 0.443137 0.423529
0.533333 0.462745 0.447059
0.564706 0.490196 0.474510
0.596078 0.513725 0.501961
0.274510 0.298039 0.282353
0.274510 0.298039 0.282353
0.278431 0.301961 0.286275
0.290196 0.309804 0.286275
0.286275 0.305882 0.282353
0.298039 0.317647 0.294118
0.301961 0.321569 0.298039
0.309804 0.317647 0.298039
0.317647 0.325490 0.305882
0.329412 0.333333 0.313725
0.337255 0.341176 0.321569
