resources/LUTs/Black and White/5.cube
TITLE "B&W Preset #5"
#LUT size
LUT_3D_SIZE 5
#LUT data points
0.000000 0.000000 0.000000
0.086275 0.062745 0.062745
0.203922 0.156863 0.156863
0.341176 0.270588 0.270588
0.513725 0.419608 0.419608
0.164706 0.172549 0.160784
0.196078 0.200000 0.180392
0.278431 0.247059 0.239216
0.388235 0.333333 0.321569
0.560784 0.466667 0.458824
0.333333 0.372549 0.337255
0.356863 0.376471 0.349020
0.415686 0.419608 0.396078
0.509804 0.474510 0.454902
0.662745 0.603922 0.584314
0.560784 0.600000 0.564706
0.568627 0.607843 0.572549
0.607843 0.639216 0.596078
0.678431 0.682353 0.650980
0.784314 0.772549 0.737255
0.858824 0.878431 0.854902
0.858824 0.886275 0.854902
0.878431 0.898039 0.870588
0.917647 0.929412 0.901961
0.968627 0.972549 0.952941
0.023529 0.019608 0.039216
0.101961 0.082353 0.105882
0.227451 0.188235 0.192157
0.352941 0.290196 0.294118
0.529412 0.431373 0.443137
0.160784 0.176471 0.180392
0.200000 0.207843 0.203922
0.286275 0.262745 0.262745
0.396078 0.341176 0.341176
0.568627 0.474510 0.474510
0.345098 0.372549 0.345098
0.364706 0.384314 0.360784
0.419608 0.423529 0.403922
0.513725 0.482353 0.470588
0.658824 0.603922 0.592157
0.560784 0.600000 0.564706
0.572549 0.611765 0.576471
0.611765 0.635294 0.596078
0.674510 0.674510 0.643137
0.788235 0.772549 0.737255
0.847059 0.870588 0.854902
0.858824 0.886275 0.858824
0.874510 0.901961 0.874510
0.913725 0.925490 0.898039
0.972549 0.968627 0.949020
0.070588 0.070588 0.117647
0.117647 0.109804 0.160784
0.235294 0.196078 0.231373
0.360784 0.301961 0.329412
0.537255 0.435294 0.470588
0.192157 0.192157 0.223529
0.215686 0.211765 0.235294
0.294118 0.274510 0.298039
0.403922 0.356863 0.372549
0.584314 0.478431 0.498039
0.356863 0.380392 0.380392
0.364706 0.388235 0.388235
0.423529 0.423529 0.423529
0.513725 0.490196 0.490196
0.666667 0.603922 0.603922
0.572549 0.607843 0.588235
0.580392 0.619608 0.588235
0.623529 0.643137 0.627451
0.678431 0.682353 0.662745
0.796078 0.776471 0.760784
0.854902 0.882353 0.854902
0.850980 0.890196 0.858824
0.874510 0.901961 0.874510
0.917647 0.929412 0.901961
0.976471 0.972549 0.956863
0.129412 0.121569 0.215686
0.168627 0.152941 0.243137
0.258824 0.231373 0.301961
0.380392 0.313725 0.376471
0.556863 0.454902 0.505882
0.215686 0.223529 0.282353
0.250980 0.247059 0.309804
0.313725 0.290196 0.345098
0.419608 0.364706 0.415686
0.584314 0.490196 0.541176
0.368627 0.384314 0.419608
0.384314 0.400000 0.435294
0.431373 0.431373 0.470588
0.517647 0.490196 0.517647
0.658824 0.600000 0.627451
0.572549 0.603922 0.611765
0.576471 0.623529 0.615686
0.615686 0.639216 0.639216
0.674510 0.682353 0.678431
0.800000 0.768627 0.760784
0.843137 0.878431 0.866667
0.847059 0.890196 0.866667
0.862745 0.898039 0.878431
0.905882 0.925490 0.901961
0.980392 0.976471 0.968627
0.203922 0.207843 0.396078
0.239216 0.227451 0.411765
0.333333 0.290196 0.454902
0.474510 0.388235 0.537255
0.650980 0.529412 0.650980
0.250980 0.262745 0.431373
0.282353 0.290196 0.450980
0.372549 0.341176 0.494118
0.509804 0.431373 0.568627
0.678431 0.568627 0.666667
0.352941 0.396078 0.521569
0.372549 0.407843 0.529412
0.450980 0.454902 0.576471
0.576471 0.537255 0.635294
0.721569 0.654902 0.729412
0.639216 0.686275 0.741176
0.647059 0.694118 0.741176
0.650980 0.682353 0.725490
0.701961 0.698039 0.752941
0.827451 0.788235 0.823529
0.878431 0.921569 0.929412
0.886275 0.925490 0.929412
0.894118 0.933333 0.929412
0.925490 0.949020 0.949020
0.988235 0.988235 0.988235
