resources/LUTs/Black and White/6.cube
TITLE "B&W Preset #6"
#LUT size
LUT_3D_SIZE 5
#LUT data points
0.000000 0.000000 0.000000
0.027451 0.027451 0.027451
0.117647 0.117647 0.117647
0.254902 0.254902 0.254902
0.443137 0.443137 0.443137
0.113725 0.113725 0.113725
0.137255 0.137255 0.137255
0.207843 0.207843 0.207843
0.313725 0.313725 0.313725
0.501961 0.501961 0.501961
0.337255 0.337255 0.337255
0.341176 0.341176 0.341176
0.376471 0.376471 0.376471
0.466667 0.466667 0.466667
0.639216 0.639216 0.639216
0.611765 0.611765 0.611765
0.615686 0.615686 0.615686
0.639216 0.639216 0.639216
0.678431 0.678431 0.678431
0.811765 0.811765 0.811765
0.933333 0.933333 0.933333
0.937255 0.937255 0.937255
0.949020 0.949020 0.949020
0.968627 0.968627 0.968627
0.984314 0.984314 0.984314
0.019608 0.019608 0.019608
0.031373 0.031373 0.031373
0.141176 0.141176 0.141176
0.270588 0.270588 0.270588
0.447059 0.447059 0.447059
0.105882 0.105882 0.105882
0.149020 0.149020 0.149020
0.219608 0.219608 0.219608
0.321569 0.321569 0.321569
0.498039 0.498039 0.498039
0.337255 0.337255 0.337255
0.349020 0.349020 0.349020
0.376471 0.376471 0.376471
0.466667 0.466667 0.466667
0.635294 0.635294 0.635294
0.607843 0.607843 0.607843
0.623529 0.623529 0.623529
0.635294 0.635294 0.635294
0.670588 0.670588 0.670588
0.803922 0.803922 0.803922
0.925490 0.925490 0.925490
0.937255 0.937255 0.937255
0.945098 0.945098 0.945098
0.964706 0.964706 0.964706
0.988235 0.988235 0.988235
0.074510 0.074510 0.074510
0.094118 0.094118 0.094118
0.156863 0.156863 0.156863
0.278431 0.278431 0.278431
0.454902 0.454902 0.454902
0.172549 0.172549 0.172549
0.196078 0.196078 0.196078
0.235294 0.235294 0.235294
0.337255 0.337255 0.337255
0.505882 0.505882 0.505882
0.321569 0.321569 0.321569
0.345098 0.345098 0.345098
0.400000 0.400000 0.400000
0.478431 0.478431 0.478431
0.639216 0.639216 0.639216
0.619608 0.619608 0.619608
0.631373 0.631373 0.631373
0.658824 0.658824 0.658824
0.686275 0.686275 0.686275
0.823529 0.823529 0.823529
0.929412 0.929412 0.929412
0.937255 0.937255 0.937255
0.949020 0.949020 0.949020
0.968627 0.968627 0.968627
0.988235 0.988235 0.988235
0.188235 0.188235 0.188235
0.203922 0.203922 0.203922
0.243137 0.243137 0.243137
0.301961 0.301961 0.301961
0.462745 0.462745 0.462745
0.262745 0.262745 0.262745
0.274510 0.274510 0.274510
0.301961 0.301961 0.301961
0.349020 0.349020 0.349020
0.505882 0.505882 0.505882
0.360784 0.360784 0.360784
0.392157 0.392157 0.392157
0.447059 0.447059 0.447059
0.482353 0.482353 0.482353
0.627451 0.627451 0.627451
0.568627 0.568627 0.568627
0.588235 0.588235 0.588235
0.623529 0.623529 0.623529
0.698039 0.698039 0.698039
0.807843 0.807843 0.807843
0.925490 0.925490 0.925490
0.933333 0.933333 0.933333
0.949020 0.949020 0.949020
0.976471 0.976471 0.976471
0.992157 0.992157 0.992157
0.423529 0.423529 0.423529
0.435294 0.435294 0.435294
0.458824 0.458824 0.458824
0.498039 0.498039 0.498039
0.588235 0.588235 0.588235
0.462745 0.462745 0.462745
0.478431 0.478431 0.478431
0.501961 0.501961 0.501961
0.537255 0.537255 0.537255
0.619608 0.619608 0.619608
0.576471 0.576471 0.576471
0.592157 0.592157 0.592157
0.603922 0.603922 0.603922
0.635294 0.635294 0.635294
0.701961 0.701961 0.701961
0.713725 0.713725 0.713725
0.717647 0.717647 0.717647
0.725490 0.725490 0.725490
0.796078 0.796078 0.796078
0.843137 0.843137 0.843137
0.909804 0.909804 0.909804
0.909804 0.909804 0.909804
0.921569 0.921569 0.921569
0.949020 0.949020 0.949020
1.000000 1.000000 1.000000
