resources/LUTs/Black and White/6.cube
TITLE "B&W Preset #6"
#LUT size
LUT_3D_SIZE 9
#LUT data points
0.000000 0.000000 0.000000
0.000000 0.000000 0.000000
0.027451 0.027451 0.027451
0.062745 0.062745 0.062745
0.117647 0.117647 0.117647
0.184314 0.184314 0.184314
0.254902 0.254902 0.254902
0.329412 0.329412 0.329412
0.443137 0.443137 0.443137
0.023529 0.023529 0.023529
0.039216 0.039216 0.039216
0.058824 0.058824 0.058824
0.098039 0.098039 0.098039
0.145098 0.145098 0.145098
0.203922 0.203922 0.203922
0.270588 0.270588 0.270588
0.337255 0.337255 0.337255
0.450980 0.450980 0.450980
0.113725 0.113725 0.113725
0.117647 0.117647 0.117647
0.137255 0.137255 0.137255
0.168627 0.168627 0.168627
0.207843 0.207843 0.207843
0.254902 0.254902 0.254902
0.313725 0.313725 0.313725
0.388235 0.388235 0.388235
0.501961 0.501961 0.501961
0.219608 0.219608 0.219608
0.223529 0.223529 0.223529
0.231373 0.231373 0.231373
0.254902 0.254902 0.254902
0.294118 0.294118 0.294118
0.325490 0.325490 0.325490
0.372549 0.372549 0.372549
0.439216 0.439216 0.439216
0.541176 0.541176 0.541176
0.337255 0.337255 0.337255
0.333333 0.333333 0.333333
0.341176 0.341176 0.341176
0.356863 0.356863 0.356863
0.376471 0.376471 0.376471
0.415686 0.415686 0.415686
0.466667 0.466667 0.466667
0.537255 0.537255 0.537255
0.639216 0.639216 0.639216
0.470588 0.470588 0.470588
0.466667 0.466667 0.466667
0.474510 0.474510 0.474510
0.486275 0.486275 0.486275
0.501961 0.501961 0.501961
0.521569 0.521569 0.521569
0.580392 0.580392 0.580392
0.643137 0.643137 0.643137
0.733333 0.733333 0.733333
0.611765 0.611765 0.611765
0.615686 0.615686 0.615686
0.615686 0.615686 0.615686
0.627451 0.627451 0.627451
0.639216 0.639216 0.639216
0.658824 0.658824 0.658824
0.678431 0.678431 0.678431
0.733333 0.733333 0.733333
0.811765 0.811765 0.811765
0.772549 0.772549 0.772549
0.776471 0.776471 0.776471
0.780392 0.780392 0.780392
0.788235 0.788235 0.788235
0.796078 0.796078 0.796078
0.811765 0.811765 0.811765
0.831373 0.831373 0.831373
0.843137 0.843137 0.843137
0.898039 0.898039 0.898039
0.933333 0.933333 0.933333
0.933333 0.933333 0.933333
0.937255 0.937255 0.937255
0.941176 0.941176 0.941176
0.949020 0.949020 0.949020
0.956863 0.956863 0.956863
0.968627 0.968627 0.968627
0.984314 0.984314 0.984314
0.984314 0.984314 0.984314
0.003922 0.003922 0.003922
0.003922 0.003922 0.003922
0.031373 0.031373 0.031373
0.078431 0.078431 0.078431
0.133333 0.133333 0.133333
0.196078 0.196078 0.196078
0.258824 0.258824 0.258824
0.337255 0.337255 0.337255
0.435294 0.435294 0.435294
0.023529 0.023529 0.023529
0.043137 0.043137 0.043137
0.066667 0.066667 0.066667
0.105882 0.105882 0.105882
0.156863 0.156863 0.156863
0.211765 0.211765 0.211765
0.262745 0.262745 0.262745
0.329412 0.329412 0.329412
0.435294 0.435294 0.435294
0.117647 0.117647 0.117647
0.121569 0.121569 0.121569
0.137255 0.137255 0.137255
0.172549 0.172549 0.172549
0.211765 0.211765 0.211765
0.258824 0.258824 0.258824
0.313725 0.313725 0.313725
0.384314 0.384314 0.384314
0.494118 0.494118 0.494118
0.215686 0.215686 0.215686
0.223529 0.223529 0.223529
0.231373 0.231373 0.231373
0.247059 0.247059 0.247059
0.286275 0.286275 0.286275
0.317647 0.317647 0.317647
0.360784 0.360784 0.360784
0.423529 0.423529 0.423529
0.513725 0.513725 0.513725
0.329412 0.329412 0.329412
0.333333 0.333333 0.333333
0.341176 0.341176 0.341176
0.356863 0.356863 0.356863
0.376471 0.376471 0.376471
0.415686 0.415686 0.415686
0.466667 0.466667 0.466667
0.537255 0.537255 0.537255
0.635294 0.635294 0.635294
0.454902 0.454902 0.454902
0.462745 0.462745 0.462745
0.466667 0.466667 0.466667
0.478431 0.478431 0.478431
0.498039 0.498039 0.498039
0.517647 0.517647 0.517647
0.572549 0.572549 0.572549
0.643137 0.643137 0.643137
0.725490 0.725490 0.725490
0.600000 0.600000 0.600000
0.611765 0.611765 0.611765
0.611765 0.611765 0.611765
0.619608 0.619608 0.619608
0.635294 0.635294 0.635294
0.650980 0.650980 0.650980
0.670588 0.670588 0.670588
0.717647 0.717647 0.717647
0.800000 0.800000 0.800000
0.772549 0.772549 0.772549
0.780392 0.780392 0.780392
0.780392 0.780392 0.780392
0.784314 0.784314 0.784314
0.796078 0.796078 0.796078
0.807843 0.807843 0.807843
0.823529 0.823529 0.823529
0.843137 0.843137 0.843137
0.890196 0.890196 0.890196
0.921569 0.921569 0.921569
0.929412 0.929412 0.929412
0.933333 0.933333 0.933333
0.941176 0.941176 0.941176
0.941176 0.941176 0.941176
0.956863 0.956863 0.956863
0.964706 0.964706 0.964706
0.984314 0.984314 0.984314
0.988235 0.988235 0.988235
0.019608 0.019608 0.019608
0.023529 0.023529 0.023529
0.031373 0.031373 0.031373
0.082353 0.082353 0.082353
0.141176 0.141176 0.141176
0.203922 0.203922 0.203922
0.270588 0.270588 0.270588
0.349020 0.349020 0.349020
0.447059 0.447059 0.447059
0.047059 0.047059 0.047059
0.058824 0.058824 0.058824
0.074510 0.074510 0.074510
0.113725 0.113725 0.113725
0.168627 0.168627 0.168627
0.223529 0.223529 0.223529
0.278431 0.278431 0.278431
0.349020 0.349020 0.349020
0.450980 0.450980 0.450980
0.105882 0.105882 0.105882
0.121569 0.121569 0.121569
0.149020 0.149020 0.149020
0.180392 0.180392 0.180392
0.219608 0.219608 0.219608
0.266667 0.266667 0.266667
0.321569 0.321569 0.321569
0.396078 0.396078 0.396078
0.498039 0.498039 0.498039
0.223529 0.223529 0.223529
0.231373 0.231373 0.231373
0.243137 0.243137 0.243137
0.262745 0.262745 0.262745
0.290196 0.290196 0.290196
0.321569 0.321569 0.321569
0.372549 0.372549 0.372549
0.431373 0.431373 0.431373
0.529412 0.529412 0.529412
0.337255 0.337255 0.337255
0.337255 0.337255 0.337255
0.349020 0.349020 0.349020
0.356863 0.356863 0.356863
0.376471 0.376471 0.376471
0.419608 0.419608 0.419608
0.466667 0.466667 0.466667
0.537255 0.537255 0.537255
0.635294 0.635294 0.635294
0.466667 0.466667 0.466667
0.466667 0.466667 0.466667
0.470588 0.470588 0.470588
0.482353 0.482353 0.482353
0.498039 0.498039 0.498039
0.521569 0.521569 0.521569
0.580392 0.580392 0.580392
0.643137 0.643137 0.643137
0.729412 0.729412 0.729412
0.607843 0.607843 0.607843
0.607843 0.607843 0.607843
0.623529 0.623529 0.623529
0.627451 0.627451 0.627451
0.635294 0.635294 0.635294
0.654902 0.654902 0.654902
0.670588 0.670588 0.670588
0.725490 0.725490 0.725490
0.803922 0.803922 0.803922
0.772549 0.772549 0.772549
0.776471 0.776471 0.776471
0.780392 0.780392 0.780392
0.788235 0.788235 0.788235
0.796078 0.796078 0.796078
0.803922 0.803922 0.803922
0.823529 0.823529 0.823529
0.847059 0.847059 0.847059
0.890196 0.890196 0.890196
0.925490 0.925490 0.925490
0.929412 0.929412 0.929412
0.937255 0.937255 0.937255
0.937255 0.937255 0.937255
0.945098 0.945098 0.945098
0.952941 0.952941 0.952941
0.964706 0.964706 0.964706
0.984314 0.984314 0.984314
0.988235 0.988235 0.988235
0.043137 0.043137 0.043137
0.043137 0.043137 0.043137
0.062745 0.062745 0.062745
0.090196 0.090196 0.090196
0.145098 0.145098 0.145098
0.211765 0.211765 0.211765
0.274510 0.274510 0.274510
0.356863 0.356863 0.356863
0.450980 0.450980 0.450980
0.078431 0.078431 0.078431
0.082353 0.082353 0.082353
0.094118 0.094118 0.094118
0.121569 0.121569 0.121569
0.168627 0.168627 0.168627
0.227451 0.227451 0.227451
0.286275 0.286275 0.286275
0.356863 0.356863 0.356863
0.462745 0.462745 0.462745
0.129412 0.129412 0.129412
0.137255 0.137255 0.137255
0.168627 0.168627 0.168627
0.188235 0.188235 0.188235
0.227451 0.227451 0.227451
0.274510 0.274510 0.274510
0.333333 0.333333 0.333333
0.403922 0.403922 0.403922
0.498039 0.498039 0.498039
0.207843 0.207843 0.207843
0.219608 0.219608 0.219608
0.243137 0.243137 0.243137
0.270588 0.270588 0.270588
0.301961 0.301961 0.301961
0.337255 0.337255 0.337255
0.380392 0.380392 0.380392
0.443137 0.443137 0.443137
0.537255 0.537255 0.537255
0.341176 0.341176 0.341176
0.349020 0.349020 0.349020
0.356863 0.356863 0.356863
0.368627 0.368627 0.368627
0.388235 0.388235 0.388235
0.427451 0.427451 0.427451
0.474510 0.474510 0.474510
0.545098 0.545098 0.545098
0.639216 0.639216 0.639216
0.474510 0.474510 0.474510
0.478431 0.478431 0.478431
0.486275 0.486275 0.486275
0.494118 0.494118 0.494118
0.509804 0.509804 0.509804
0.529412 0.529412 0.529412
0.584314 0.584314 0.584314
0.650980 0.650980 0.650980
0.725490 0.725490 0.725490
0.615686 0.615686 0.615686
0.623529 0.623529 0.623529
0.623529 0.623529 0.623529
0.627451 0.627451 0.627451
0.647059 0.647059 0.647059
0.662745 0.662745 0.662745
0.678431 0.678431 0.678431
0.733333 0.733333 0.733333
0.811765 0.811765 0.811765
0.772549 0.772549 0.772549
0.776471 0.776471 0.776471
0.780392 0.780392 0.780392
0.792157 0.792157 0.792157
0.796078 0.796078 0.796078
0.803922 0.803922 0.803922
0.827451 0.827451 0.827451
0.850980 0.850980 0.850980
0.898039 0.898039 0.898039
0.929412 0.929412 0.929412
0.933333 0.933333 0.933333
0.937255 0.937255 0.937255
0.941176 0.941176 0.941176
0.945098 0.945098 0.945098
0.956863 0.956863 0.956863
0.968627 0.968627 0.968627
0.984314 0.984314 0.984314
0.992157 0.992157 0.992157
0.074510 0.074510 0.074510
0.078431 0.078431 0.078431
0.094118 0.094118 0.094118
0.121569 0.121569 0.121569
0.156863 0.156863 0.156863
0.207843 0.207843 0.207843
0.278431 0.278431 0.278431
0.360784 0.360784 0.360784
0.454902 0.454902 0.454902
0.113725 0.113725 0.113725
0.121569 0.121569 0.121569
0.133333 0.133333 0.133333
0.152941 0.152941 0.152941
0.180392 0.180392 0.180392
0.223529 0.223529 0.223529
0.294118 0.294118 0.294118
0.364706 0.364706 0.364706
0.462745 0.462745 0.462745
0.172549 0.172549 0.172549
0.184314 0.184314 0.184314
0.196078 0.196078 0.196078
0.215686 0.215686 0.215686
0.235294 0.235294 0.235294
0.274510 0.274510 0.274510
0.337255 0.337255 0.337255
0.407843 0.407843 0.407843
0.505882 0.505882 0.505882
0.227451 0.227451 0.227451
0.239216 0.239216 0.239216
0.258824 0.258824 0.258824
0.290196 0.290196 0.290196
0.305882 0.305882 0.305882
0.337255 0.337255 0.337255
0.388235 0.388235 0.388235
0.443137 0.443137 0.443137
0.525490 0.525490 0.525490
0.321569 0.321569 0.321569
0.329412 0.329412 0.329412
0.345098 0.345098 0.345098
0.364706 0.364706 0.364706
0.400000 0.400000 0.400000
0.431373 0.431373 0.431373
0.478431 0.478431 0.478431
0.549020 0.549020 0.549020
0.639216 0.639216 0.639216
0.470588 0.470588 0.470588
0.474510 0.474510 0.474510
0.482353 0.482353 0.482353
0.498039 0.498039 0.498039
0.517647 0.517647 0.517647
0.541176 0.541176 0.541176
0.592157 0.592157 0.592157
0.650980 0.650980 0.650980
0.733333 0.733333 0.733333
0.619608 0.619608 0.619608
0.623529 0.623529 0.623529
0.631373 0.631373 0.631373
0.639216 0.639216 0.639216
0.658824 0.658824 0.658824
0.666667 0.666667 0.666667
0.686275 0.686275 0.686275
0.741176 0.741176 0.741176
0.823529 0.823529 0.823529
0.784314 0.784314 0.784314
0.780392 0.780392 0.780392
0.788235 0.788235 0.788235
0.796078 0.796078 0.796078
0.800000 0.800000 0.800000
0.815686 0.815686 0.815686
0.831373 0.831373 0.831373
0.850980 0.850980 0.850980
0.909804 0.909804 0.909804
0.929412 0.929412 0.929412
0.933333 0.933333 0.933333
0.937255 0.937255 0.937255
0.941176 0.941176 0.941176
0.949020 0.949020 0.949020
0.952941 0.952941 0.952941
0.968627 0.968627 0.968627
0.984314 0.984314 0.984314
0.988235 0.988235 0.988235
0.125490 0.125490 0.125490
0.129412 0.129412 0.129412
0.145098 0.145098 0.145098
0.160784 0.160784 0.160784
0.188235 0.188235 0.188235
0.223529 0.223529 0.223529
0.270588 0.270588 0.270588
0.352941 0.352941 0.352941
0.466667 0.466667 0.466667
0.152941 0.152941 0.152941
0.160784 0.160784 0.160784
0.168627 0.168627 0.168627
0.188235 0.188235 0.188235
0.203922 0.203922 0.203922
0.239216 0.239216 0.239216
0.278431 0.278431 0.278431
0.352941 0.352941 0.352941
0.458824 0.458824 0.458824
0.219608 0.219608 0.219608
0.223529 0.223529 0.223529
0.227451 0.227451 0.227451
0.243137 0.243137 0.243137
0.258824 0.258824 0.258824
0.286275 0.286275 0.286275
0.325490 0.325490 0.325490
0.407843 0.407843 0.407843
0.513725 0.513725 0.513725
0.250980 0.250980 0.250980
0.274510 0.274510 0.274510
0.294118 0.294118 0.294118
0.309804 0.309804 0.309804
0.321569 0.321569 0.321569
0.337255 0.337255 0.337255
0.372549 0.372549 0.372549
0.443137 0.443137 0.443137
0.525490 0.525490 0.525490
0.341176 0.341176 0.341176
0.345098 0.345098 0.345098
0.360784 0.360784 0.360784
0.380392 0.380392 0.380392
0.415686 0.415686 0.415686
0.427451 0.427451 0.427451
0.474510 0.474510 0.474510
0.537255 0.537255 0.537255
0.619608 0.619608 0.619608
0.443137 0.443137 0.443137
0.450980 0.450980 0.450980
0.458824 0.458824 0.458824
0.478431 0.478431 0.478431
0.509804 0.509804 0.509804
0.549020 0.549020 0.549020
0.584314 0.584314 0.584314
0.639216 0.639216 0.639216
0.721569 0.721569 0.721569
0.603922 0.603922 0.603922
0.607843 0.607843 0.607843
0.619608 0.619608 0.619608
0.631373 0.631373 0.631373
0.650980 0.650980 0.650980
0.670588 0.670588 0.670588
0.686275 0.686275 0.686275
0.737255 0.737255 0.737255
0.811765 0.811765 0.811765
0.776471 0.776471 0.776471
0.780392 0.780392 0.780392
0.784314 0.784314 0.784314
0.792157 0.792157 0.792157
0.807843 0.807843 0.807843
0.815686 0.815686 0.815686
0.831373 0.831373 0.831373
0.854902 0.854902 0.854902
0.913725 0.913725 0.913725
0.929412 0.929412 0.929412
0.933333 0.933333 0.933333
0.937255 0.937255 0.937255
0.945098 0.945098 0.945098
0.949020 0.949020 0.949020
0.960784 0.960784 0.960784
0.976471 0.976471 0.976471
0.984314 0.984314 0.984314
0.988235 0.988235 0.988235
0.188235 0.188235 0.188235
0.196078 0.196078 0.196078
0.203922 0.203922 0.203922
0.219608 0.219608 0.219608
0.243137 0.243137 0.243137
0.266667 0.266667 0.266667
0.301961 0.301961 0.301961
0.345098 0.345098 0.345098
0.462745 0.462745 0.462745
0.203922 0.203922 0.203922
0.215686 0.215686 0.215686
0.223529 0.223529 0.223529
0.235294 0.235294 0.235294
0.254902 0.254902 0.254902
0.278431 0.278431 0.278431
0.305882 0.305882 0.305882
0.341176 0.341176 0.341176
0.458824 0.458824 0.458824
0.262745 0.262745 0.262745
0.270588 0.270588 0.270588
0.274510 0.274510 0.274510
0.286275 0.286275 0.286275
0.301961 0.301961 0.301961
0.321569 0.321569 0.321569
0.349020 0.349020 0.349020
0.396078 0.396078 0.396078
0.505882 0.505882 0.505882
0.321569 0.321569 0.321569
0.333333 0.333333 0.333333
0.337255 0.337255 0.337255
0.345098 0.345098 0.345098
0.356863 0.356863 0.356863
0.372549 0.372549 0.372549
0.396078 0.396078 0.396078
0.435294 0.435294 0.435294
0.529412 0.529412 0.529412
0.360784 0.360784 0.360784
0.372549 0.372549 0.372549
0.392157 0.392157 0.392157
0.427451 0.427451 0.427451
0.447059 0.447059 0.447059
0.458824 0.458824 0.458824
0.482353 0.482353 0.482353
0.529412 0.529412 0.529412
0.627451 0.627451 0.627451
0.470588 0.470588 0.470588
0.478431 0.478431 0.478431
0.486275 0.486275 0.486275
0.505882 0.505882 0.505882
0.525490 0.525490 0.525490
0.568627 0.568627 0.568627
0.584314 0.584314 0.584314
0.639216 0.639216 0.639216
0.717647 0.717647 0.717647
0.568627 0.568627 0.568627
0.576471 0.576471 0.576471
0.588235 0.588235 0.588235
0.603922 0.603922 0.603922
0.623529 0.623529 0.623529
0.658824 0.658824 0.658824
0.698039 0.698039 0.698039
0.737255 0.737255 0.737255
0.807843 0.807843 0.807843
0.764706 0.764706 0.764706
0.768627 0.768627 0.768627
0.772549 0.772549 0.772549
0.784314 0.784314 0.784314
0.800000 0.800000 0.800000
0.815686 0.815686 0.815686
0.835294 0.835294 0.835294
0.858824 0.858824 0.858824
0.917647 0.917647 0.917647
0.925490 0.925490 0.925490
0.929412 0.929412 0.929412
0.933333 0.933333 0.933333
0.937255 0.937255 0.937255
0.949020 0.949020 0.949020
0.956863 0.956863 0.956863
0.976471 0.976471 0.976471
0.984314 0.984314 0.984314
0.992157 0.992157 0.992157
0.278431 0.278431 0.278431
0.282353 0.282353 0.282353
0.290196 0.290196 0.290196
0.301961 0.301961 0.301961
0.317647 0.317647 0.317647
0.341176 0.341176 0.341176
0.368627 0.368627 0.368627
0.407843 0.407843 0.407843
0.470588 0.470588 0.470588
0.290196 0.290196 0.290196
0.294118 0.294118 0.294118
0.298039 0.298039 0.298039
0.313725 0.313725 0.313725
0.329412 0.329412 0.329412
0.349020 0.349020 0.349020
0.372549 0.372549 0.372549
0.411765 0.411765 0.411765
0.462745 0.462745 0.462745
0.337255 0.337255 0.337255
0.341176 0.341176 0.341176
0.345098 0.345098 0.345098
0.356863 0.356863 0.356863
0.372549 0.372549 0.372549
0.392157 0.392157 0.392157
0.415686 0.415686 0.415686
0.450980 0.450980 0.450980
0.501961 0.501961 0.501961
0.388235 0.388235 0.388235
0.392157 0.392157 0.392157
0.400000 0.400000 0.400000
0.407843 0.407843 0.407843
0.419608 0.419608 0.419608
0.427451 0.427451 0.427451
0.450980 0.450980 0.450980
0.478431 0.478431 0.478431
0.525490 0.525490 0.525490
0.439216 0.439216 0.439216
0.454902 0.454902 0.454902
0.474510 0.474510 0.474510
0.490196 0.490196 0.490196
0.501961 0.501961 0.501961
0.517647 0.517647 0.517647
0.533333 0.533333 0.533333
0.560784 0.560784 0.560784
0.619608 0.619608 0.619608
0.517647 0.517647 0.517647
0.517647 0.517647 0.517647
0.525490 0.525490 0.525490
0.545098 0.545098 0.545098
0.588235 0.588235 0.588235
0.611765 0.611765 0.611765
0.631373 0.631373 0.631373
0.654902 0.654902 0.654902
0.713725 0.713725 0.713725
0.623529 0.623529 0.623529
0.627451 0.627451 0.627451
0.635294 0.635294 0.635294
0.650980 0.650980 0.650980
0.662745 0.662745 0.662745
0.682353 0.682353 0.682353
0.725490 0.725490 0.725490
0.749020 0.749020 0.749020
0.811765 0.811765 0.811765
0.741176 0.741176 0.741176
0.756863 0.756863 0.756863
0.756863 0.756863 0.756863
0.768627 0.768627 0.768627
0.780392 0.780392 0.780392
0.800000 0.800000 0.800000
0.827451 0.827451 0.827451
0.866667 0.866667 0.866667
0.917647 0.917647 0.917647
0.917647 0.917647 0.917647
0.925490 0.925490 0.925490
0.925490 0.925490 0.925490
0.933333 0.933333 0.933333
0.945098 0.945098 0.945098
0.956863 0.956863 0.956863
0.972549 0.972549 0.972549
0.984314 0.984314 0.984314
0.996078 0.996078 0.996078
0.423529 0.423529 0.423529
0.427451 0.427451 0.427451
0.435294 0.435294 0.435294
0.443137 0.443137 0.443137
0.458824 0.458824 0.458824
0.474510 0.474510 0.474510
0.498039 0.498039 0.498039
0.529412 0.529412 0.529412
0.588235 0.588235 0.588235
0.419608 0.419608 0.419608
0.427451 0.427451 0.427451
0.435294 0.435294 0.435294
0.443137 0.443137 0.443137
0.458824 0.458824 0.458824
0.474510 0.474510 0.474510
0.498039 0.498039 0.498039
0.529412 0.529412 0.529412
0.584314 0.584314 0.584314
0.462745 0.462745 0.462745
0.474510 0.474510 0.474510
0.478431 0.478431 0.478431
0.486275 0.486275 0.486275
0.501961 0.501961 0.501961
0.517647 0.517647 0.517647
0.537255 0.537255 0.537255
0.564706 0.564706 0.564706
0.619608 0.619608 0.619608
0.501961 0.501961 0.501961
0.513725 0.513725 0.513725
0.513725 0.513725 0.513725
0.521569 0.521569 0.521569
0.533333 0.533333 0.533333
0.541176 0.541176 0.541176
0.564706 0.564706 0.564706
0.592157 0.592157 0.592157
0.639216 0.639216 0.639216
0.576471 0.576471 0.576471
0.592157 0.592157 0.592157
0.592157 0.592157 0.592157
0.596078 0.596078 0.596078
0.603922 0.603922 0.603922
0.615686 0.615686 0.615686
0.635294 0.635294 0.635294
0.662745 0.662745 0.662745
0.701961 0.701961 0.701961
0.623529 0.623529 0.623529
0.627451 0.627451 0.627451
0.643137 0.643137 0.643137
0.662745 0.662745 0.662745
0.682353 0.682353 0.682353
0.694118 0.694118 0.694118
0.713725 0.713725 0.713725
0.737255 0.737255 0.737255
0.772549 0.772549 0.772549
0.713725 0.713725 0.713725
0.717647 0.717647 0.717647
0.717647 0.717647 0.717647
0.717647 0.717647 0.717647
0.725490 0.725490 0.725490
0.760784 0.760784 0.760784
0.796078 0.796078 0.796078
0.811765 0.811765 0.811765
0.843137 0.843137 0.843137
0.831373 0.831373 0.831373
0.835294 0.835294 0.835294
0.831373 0.831373 0.831373
0.835294 0.835294 0.835294
0.843137 0.843137 0.843137
0.850980 0.850980 0.850980
0.862745 0.862745 0.862745
0.901961 0.901961 0.901961
0.917647 0.917647 0.917647
0.909804 0.909804 0.909804
0.905882 0.905882 0.905882
0.909804 0.909804 0.909804
0.913725 0.913725 0.913725
0.921569 0.921569 0.921569
0.929412 0.929412 0.929412
0.949020 0.949020 0.949020
0.976471 0.976471 0.976471
1.000000 1.000000 1.000000
