resources/LUTs/Black and White/7.cube
TITLE "B&W Preset #7"
#LUT size
LUT_3D_SIZE 25
#LUT data points
0.000000 0.000000 0.000000
0.000000 0.000000 0.000000
0.007843 0.007843 0.007843
0.019608 0.011765 0.015686
0.039216 0.023529 0.027451
0.050980 0.035294 0.039216
0.062745 0.039216 0.039216
0.074510 0.050980 0.050980
0.086275 0.062745 0.062745
0.098039 0.074510 0.074510
0.121569 0.086275 0.090196
0.133333 0.101961 0.094118
0.152941 0.113725 0.109804
0.168627 0.129412 0.125490
0.192157 0.145098 0.145098
0.203922 0.156863 0.156863
0.219608 0.172549 0.172549
0.235294 0.188235 0.188235
0.262745 0.207843 0.203922
0.282353 0.227451 0.223529
0.305882 0.243137 0.243137
0.333333 0.262745 0.262745
0.356863 0.286275 0.286275
0.384314 0.305882 0.309804
0.407843 0.329412 0.333333
0.011765 0.011765 0.011765
0.015686 0.015686 0.015686
0.023529 0.023529 0.023529
0.031373 0.031373 0.031373
0.043137 0.035294 0.039216
0.054902 0.039216 0.035294
0.070588 0.054902 0.050980
0.078431 0.062745 0.058824
0.094118 0.070588 0.070588
0.105882 0.082353 0.082353
0.125490 0.090196 0.094118
0.141176 0.109804 0.101961
0.149020 0.117647 0.109804
0.172549 0.133333 0.129412
0.192157 0.152941 0.149020
0.211765 0.164706 0.164706
0.223529 0.176471 0.176471
0.247059 0.192157 0.188235
0.266667 0.211765 0.207843
0.286275 0.231373 0.227451
0.309804 0.247059 0.247059
0.337255 0.266667 0.266667
0.356863 0.286275 0.286275
0.380392 0.309804 0.309804
0.411765 0.333333 0.337255
0.027451 0.027451 0.019608
0.035294 0.027451 0.031373
0.043137 0.043137 0.035294
0.050980 0.043137 0.047059
0.054902 0.050980 0.043137
0.066667 0.062745 0.054902
0.070588 0.066667 0.058824
0.086275 0.070588 0.066667
0.098039 0.082353 0.078431
0.113725 0.094118 0.082353
0.125490 0.105882 0.094118
0.149020 0.117647 0.109804
0.160784 0.129412 0.121569
0.176471 0.137255 0.133333
0.196078 0.156863 0.152941
0.207843 0.168627 0.164706
0.227451 0.184314 0.176471
0.250980 0.196078 0.192157
0.270588 0.215686 0.211765
0.286275 0.231373 0.227451
0.309804 0.247059 0.247059
0.329412 0.266667 0.266667
0.356863 0.286275 0.286275
0.388235 0.317647 0.317647
0.411765 0.333333 0.337255
0.050980 0.050980 0.043137
0.050980 0.050980 0.043137
0.058824 0.058824 0.058824
0.062745 0.062745 0.054902
0.070588 0.070588 0.062745
0.078431 0.074510 0.066667
0.086275 0.082353 0.074510
0.098039 0.094118 0.086275
0.109804 0.094118 0.090196
0.121569 0.105882 0.094118
0.137255 0.117647 0.105882
0.156863 0.125490 0.117647
0.168627 0.137255 0.129412
0.184314 0.152941 0.145098
0.203922 0.164706 0.160784
0.215686 0.176471 0.172549
0.239216 0.192157 0.192157
0.250980 0.203922 0.203922
0.278431 0.223529 0.219608
0.290196 0.235294 0.231373
0.313725 0.250980 0.250980
0.333333 0.270588 0.270588
0.352941 0.290196 0.290196
0.388235 0.317647 0.317647
0.415686 0.345098 0.337255
0.070588 0.070588 0.062745
0.070588 0.078431 0.066667
0.078431 0.078431 0.070588
0.082353 0.082353 0.074510
0.086275 0.086275 0.078431
0.098039 0.098039 0.090196
0.101961 0.098039 0.090196
0.117647 0.101961 0.098039
0.125490 0.109804 0.105882
0.141176 0.121569 0.109804
0.149020 0.129412 0.117647
0.164706 0.133333 0.125490
0.184314 0.152941 0.145098
0.196078 0.164706 0.156863
0.211765 0.172549 0.168627
0.227451 0.188235 0.184314
0.243137 0.196078 0.196078
0.258824 0.215686 0.207843
0.286275 0.231373 0.227451
0.301961 0.247059 0.243137
0.317647 0.262745 0.258824
0.341176 0.278431 0.278431
0.360784 0.301961 0.290196
0.392157 0.321569 0.313725
0.419608 0.349020 0.341176
0.094118 0.101961 0.090196
0.094118 0.101961 0.090196
0.098039 0.105882 0.094118
0.101961 0.101961 0.094118
0.109804 0.109804 0.101961
0.121569 0.117647 0.109804
0.125490 0.121569 0.105882
0.133333 0.129412 0.113725
0.145098 0.129412 0.125490
0.156863 0.141176 0.137255
0.172549 0.149020 0.149020
0.184314 0.160784 0.160784
0.200000 0.168627 0.160784
0.211765 0.180392 0.172549
0.227451 0.188235 0.184314
0.243137 0.203922 0.200000
0.262745 0.215686 0.215686
0.274510 0.227451 0.227451
0.290196 0.247059 0.239216
0.313725 0.258824 0.254902
0.329412 0.274510 0.270588
0.352941 0.290196 0.290196
0.384314 0.313725 0.313725
0.403922 0.333333 0.333333
0.435294 0.364706 0.356863
0.109804 0.117647 0.098039
0.117647 0.125490 0.113725
0.113725 0.121569 0.101961
0.125490 0.133333 0.121569
0.121569 0.129412 0.109804
0.141176 0.145098 0.125490
0.145098 0.149020 0.129412
0.156863 0.152941 0.145098
0.168627 0.152941 0.149020
0.176471 0.160784 0.156863
0.188235 0.168627 0.156863
0.200000 0.180392 0.168627
0.211765 0.192157 0.180392
0.231373 0.200000 0.192157
0.243137 0.211765 0.203922
0.250980 0.219608 0.211765
0.270588 0.231373 0.227451
0.282353 0.243137 0.235294
0.301961 0.258824 0.250980
0.317647 0.274510 0.266667
0.341176 0.286275 0.282353
0.360784 0.305882 0.301961
0.384314 0.321569 0.321569
0.419608 0.349020 0.349020
0.443137 0.372549 0.364706
0.129412 0.149020 0.133333
0.141176 0.149020 0.137255
0.137255 0.156863 0.141176
0.137255 0.156863 0.141176
0.152941 0.160784 0.149020
0.149020 0.156863 0.145098
0.164706 0.164706 0.156863
0.176471 0.172549 0.164706
0.188235 0.184314 0.176471
0.203922 0.188235 0.176471
0.207843 0.192157 0.180392
0.215686 0.200000 0.188235
0.231373 0.211765 0.200000
0.239216 0.219608 0.207843
0.258824 0.227451 0.219608
0.270588 0.239216 0.231373
0.286275 0.247059 0.243137
0.298039 0.258824 0.254902
0.317647 0.270588 0.270588
0.329412 0.286275 0.278431
0.356863 0.301961 0.298039
0.376471 0.321569 0.317647
0.400000 0.337255 0.337255
0.427451 0.356863 0.356863
0.454902 0.384314 0.384314
0.160784 0.168627 0.156863
0.160784 0.180392 0.164706
0.160784 0.168627 0.164706
0.164706 0.184314 0.168627
0.164706 0.184314 0.168627
0.180392 0.180392 0.172549
0.188235 0.188235 0.180392
0.200000 0.203922 0.184314
0.203922 0.207843 0.188235
0.215686 0.211765 0.196078
0.231373 0.215686 0.203922
0.235294 0.219608 0.207843
0.250980 0.231373 0.219608
0.258824 0.239216 0.227451
0.266667 0.247059 0.235294
0.286275 0.254902 0.247059
0.298039 0.266667 0.258824
0.309804 0.278431 0.266667
0.325490 0.286275 0.278431
0.341176 0.301961 0.294118
0.360784 0.317647 0.309804
0.388235 0.333333 0.321569
0.411765 0.352941 0.341176
0.439216 0.368627 0.360784
0.466667 0.396078 0.388235
0.180392 0.200000 0.184314
0.180392 0.207843 0.180392
0.184314 0.203922 0.180392
0.196078 0.203922 0.184314
0.200000 0.207843 0.188235
0.207843 0.215686 0.196078
0.207843 0.215686 0.196078
0.219608 0.223529 0.203922
0.227451 0.231373 0.211765
0.235294 0.239216 0.219608
0.247059 0.243137 0.227451
0.250980 0.247059 0.231373
0.266667 0.250980 0.239216
0.274510 0.258824 0.247059
0.286275 0.266667 0.254902
0.298039 0.278431 0.266667
0.313725 0.282353 0.270588
0.325490 0.294118 0.282353
0.341176 0.301961 0.294118
0.356863 0.317647 0.309804
0.372549 0.333333 0.325490
0.396078 0.352941 0.345098
0.415686 0.372549 0.364706
0.447059 0.392157 0.380392
0.470588 0.415686 0.403922
0.215686 0.235294 0.211765
0.215686 0.235294 0.211765
0.219608 0.239216 0.215686
0.223529 0.243137 0.219608
0.219608 0.239216 0.215686
0.223529 0.243137 0.219608
0.227451 0.247059 0.223529
0.235294 0.254902 0.231373
0.250980 0.258824 0.239216
0.258824 0.262745 0.243137
0.266667 0.270588 0.250980
0.278431 0.274510 0.258824
0.286275 0.282353 0.266667
0.294118 0.290196 0.274510
0.309804 0.294118 0.282353
0.317647 0.301961 0.290196
0.333333 0.313725 0.298039
0.352941 0.321569 0.309804
0.360784 0.329412 0.317647
0.376471 0.345098 0.333333
0.396078 0.356863 0.349020
0.419608 0.376471 0.368627
0.439216 0.396078 0.380392
0.470588 0.415686 0.403922
0.501961 0.443137 0.431373
0.239216 0.258824 0.235294
0.239216 0.258824 0.243137
0.247059 0.266667 0.243137
0.247059 0.266667 0.243137
0.250980 0.270588 0.247059
0.247059 0.266667 0.243137
0.254902 0.274510 0.250980
0.266667 0.274510 0.254902
0.274510 0.282353 0.262745
0.282353 0.286275 0.266667
0.290196 0.294118 0.274510
0.298039 0.301961 0.282353
0.309804 0.305882 0.290196
0.317647 0.313725 0.298039
0.321569 0.317647 0.301961
0.345098 0.325490 0.309804
0.352941 0.333333 0.317647
0.360784 0.341176 0.325490
0.384314 0.352941 0.341176
0.396078 0.364706 0.352941
0.415686 0.376471 0.368627
0.439216 0.396078 0.380392
0.458824 0.415686 0.400000
0.490196 0.435294 0.423529
0.521569 0.462745 0.450980
0.262745 0.290196 0.262745
0.266667 0.286275 0.262745
0.262745 0.290196 0.258824
0.270588 0.298039 0.270588
0.270588 0.290196 0.266667
0.278431 0.298039 0.274510
0.278431 0.298039 0.274510
0.282353 0.301961 0.278431
0.298039 0.305882 0.286275
0.301961 0.309804 0.290196
0.305882 0.313725 0.294118
0.317647 0.321569 0.301961
0.325490 0.329412 0.309804
0.333333 0.337255 0.313725
0.345098 0.341176 0.321569
0.352941 0.349020 0.329412
0.368627 0.356863 0.337255
0.380392 0.368627 0.349020
0.396078 0.376471 0.360784
0.411765 0.392157 0.376471
0.435294 0.403922 0.392157
0.454902 0.423529 0.411765
0.478431 0.435294 0.419608
0.513725 0.458824 0.447059
0.545098 0.494118 0.470588
0.294118 0.313725 0.290196
0.290196 0.317647 0.286275
0.294118 0.313725 0.290196
0.294118 0.321569 0.290196
0.298039 0.325490 0.298039
0.298039 0.325490 0.298039
0.301961 0.329412 0.301961
0.309804 0.329412 0.305882
0.309804 0.329412 0.305882
0.325490 0.337255 0.309804
0.333333 0.345098 0.317647
0.337255 0.341176 0.317647
0.345098 0.349020 0.325490
0.364706 0.360784 0.341176
0.372549 0.368627 0.349020
0.380392 0.368627 0.349020
0.396078 0.384314 0.364706
0.400000 0.388235 0.368627
0.419608 0.400000 0.384314
0.431373 0.411765 0.396078
0.454902 0.427451 0.403922
0.466667 0.447059 0.423529
0.494118 0.466667 0.443137
0.521569 0.486275 0.466667
0.552941 0.509804 0.486275
0.313725 0.341176 0.313725
0.321569 0.349020 0.317647
0.321569 0.341176 0.313725
0.321569 0.341176 0.313725
0.325490 0.345098 0.321569
0.329412 0.349020 0.325490
0.329412 0.349020 0.325490
0.333333 0.352941 0.325490
0.337255 0.356863 0.329412
0.341176 0.360784 0.333333
0.360784 0.372549 0.345098
0.364706 0.376471 0.349020
0.372549 0.376471 0.352941
0.380392 0.384314 0.360784
0.392157 0.388235 0.368627
0.403922 0.400000 0.380392
0.411765 0.407843 0.388235
0.427451 0.415686 0.396078
0.435294 0.423529 0.403922
0.450980 0.431373 0.415686
0.478431 0.450980 0.427451
0.498039 0.470588 0.447059
0.521569 0.486275 0.466667
0.545098 0.509804 0.490196
0.572549 0.529412 0.513725
0.352941 0.380392 0.352941
0.356863 0.384314 0.356863
0.356863 0.384314 0.356863
0.356863 0.384314 0.356863
0.360784 0.380392 0.356863
0.360784 0.380392 0.356863
0.368627 0.388235 0.364706
0.372549 0.392157 0.368627
0.372549 0.392157 0.364706
0.380392 0.400000 0.372549
0.396078 0.407843 0.380392
0.396078 0.407843 0.380392
0.400000 0.411765 0.384314
0.415686 0.419608 0.396078
0.419608 0.423529 0.400000
0.427451 0.431373 0.400000
0.439216 0.439216 0.407843
0.458824 0.447059 0.419608
0.470588 0.458824 0.431373
0.482353 0.470588 0.443137
0.505882 0.486275 0.462745
0.529412 0.501961 0.478431
0.552941 0.525490 0.501961
0.580392 0.545098 0.525490
0.615686 0.572549 0.556863
0.372549 0.411765 0.380392
0.376471 0.403922 0.376471
0.384314 0.411765 0.380392
0.376471 0.415686 0.384314
0.388235 0.415686 0.384314
0.392157 0.419608 0.388235
0.392157 0.419608 0.392157
0.396078 0.423529 0.392157
0.403922 0.423529 0.396078
0.411765 0.431373 0.403922
0.411765 0.431373 0.403922
0.419608 0.439216 0.411765
0.435294 0.447059 0.419608
0.439216 0.450980 0.423529
0.447059 0.450980 0.427451
0.458824 0.462745 0.431373
0.466667 0.470588 0.439216
0.478431 0.478431 0.447059
0.490196 0.490196 0.458824
0.513725 0.501961 0.474510
0.533333 0.521569 0.494118
0.556863 0.537255 0.513725
0.572549 0.552941 0.529412
0.596078 0.576471 0.552941
0.639216 0.603922 0.576471
0.400000 0.447059 0.407843
0.419608 0.447059 0.415686
0.415686 0.447059 0.403922
0.419608 0.447059 0.415686
0.419608 0.447059 0.415686
0.423529 0.450980 0.419608
0.427451 0.454902 0.423529
0.427451 0.454902 0.423529
0.435294 0.454902 0.427451
0.439216 0.458824 0.431373
0.443137 0.462745 0.435294
0.450980 0.470588 0.443137
0.466667 0.478431 0.450980
0.470588 0.482353 0.447059
0.478431 0.490196 0.454902
0.490196 0.494118 0.462745
0.498039 0.501961 0.470588
0.513725 0.513725 0.482353
0.521569 0.521569 0.490196
0.545098 0.533333 0.505882
0.560784 0.549020 0.521569
0.580392 0.564706 0.529412
0.600000 0.588235 0.560784
0.627451 0.607843 0.584314
0.662745 0.635294 0.603922
0.439216 0.486275 0.447059
0.447059 0.486275 0.450980
0.447059 0.486275 0.454902
0.450980 0.490196 0.454902
0.458824 0.486275 0.454902
0.458824 0.486275 0.454902
0.462745 0.490196 0.458824
0.466667 0.494118 0.462745
0.466667 0.494118 0.462745
0.478431 0.498039 0.470588
0.486275 0.509804 0.470588
0.494118 0.505882 0.470588
0.498039 0.509804 0.474510
0.501961 0.521569 0.494118
0.517647 0.529412 0.494118
0.525490 0.537255 0.501961
0.533333 0.537255 0.505882
0.549020 0.552941 0.521569
0.552941 0.556863 0.525490
0.572549 0.572549 0.541176
0.580392 0.580392 0.549020
0.615686 0.588235 0.564706
0.627451 0.607843 0.584314
0.654902 0.635294 0.611765
0.686275 0.658824 0.627451
0.486275 0.525490 0.494118
0.494118 0.521569 0.490196
0.494118 0.521569 0.490196
0.486275 0.533333 0.494118
0.490196 0.529412 0.494118
0.494118 0.533333 0.498039
0.505882 0.533333 0.501961
0.513725 0.541176 0.509804
0.513725 0.545098 0.501961
0.517647 0.549020 0.505882
0.521569 0.552941 0.509804
0.525490 0.549020 0.509804
0.529412 0.560784 0.517647
0.537255 0.560784 0.521569
0.545098 0.568627 0.529412
0.560784 0.572549 0.537255
0.568627 0.580392 0.545098
0.584314 0.588235 0.556863
0.592157 0.596078 0.564706
0.603922 0.607843 0.576471
0.611765 0.611765 0.580392
0.639216 0.627451 0.600000
0.658824 0.647059 0.619608
0.686275 0.670588 0.635294
0.709804 0.694118 0.658824
0.541176 0.588235 0.541176
0.541176 0.588235 0.541176
0.541176 0.588235 0.541176
0.545098 0.592157 0.545098
0.549020 0.588235 0.545098
0.552941 0.592157 0.549020
0.552941 0.592157 0.549020
0.552941 0.592157 0.549020
0.556863 0.596078 0.552941
0.560784 0.600000 0.556863
0.572549 0.603922 0.560784
0.576471 0.607843 0.564706
0.584314 0.615686 0.572549
0.600000 0.623529 0.584314
0.600000 0.623529 0.584314
0.611765 0.623529 0.588235
0.623529 0.635294 0.607843
0.631373 0.643137 0.615686
0.643137 0.647059 0.615686
0.654902 0.658824 0.627451
0.666667 0.666667 0.635294
0.674510 0.674510 0.643137
0.698039 0.686275 0.658824
0.725490 0.705882 0.682353
0.764706 0.729412 0.694118
0.584314 0.631373 0.584314
0.584314 0.623529 0.588235
0.592157 0.631373 0.588235
0.596078 0.635294 0.592157
0.596078 0.635294 0.592157
0.592157 0.631373 0.588235
0.600000 0.639216 0.596078
0.603922 0.643137 0.600000
0.607843 0.647059 0.603922
0.611765 0.650980 0.607843
0.623529 0.654902 0.611765
0.627451 0.658824 0.615686
0.635294 0.666667 0.623529
0.647059 0.670588 0.631373
0.650980 0.674510 0.635294
0.654902 0.674510 0.647059
0.674510 0.686275 0.658824
0.678431 0.690196 0.654902
0.686275 0.698039 0.662745
0.698039 0.701961 0.670588
0.713725 0.717647 0.686275
0.729412 0.729412 0.698039
0.749020 0.737255 0.709804
0.760784 0.749020 0.713725
0.792157 0.776471 0.733333
0.635294 0.686275 0.647059
0.647059 0.686275 0.650980
0.647059 0.686275 0.643137
0.650980 0.690196 0.654902
0.650980 0.690196 0.647059
0.654902 0.694118 0.650980
0.650980 0.698039 0.658824
0.658824 0.698039 0.654902
0.662745 0.701961 0.658824
0.662745 0.701961 0.658824
0.674510 0.705882 0.662745
0.678431 0.709804 0.666667
0.682353 0.713725 0.670588
0.694118 0.717647 0.678431
0.701961 0.721569 0.694118
0.709804 0.729412 0.701961
0.725490 0.737255 0.701961
0.733333 0.745098 0.709804
0.741176 0.752941 0.717647
0.752941 0.756863 0.725490
0.768627 0.768627 0.737255
0.784314 0.784314 0.752941
0.796078 0.784314 0.756863
0.807843 0.796078 0.760784
0.831373 0.815686 0.780392
0.701961 0.749020 0.709804
0.698039 0.745098 0.698039
0.709804 0.749020 0.713725
0.709804 0.749020 0.705882
0.709804 0.749020 0.713725
0.709804 0.756863 0.717647
0.709804 0.756863 0.709804
0.713725 0.760784 0.713725
0.721569 0.760784 0.717647
0.725490 0.764706 0.721569
0.741176 0.772549 0.729412
0.745098 0.776471 0.733333
0.749020 0.780392 0.737255
0.749020 0.776471 0.745098
0.760784 0.788235 0.756863
0.768627 0.788235 0.760784
0.780392 0.800000 0.772549
0.788235 0.800000 0.772549
0.800000 0.811765 0.776471
0.807843 0.819608 0.784314
0.823529 0.827451 0.796078
0.835294 0.835294 0.803922
0.843137 0.847059 0.815686
0.854902 0.862745 0.819608
0.878431 0.870588 0.823529
0.772549 0.819608 0.780392
0.772549 0.811765 0.768627
0.776471 0.815686 0.772549
0.768627 0.823529 0.772549
0.776471 0.823529 0.776471
0.776471 0.823529 0.776471
0.780392 0.819608 0.776471
0.784314 0.823529 0.780392
0.788235 0.827451 0.784314
0.800000 0.831373 0.788235
0.807843 0.839216 0.796078
0.815686 0.839216 0.800000
0.807843 0.847059 0.811765
0.819608 0.847059 0.815686
0.827451 0.854902 0.823529
0.839216 0.858824 0.831373
0.847059 0.866667 0.839216
0.854902 0.874510 0.847059
0.870588 0.882353 0.847059
0.882353 0.894118 0.858824
0.894118 0.905882 0.870588
0.905882 0.917647 0.882353
0.921569 0.925490 0.894118
0.933333 0.937255 0.905882
0.956863 0.956863 0.925490
0.000000 0.000000 0.000000
0.003922 0.003922 0.003922
0.011765 0.003922 0.007843
0.019608 0.011765 0.015686
0.031373 0.023529 0.027451
0.050980 0.035294 0.039216
0.066667 0.050980 0.054902
0.078431 0.062745 0.066667
0.094118 0.070588 0.070588
0.105882 0.082353 0.082353
0.129412 0.094118 0.098039
0.141176 0.105882 0.109804
0.152941 0.117647 0.121569
0.168627 0.129412 0.133333
0.184314 0.145098 0.149020
0.203922 0.156863 0.164706
0.223529 0.180392 0.172549
0.239216 0.196078 0.188235
0.266667 0.211765 0.207843
0.282353 0.227451 0.223529
0.305882 0.243137 0.243137
0.325490 0.262745 0.262745
0.356863 0.286275 0.286275
0.388235 0.309804 0.313725
0.403922 0.329412 0.337255
0.007843 0.015686 0.011765
0.015686 0.015686 0.015686
0.023529 0.023529 0.023529
0.031373 0.031373 0.031373
0.047059 0.039216 0.043137
0.054902 0.050980 0.043137
0.062745 0.054902 0.058824
0.090196 0.066667 0.066667
0.098039 0.074510 0.074510
0.113725 0.090196 0.090196
0.129412 0.094118 0.098039
0.145098 0.109804 0.113725
0.160784 0.125490 0.129412
0.180392 0.141176 0.145098
0.192157 0.152941 0.156863
0.211765 0.168627 0.160784
0.227451 0.184314 0.176471
0.250980 0.196078 0.192157
0.266667 0.211765 0.207843
0.286275 0.223529 0.223529
0.309804 0.247059 0.247059
0.337255 0.266667 0.266667
0.356863 0.286275 0.286275
0.380392 0.305882 0.313725
0.411765 0.333333 0.337255
0.031373 0.039216 0.035294
0.039216 0.039216 0.039216
0.039216 0.047059 0.035294
0.047059 0.054902 0.050980
0.054902 0.054902 0.054902
0.062745 0.062745 0.062745
0.082353 0.066667 0.070588
0.094118 0.078431 0.082353
0.105882 0.090196 0.094118
0.117647 0.094118 0.094118
0.129412 0.105882 0.105882
0.145098 0.121569 0.121569
0.164706 0.129412 0.133333
0.184314 0.149020 0.152941
0.196078 0.156863 0.152941
0.207843 0.168627 0.164706
0.227451 0.180392 0.180392
0.247059 0.200000 0.200000
0.270588 0.215686 0.215686
0.290196 0.235294 0.231373
0.313725 0.250980 0.250980
0.333333 0.270588 0.270588
0.352941 0.290196 0.294118
0.384314 0.309804 0.317647
0.411765 0.341176 0.341176
0.050980 0.050980 0.043137
0.054902 0.054902 0.047059
0.058824 0.058824 0.058824
0.066667 0.066667 0.058824
0.074510 0.074510 0.066667
0.090196 0.074510 0.078431
0.094118 0.078431 0.082353
0.105882 0.090196 0.094118
0.113725 0.098039 0.101961
0.121569 0.105882 0.101961
0.141176 0.117647 0.117647
0.152941 0.129412 0.129412
0.172549 0.137255 0.141176
0.192157 0.152941 0.149020
0.203922 0.164706 0.160784
0.223529 0.176471 0.176471
0.235294 0.188235 0.188235
0.250980 0.207843 0.200000
0.274510 0.219608 0.215686
0.298039 0.243137 0.239216
0.309804 0.247059 0.247059
0.341176 0.266667 0.274510
0.360784 0.286275 0.294118
0.392157 0.313725 0.321569
0.423529 0.345098 0.349020
0.066667 0.066667 0.066667
0.070588 0.078431 0.066667
0.074510 0.082353 0.070588
0.078431 0.086275 0.074510
0.086275 0.094118 0.090196
0.094118 0.094118 0.094118
0.101961 0.101961 0.094118
0.113725 0.109804 0.101961
0.125490 0.121569 0.113725
0.145098 0.129412 0.125490
0.149020 0.133333 0.129412
0.160784 0.137255 0.137255
0.188235 0.156863 0.149020
0.200000 0.160784 0.156863
0.211765 0.172549 0.168627
0.235294 0.188235 0.188235
0.247059 0.203922 0.196078
0.262745 0.219608 0.211765
0.286275 0.231373 0.227451
0.298039 0.243137 0.239216
0.321569 0.258824 0.258824
0.341176 0.278431 0.278431
0.368627 0.298039 0.298039
0.392157 0.321569 0.321569
0.415686 0.345098 0.345098
0.090196 0.098039 0.086275
0.094118 0.101961 0.090196
0.098039 0.105882 0.094118
0.105882 0.105882 0.098039
0.109804 0.109804 0.101961
0.113725 0.113725 0.105882
0.121569 0.121569 0.113725
0.133333 0.129412 0.121569
0.152941 0.137255 0.125490
0.156863 0.141176 0.129412
0.164706 0.149020 0.137255
0.180392 0.160784 0.149020
0.192157 0.172549 0.160784
0.215686 0.184314 0.172549
0.227451 0.196078 0.184314
0.247059 0.207843 0.200000
0.254902 0.215686 0.211765
0.266667 0.227451 0.223529
0.290196 0.243137 0.243137
0.301961 0.258824 0.250980
0.329412 0.274510 0.270588
0.352941 0.298039 0.294118
0.376471 0.313725 0.313725
0.407843 0.337255 0.337255
0.435294 0.364706 0.364706
0.109804 0.117647 0.105882
0.117647 0.125490 0.121569
0.121569 0.129412 0.117647
0.121569 0.129412 0.117647
0.129412 0.129412 0.121569
0.141176 0.145098 0.125490
0.149020 0.149020 0.141176
0.156863 0.152941 0.137255
0.160784 0.156863 0.141176
0.180392 0.164706 0.152941
0.184314 0.168627 0.156863
0.200000 0.180392 0.168627
0.211765 0.192157 0.180392
0.223529 0.203922 0.192157
0.243137 0.211765 0.200000
0.254902 0.223529 0.215686
0.270588 0.239216 0.231373
0.286275 0.247059 0.243137
0.298039 0.258824 0.250980
0.309804 0.270588 0.262745
0.333333 0.290196 0.282353
0.360784 0.305882 0.301961
0.384314 0.329412 0.325490
0.415686 0.345098 0.337255
0.450980 0.372549 0.368627
0.137255 0.145098 0.125490
0.137255 0.145098 0.133333
0.137255 0.156863 0.133333
0.141176 0.160784 0.145098
0.149020 0.156863 0.137255
0.160784 0.164706 0.145098
0.164706 0.168627 0.149020
0.176471 0.180392 0.160784
0.188235 0.184314 0.168627
0.192157 0.188235 0.172549
0.200000 0.196078 0.180392
0.215686 0.200000 0.188235
0.223529 0.207843 0.196078
0.243137 0.223529 0.211765
0.258824 0.227451 0.219608
0.266667 0.235294 0.227451
0.282353 0.243137 0.239216
0.294118 0.254902 0.250980
0.309804 0.270588 0.266667
0.329412 0.282353 0.282353
0.352941 0.298039 0.294118
0.372549 0.317647 0.313725
0.396078 0.333333 0.333333
0.423529 0.352941 0.352941
0.454902 0.384314 0.376471
0.160784 0.168627 0.156863
0.164706 0.172549 0.152941
0.172549 0.180392 0.168627
0.172549 0.180392 0.160784
0.176471 0.184314 0.172549
0.180392 0.184314 0.164706
0.188235 0.192157 0.172549
0.196078 0.200000 0.180392
0.203922 0.207843 0.188235
0.211765 0.207843 0.192157
0.223529 0.219608 0.203922
0.239216 0.223529 0.211765
0.247059 0.235294 0.215686
0.254902 0.239216 0.227451
0.266667 0.247059 0.235294
0.278431 0.258824 0.247059
0.298039 0.266667 0.258824
0.305882 0.274510 0.266667
0.321569 0.290196 0.278431
0.341176 0.301961 0.294118
0.356863 0.317647 0.309804
0.372549 0.329412 0.313725
0.403922 0.349020 0.337255
0.443137 0.372549 0.364706
0.458824 0.400000 0.380392
0.184314 0.203922 0.180392
0.184314 0.203922 0.180392
0.192157 0.200000 0.180392
0.196078 0.203922 0.184314
0.200000 0.207843 0.188235
0.203922 0.211765 0.192157
0.207843 0.215686 0.196078
0.215686 0.219608 0.200000
0.223529 0.227451 0.207843
0.235294 0.239216 0.219608
0.243137 0.239216 0.223529
0.254902 0.250980 0.235294
0.270588 0.254902 0.243137
0.274510 0.258824 0.247059
0.282353 0.266667 0.254902
0.298039 0.278431 0.266667
0.305882 0.286275 0.274510
0.325490 0.294118 0.282353
0.341176 0.309804 0.298039
0.356863 0.317647 0.309804
0.376471 0.333333 0.325490
0.400000 0.345098 0.341176
0.419608 0.364706 0.360784
0.447059 0.388235 0.376471
0.470588 0.411765 0.400000
0.215686 0.235294 0.219608
0.215686 0.235294 0.219608
0.219608 0.239216 0.215686
0.227451 0.235294 0.215686
0.231373 0.239216 0.219608
0.235294 0.243137 0.223529
0.239216 0.247059 0.227451
0.243137 0.250980 0.231373
0.247059 0.254902 0.235294
0.258824 0.262745 0.243137
0.266667 0.270588 0.250980
