resources/LUTs/Black and White/7.cube
TITLE "B&W Preset #7"
#LUT size
LUT_3D_SIZE 5
#LUT data points
0.000000 0.000000 0.000000
0.062745 0.039216 0.039216
0.152941 0.113725 0.109804
0.262745 0.207843 0.203922
0.407843 0.329412 0.333333
0.109804 0.117647 0.098039
0.145098 0.149020 0.129412
0.211765 0.192157 0.180392
0.301961 0.258824 0.250980
0.443137 0.372549 0.364706
0.262745 0.290196 0.262745
0.278431 0.298039 0.274510
0.325490 0.329412 0.309804
0.396078 0.376471 0.360784
0.545098 0.494118 0.470588
0.439216 0.486275 0.447059
0.462745 0.490196 0.458824
0.498039 0.509804 0.474510
0.552941 0.556863 0.525490
0.686275 0.658824 0.627451
0.772549 0.819608 0.780392
0.780392 0.819608 0.776471
0.807843 0.847059 0.811765
0.870588 0.882353 0.847059
0.956863 0.956863 0.925490
0.015686 0.007843 0.027451
0.074510 0.054902 0.078431
0.172549 0.137255 0.149020
0.270588 0.223529 0.223529
0.415686 0.333333 0.352941
0.121569 0.129412 0.125490
0.152941 0.145098 0.149020
0.215686 0.200000 0.196078
0.305882 0.266667 0.262745
0.450980 0.380392 0.372549
0.266667 0.290196 0.274510
0.290196 0.298039 0.278431
0.325490 0.329412 0.309804
0.400000 0.380392 0.364706
0.537255 0.482353 0.470588
0.443137 0.482353 0.450980
0.458824 0.486275 0.454902
0.490196 0.509804 0.482353
0.552941 0.549020 0.529412
0.694118 0.666667 0.635294
0.760784 0.803922 0.772549
0.776471 0.823529 0.776471
0.803922 0.843137 0.807843
0.870588 0.882353 0.847059
0.956863 0.956863 0.925490
0.047059 0.047059 0.086275
0.086275 0.082353 0.113725
0.180392 0.152941 0.184314
0.286275 0.235294 0.262745
0.415686 0.349020 0.372549
0.133333 0.149020 0.160784
0.160784 0.164706 0.180392
0.223529 0.215686 0.227451
0.321569 0.278431 0.294118
0.458824 0.384314 0.392157
0.270588 0.290196 0.301961
0.290196 0.305882 0.309804
0.337255 0.337255 0.337255
0.411765 0.388235 0.388235
0.545098 0.490196 0.486275
0.450980 0.486275 0.474510
0.462745 0.498039 0.478431
0.501961 0.521569 0.498039
0.556863 0.560784 0.537255
0.705882 0.678431 0.654902
0.760784 0.811765 0.776471
0.772549 0.819608 0.780392
0.803922 0.843137 0.807843
0.866667 0.890196 0.850980
0.964706 0.964706 0.933333
0.086275 0.090196 0.168627
0.121569 0.113725 0.196078
0.203922 0.176471 0.239216
0.301961 0.254902 0.301961
0.443137 0.364706 0.411765
0.156863 0.164706 0.215686
0.192157 0.192157 0.239216
0.254902 0.231373 0.278431
0.337255 0.298039 0.341176
0.470588 0.403922 0.443137
0.290196 0.305882 0.341176
0.309804 0.321569 0.349020
0.341176 0.345098 0.364706
0.415686 0.396078 0.419608
0.549020 0.490196 0.509804
0.458824 0.498039 0.494118
0.470588 0.501961 0.509804
0.501961 0.525490 0.525490
0.568627 0.568627 0.568627
0.701961 0.670588 0.662745
0.760784 0.819608 0.800000
0.772549 0.823529 0.796078
0.796078 0.839216 0.815686
0.866667 0.886275 0.862745
0.972549 0.976471 0.952941
0.168627 0.164706 0.329412
0.200000 0.180392 0.337255
0.282353 0.243137 0.380392
0.392157 0.325490 0.450980
0.552941 0.439216 0.549020
0.207843 0.215686 0.364706
0.239216 0.239216 0.380392
0.309804 0.282353 0.411765
0.427451 0.364706 0.478431
0.572549 0.478431 0.572549
0.294118 0.329412 0.443137
0.313725 0.333333 0.447059
0.372549 0.380392 0.478431
0.486275 0.447059 0.541176
0.627451 0.552941 0.631373
0.533333 0.588235 0.639216
0.537255 0.592157 0.643137
0.549020 0.588235 0.635294
0.600000 0.596078 0.658824
0.745098 0.698039 0.745098
0.819608 0.882353 0.882353
0.827451 0.882353 0.886275
0.843137 0.898039 0.898039
0.890196 0.925490 0.921569
1.000000 1.000000 1.000000
