resources/LUTs/Black and White/7.cube
TITLE "B&W Preset #7"
#LUT size
LUT_3D_SIZE 9
#LUT data points
0.000000 0.000000 0.000000
0.019608 0.011765 0.015686
0.062745 0.039216 0.039216
0.098039 0.074510 0.074510
0.152941 0.113725 0.109804
0.203922 0.156863 0.156863
0.262745 0.207843 0.203922
0.333333 0.262745 0.262745
0.407843 0.329412 0.333333
0.050980 0.050980 0.043137
0.062745 0.062745 0.054902
0.086275 0.082353 0.074510
0.121569 0.105882 0.094118
0.168627 0.137255 0.129412
0.215686 0.176471 0.172549
0.278431 0.223529 0.219608
0.333333 0.270588 0.270588
0.415686 0.345098 0.337255
0.109804 0.117647 0.098039
0.125490 0.133333 0.121569
0.145098 0.149020 0.129412
0.176471 0.160784 0.156863
0.211765 0.192157 0.180392
0.250980 0.219608 0.211765
0.301961 0.258824 0.250980
0.360784 0.305882 0.301961
0.443137 0.372549 0.364706
0.180392 0.200000 0.184314
0.196078 0.203922 0.184314
0.207843 0.215686 0.196078
0.235294 0.239216 0.219608
0.266667 0.250980 0.239216
0.298039 0.278431 0.266667
0.341176 0.301961 0.294118
0.396078 0.352941 0.345098
0.470588 0.415686 0.403922
0.262745 0.290196 0.262745
0.270588 0.298039 0.270588
0.278431 0.298039 0.274510
0.301961 0.309804 0.290196
0.325490 0.329412 0.309804
0.352941 0.349020 0.329412
0.396078 0.376471 0.360784
0.454902 0.423529 0.411765
0.545098 0.494118 0.470588
0.352941 0.380392 0.352941
0.356863 0.384314 0.356863
0.368627 0.388235 0.364706
0.380392 0.400000 0.372549
0.400000 0.411765 0.384314
0.427451 0.431373 0.400000
0.470588 0.458824 0.431373
0.529412 0.501961 0.478431
0.615686 0.572549 0.556863
0.439216 0.486275 0.447059
0.450980 0.490196 0.454902
0.462745 0.490196 0.458824
0.478431 0.498039 0.470588
0.498039 0.509804 0.474510
0.525490 0.537255 0.501961
0.552941 0.556863 0.525490
0.615686 0.588235 0.564706
0.686275 0.658824 0.627451
0.584314 0.631373 0.584314
0.596078 0.635294 0.592157
0.600000 0.639216 0.596078
0.611765 0.650980 0.607843
0.635294 0.666667 0.623529
0.654902 0.674510 0.647059
0.686275 0.698039 0.662745
0.729412 0.729412 0.698039
0.792157 0.776471 0.733333
0.772549 0.819608 0.780392
0.768627 0.823529 0.772549
0.780392 0.819608 0.776471
0.800000 0.831373 0.788235
0.807843 0.847059 0.811765
0.839216 0.858824 0.831373
0.870588 0.882353 0.847059
0.905882 0.917647 0.882353
0.956863 0.956863 0.925490
0.003922 0.003922 0.011765
0.027451 0.019608 0.023529
0.070588 0.054902 0.058824
0.113725 0.090196 0.090196
0.160784 0.125490 0.129412
0.219608 0.172549 0.180392
0.270588 0.215686 0.215686
0.329412 0.266667 0.266667
0.407843 0.333333 0.341176
0.054902 0.054902 0.054902
0.066667 0.066667 0.066667
0.094118 0.086275 0.090196
0.129412 0.113725 0.109804
0.172549 0.149020 0.149020
0.227451 0.188235 0.184314
0.270588 0.223529 0.223529
0.333333 0.270588 0.270588
0.411765 0.341176 0.341176
0.121569 0.121569 0.113725
0.125490 0.133333 0.129412
0.149020 0.141176 0.145098
0.172549 0.168627 0.160784
0.215686 0.192157 0.192157
0.254902 0.223529 0.215686
0.298039 0.258824 0.254902
0.360784 0.305882 0.301961
0.439216 0.368627 0.360784
0.184314 0.203922 0.188235
0.192157 0.211765 0.196078
0.207843 0.215686 0.203922
0.231373 0.235294 0.215686
0.266667 0.250980 0.239216
0.294118 0.274510 0.258824
0.341176 0.301961 0.294118
0.388235 0.345098 0.337255
0.462745 0.407843 0.403922
0.258824 0.282353 0.266667
0.266667 0.286275 0.270588
0.278431 0.298039 0.274510
0.301961 0.309804 0.290196
0.325490 0.329412 0.309804
0.360784 0.345098 0.333333
0.396078 0.376471 0.360784
0.454902 0.415686 0.407843
0.541176 0.486275 0.482353
0.349020 0.376471 0.349020
0.349020 0.376471 0.349020
0.360784 0.388235 0.360784
0.380392 0.392157 0.364706
0.400000 0.411765 0.384314
0.427451 0.431373 0.407843
0.466667 0.454902 0.435294
0.521569 0.501961 0.478431
0.603922 0.568627 0.541176
0.443137 0.482353 0.447059
0.458824 0.486275 0.454902
0.458824 0.486275 0.454902
0.474510 0.494118 0.466667
0.490196 0.509804 0.482353
0.517647 0.529412 0.501961
0.552941 0.552941 0.521569
0.600000 0.588235 0.560784
0.682353 0.654902 0.623529
0.576471 0.627451 0.588235
0.596078 0.635294 0.600000
0.600000 0.639216 0.603922
0.615686 0.647059 0.603922
0.627451 0.658824 0.615686
0.650980 0.670588 0.643137
0.690196 0.701961 0.674510
0.721569 0.721569 0.690196
0.784314 0.768627 0.733333
0.756863 0.807843 0.768627
0.772549 0.811765 0.776471
0.776471 0.823529 0.776471
0.788235 0.827451 0.784314
0.803922 0.843137 0.807843
0.835294 0.858824 0.819608
0.870588 0.882353 0.847059
0.901961 0.913725 0.886275
0.952941 0.952941 0.921569
0.015686 0.007843 0.027451
0.035294 0.027451 0.047059
0.074510 0.054902 0.078431
0.117647 0.094118 0.101961
0.172549 0.137255 0.149020
0.219608 0.176471 0.192157
0.270588 0.223529 0.223529
0.333333 0.270588 0.274510
0.415686 0.333333 0.352941
0.062745 0.062745 0.062745
0.066667 0.070588 0.078431
0.098039 0.090196 0.094118
0.137255 0.121569 0.125490
0.180392 0.156863 0.164706
0.235294 0.196078 0.200000
0.282353 0.235294 0.235294
0.352941 0.278431 0.286275
0.419608 0.345098 0.352941
0.121569 0.129412 0.125490
0.129412 0.133333 0.141176
0.152941 0.145098 0.149020
0.176471 0.168627 0.172549
0.215686 0.200000 0.196078
0.266667 0.231373 0.235294
0.305882 0.266667 0.262745
0.368627 0.313725 0.313725
0.450980 0.380392 0.372549
0.192157 0.207843 0.203922
0.196078 0.211765 0.207843
0.215686 0.223529 0.211765
0.235294 0.235294 0.227451
0.262745 0.258824 0.250980
0.294118 0.278431 0.266667
0.345098 0.313725 0.305882
0.392157 0.352941 0.345098
0.474510 0.411765 0.411765
0.266667 0.290196 0.274510
0.270588 0.290196 0.274510
0.290196 0.298039 0.278431
0.301961 0.309804 0.290196
0.325490 0.329412 0.309804
0.352941 0.349020 0.333333
0.400000 0.380392 0.364706
0.450980 0.419608 0.407843
0.537255 0.482353 0.470588
0.352941 0.380392 0.352941
0.352941 0.380392 0.352941
0.360784 0.388235 0.360784
0.380392 0.400000 0.376471
0.400000 0.407843 0.388235
0.423529 0.427451 0.403922
0.470588 0.458824 0.439216
0.533333 0.501961 0.490196
0.607843 0.572549 0.545098
0.443137 0.482353 0.450980
0.447059 0.486275 0.450980
0.458824 0.486275 0.454902
0.474510 0.501961 0.470588
0.490196 0.509804 0.482353
0.521569 0.533333 0.505882
0.552941 0.549020 0.529412
0.611765 0.592157 0.568627
0.694118 0.666667 0.635294
0.580392 0.631373 0.596078
0.596078 0.623529 0.596078
0.596078 0.635294 0.600000
0.607843 0.647059 0.611765
0.631373 0.654902 0.615686
0.650980 0.674510 0.635294
0.686275 0.698039 0.662745
0.721569 0.725490 0.694118
0.788235 0.772549 0.729412
0.760784 0.803922 0.772549
0.764706 0.811765 0.772549
0.776471 0.823529 0.776471
0.788235 0.827451 0.784314
0.803922 0.843137 0.807843
0.835294 0.858824 0.819608
0.870588 0.882353 0.847059
0.901961 0.913725 0.886275
0.956863 0.956863 0.925490
0.031373 0.027451 0.058824
0.043137 0.039216 0.062745
0.074510 0.070588 0.094118
0.125490 0.101961 0.117647
0.180392 0.145098 0.164706
0.227451 0.184314 0.207843
0.278431 0.231373 0.239216
0.345098 0.282353 0.286275
0.419608 0.345098 0.360784
0.070588 0.066667 0.086275
0.078431 0.082353 0.101961
0.101961 0.098039 0.117647
0.145098 0.125490 0.141176
0.180392 0.160784 0.176471
0.239216 0.196078 0.211765
0.290196 0.243137 0.258824
0.360784 0.286275 0.309804
0.427451 0.352941 0.368627
0.129412 0.133333 0.149020
0.133333 0.137255 0.152941
0.160784 0.160784 0.168627
0.184314 0.176471 0.188235
0.223529 0.207843 0.211765
0.266667 0.231373 0.235294
0.321569 0.282353 0.278431
0.376471 0.321569 0.321569
0.450980 0.380392 0.380392
0.192157 0.207843 0.211765
0.200000 0.215686 0.211765
0.219608 0.223529 0.231373
0.239216 0.239216 0.239216
0.266667 0.262745 0.254902
0.301961 0.286275 0.282353
0.341176 0.317647 0.317647
0.403922 0.356863 0.356863
0.482353 0.419608 0.419608
0.270588 0.294118 0.286275
0.274510 0.298039 0.290196
0.286275 0.301961 0.298039
0.309804 0.317647 0.305882
0.329412 0.329412 0.321569
0.356863 0.352941 0.345098
0.403922 0.384314 0.372549
0.458824 0.419608 0.415686
0.537255 0.482353 0.478431
0.356863 0.380392 0.364706
0.360784 0.384314 0.368627
0.364706 0.388235 0.372549
0.384314 0.403922 0.380392
0.407843 0.415686 0.396078
0.439216 0.435294 0.419608
0.470588 0.458824 0.439216
0.533333 0.501961 0.490196
0.615686 0.572549 0.564706
0.443137 0.482353 0.450980
0.454902 0.494118 0.462745
0.462745 0.490196 0.462745
0.474510 0.501961 0.474510
0.494118 0.513725 0.490196
0.525490 0.529412 0.505882
0.560784 0.556863 0.537255
0.607843 0.596078 0.568627
0.698039 0.670588 0.639216
0.580392 0.623529 0.592157
0.588235 0.635294 0.596078
0.600000 0.639216 0.603922
0.607843 0.647059 0.611765
0.631373 0.658824 0.627451
0.650980 0.670588 0.643137
0.690196 0.701961 0.666667
0.729412 0.729412 0.698039
0.792157 0.776471 0.741176
0.764706 0.815686 0.780392
0.772549 0.819608 0.780392
0.776471 0.823529 0.784314
0.788235 0.827451 0.792157
0.803922 0.843137 0.807843
0.835294 0.862745 0.831373
0.862745 0.886275 0.847059
0.905882 0.917647 0.890196
0.964706 0.964706 0.933333
0.047059 0.047059 0.086275
0.058824 0.058824 0.098039
0.086275 0.082353 0.113725
0.129412 0.105882 0.145098
0.180392 0.152941 0.184314
0.231373 0.188235 0.219608
0.286275 0.235294 0.262745
0.349020 0.282353 0.305882
0.415686 0.349020 0.372549
0.086275 0.082353 0.105882
0.098039 0.094118 0.125490
0.117647 0.105882 0.141176
0.156863 0.137255 0.164706
0.196078 0.168627 0.200000
0.243137 0.207843 0.227451
0.290196 0.247059 0.270588
0.352941 0.298039 0.298039
0.431373 0.356863 0.372549
0.133333 0.149020 0.160784
0.149020 0.149020 0.180392
0.160784 0.164706 0.180392
0.192157 0.188235 0.207843
0.223529 0.215686 0.227451
0.270588 0.247059 0.254902
0.321569 0.278431 0.294118
0.384314 0.325490 0.337255
0.458824 0.384314 0.392157
0.203922 0.219608 0.231373
0.223529 0.219608 0.239216
0.227451 0.231373 0.247059
0.247059 0.247059 0.254902
0.274510 0.266667 0.278431
0.313725 0.298039 0.301961
0.352941 0.317647 0.329412
0.403922 0.356863 0.364706
0.474510 0.411765 0.415686
0.270588 0.290196 0.301961
0.278431 0.301961 0.301961
0.290196 0.305882 0.309804
0.313725 0.321569 0.317647
0.337255 0.337255 0.337255
0.364706 0.356863 0.360784
0.411765 0.388235 0.388235
0.462745 0.427451 0.431373
0.545098 0.490196 0.486275
0.360784 0.384314 0.376471
0.364706 0.388235 0.380392
0.372549 0.388235 0.384314
0.384314 0.403922 0.388235
0.411765 0.419608 0.407843
0.435294 0.435294 0.427451
0.470588 0.466667 0.458824
0.533333 0.513725 0.501961
0.619608 0.576471 0.568627
0.450980 0.486275 0.474510
0.454902 0.490196 0.470588
0.462745 0.498039 0.478431
0.478431 0.505882 0.478431
0.501961 0.521569 0.498039
0.529412 0.537255 0.517647
0.556863 0.560784 0.537255
0.615686 0.603922 0.584314
0.705882 0.678431 0.654902
0.580392 0.631373 0.603922
0.584314 0.627451 0.596078
0.592157 0.639216 0.600000
0.607843 0.647059 0.615686
0.635294 0.662745 0.631373
0.658824 0.678431 0.654902
0.690196 0.701961 0.674510
0.729412 0.729412 0.698039
0.803922 0.784314 0.760784
0.760784 0.811765 0.776471
0.768627 0.819608 0.780392
0.772549 0.819608 0.780392
0.784314 0.831373 0.792157
0.803922 0.843137 0.807843
0.831373 0.858824 0.827451
0.866667 0.890196 0.850980
0.909804 0.921569 0.894118
0.964706 0.964706 0.933333
0.070588 0.066667 0.121569
0.078431 0.074510 0.129412
0.105882 0.098039 0.149020
0.145098 0.121569 0.176471
0.188235 0.156863 0.207843
0.243137 0.203922 0.247059
0.294118 0.243137 0.278431
0.356863 0.290196 0.321569
0.435294 0.356863 0.400000
0.101961 0.101961 0.141176
0.105882 0.105882 0.152941
0.129412 0.121569 0.172549
0.156863 0.145098 0.188235
0.196078 0.172549 0.211765
0.250980 0.211765 0.247059
0.298039 0.254902 0.286275
0.352941 0.290196 0.329412
0.439216 0.360784 0.403922
0.160784 0.160784 0.200000
0.160784 0.160784 0.200000
0.168627 0.168627 0.207843
0.200000 0.196078 0.227451
0.231373 0.219608 0.247059
0.278431 0.250980 0.282353
0.325490 0.282353 0.313725
0.380392 0.329412 0.356863
0.454902 0.392157 0.403922
0.207843 0.219608 0.239216
0.207843 0.227451 0.250980
0.231373 0.235294 0.254902
0.250980 0.254902 0.274510
0.278431 0.270588 0.290196
0.317647 0.298039 0.321569
0.352941 0.329412 0.345098
0.411765 0.360784 0.388235
0.478431 0.411765 0.435294
0.282353 0.294118 0.313725
0.290196 0.305882 0.317647
0.298039 0.313725 0.325490
0.317647 0.321569 0.337255
0.341176 0.341176 0.349020
0.368627 0.360784 0.372549
0.411765 0.388235 0.396078
0.466667 0.423529 0.439216
0.541176 0.478431 0.490196
0.364706 0.388235 0.388235
0.368627 0.392157 0.392157
0.380392 0.396078 0.400000
0.388235 0.411765 0.411765
0.403922 0.419608 0.415686
0.435294 0.435294 0.435294
0.482353 0.466667 0.470588
0.529412 0.505882 0.505882
0.611765 0.568627 0.560784
0.450980 0.490196 0.486275
0.450980 0.494118 0.470588
0.458824 0.501961 0.486275
0.474510 0.509804 0.498039
0.498039 0.521569 0.505882
0.529412 0.537255 0.525490
0.560784 0.560784 0.552941
0.619608 0.603922 0.592157
0.698039 0.666667 0.654902
0.584314 0.631373 0.615686
0.596078 0.639216 0.615686
0.592157 0.635294 0.611765
0.607843 0.643137 0.623529
0.623529 0.662745 0.631373
0.650980 0.678431 0.650980
0.694118 0.701961 0.682353
0.733333 0.729412 0.709804
0.807843 0.788235 0.764706
0.756863 0.815686 0.788235
0.764706 0.815686 0.780392
0.768627 0.819608 0.784314
0.784314 0.827451 0.796078
0.796078 0.839216 0.807843
0.831373 0.858824 0.827451
0.866667 0.886275 0.858824
0.909804 0.921569 0.894118
0.964706 0.960784 0.941176
0.086275 0.090196 0.168627
0.098039 0.101961 0.180392
0.121569 0.113725 0.196078
0.156863 0.141176 0.207843
0.203922 0.176471 0.239216
0.243137 0.211765 0.270588
0.301961 0.254902 0.301961
0.368627 0.305882 0.349020
0.443137 0.364706 0.411765
0.121569 0.117647 0.180392
0.133333 0.129412 0.192157
0.149020 0.137255 0.203922
0.176471 0.160784 0.219608
0.215686 0.188235 0.250980
0.266667 0.223529 0.278431
0.309804 0.262745 0.309804
0.368627 0.305882 0.356863
0.443137 0.372549 0.419608
0.156863 0.164706 0.215686
0.172549 0.180392 0.239216
0.192157 0.192157 0.239216
0.215686 0.200000 0.258824
0.254902 0.231373 0.278431
0.282353 0.258824 0.305882
0.337255 0.298039 0.341176
0.392157 0.341176 0.380392
0.470588 0.403922 0.443137
0.223529 0.231373 0.278431
0.231373 0.239216 0.286275
0.235294 0.243137 0.290196
0.270588 0.262745 0.305882
0.290196 0.286275 0.317647
0.329412 0.305882 0.345098
0.368627 0.341176 0.372549
0.419608 0.376471 0.407843
0.490196 0.431373 0.458824
0.290196 0.305882 0.341176
0.301961 0.321569 0.345098
0.309804 0.321569 0.349020
0.321569 0.333333 0.360784
0.341176 0.345098 0.364706
0.376471 0.372549 0.396078
0.415686 0.396078 0.419608
0.470588 0.431373 0.462745
0.549020 0.490196 0.509804
0.372549 0.403922 0.415686
0.376471 0.407843 0.419608
0.388235 0.407843 0.423529
0.400000 0.419608 0.435294
0.415686 0.431373 0.443137
0.443137 0.447059 0.462745
0.490196 0.470588 0.486275
0.541176 0.505882 0.525490
0.615686 0.564706 0.592157
0.458824 0.498039 0.494118
0.458824 0.498039 0.494118
0.470588 0.501961 0.509804
0.482353 0.517647 0.513725
0.501961 0.525490 0.525490
0.529412 0.545098 0.541176
0.568627 0.568627 0.568627
0.623529 0.600000 0.600000
0.701961 0.670588 0.662745
0.580392 0.639216 0.627451
0.584314 0.631373 0.615686
0.592157 0.639216 0.631373
0.603922 0.643137 0.639216
0.627451 0.662745 0.650980
0.654902 0.678431 0.670588
0.694118 0.701961 0.690196
0.741176 0.737255 0.721569
0.827451 0.796078 0.784314
0.760784 0.819608 0.800000
0.768627 0.819608 0.792157
0.772549 0.823529 0.796078
0.784314 0.827451 0.803922
0.796078 0.839216 0.815686
0.819608 0.858824 0.827451
0.866667 0.886275 0.862745
0.905882 0.925490 0.901961
0.972549 0.976471 0.952941
0.121569 0.121569 0.231373
0.129412 0.129412 0.231373
0.156863 0.145098 0.250980
0.188235 0.164706 0.266667
0.231373 0.200000 0.294118
0.274510 0.235294 0.329412
0.337255 0.278431 0.352941
0.400000 0.325490 0.400000
0.466667 0.384314 0.458824
0.141176 0.141176 0.250980
0.149020 0.149020 0.243137
0.168627 0.160784 0.254902
0.200000 0.184314 0.274510
0.243137 0.211765 0.301961
0.286275 0.250980 0.325490
0.341176 0.290196 0.360784
0.400000 0.333333 0.403922
0.470588 0.388235 0.454902
0.184314 0.188235 0.270588
0.192157 0.196078 0.278431
0.203922 0.207843 0.290196
0.231373 0.223529 0.309804
0.266667 0.247059 0.325490
0.317647 0.282353 0.356863
0.372549 0.321569 0.388235
0.427451 0.360784 0.423529
0.478431 0.407843 0.462745
0.223529 0.247059 0.309804
0.243137 0.247059 0.325490
0.250980 0.262745 0.329412
0.274510 0.278431 0.349020
0.309804 0.301961 0.356863
0.349020 0.321569 0.384314
0.396078 0.352941 0.415686
0.443137 0.396078 0.450980
0.509804 0.439216 0.494118
0.298039 0.321569 0.376471
0.301961 0.325490 0.380392
0.313725 0.325490 0.384314
0.329412 0.337255 0.388235
0.356863 0.352941 0.407843
0.392157 0.376471 0.431373
0.443137 0.411765 0.462745
0.498039 0.450980 0.498039
0.564706 0.501961 0.545098
0.388235 0.423529 0.458824
0.392157 0.427451 0.462745
0.400000 0.427451 0.466667
0.403922 0.431373 0.462745
0.423529 0.435294 0.470588
0.454902 0.454902 0.494118
0.494118 0.482353 0.509804
0.560784 0.521569 0.556863
0.619608 0.568627 0.603922
0.490196 0.525490 0.545098
0.494118 0.537255 0.560784
0.494118 0.537255 0.545098
0.501961 0.537255 0.556863
0.517647 0.552941 0.572549
0.545098 0.556863 0.576471
0.576471 0.580392 0.596078
0.639216 0.619608 0.643137
0.705882 0.670588 0.682353
0.596078 0.650980 0.650980
0.600000 0.654902 0.654902
0.615686 0.662745 0.662745
0.627451 0.666667 0.670588
0.635294 0.674510 0.670588
0.658824 0.694118 0.690196
0.694118 0.709804 0.713725
0.745098 0.745098 0.745098
0.819608 0.796078 0.796078
0.760784 0.827451 0.803922
0.768627 0.827451 0.815686
0.780392 0.827451 0.819608
0.784314 0.831373 0.823529
0.803922 0.850980 0.835294
0.823529 0.866667 0.850980
0.854902 0.890196 0.870588
0.905882 0.925490 0.909804
0.984314 0.988235 0.968627
0.168627 0.164706 0.329412
0.172549 0.168627 0.325490
0.200000 0.180392 0.337255
0.231373 0.207843 0.356863
0.282353 0.243137 0.380392
0.337255 0.282353 0.419608
0.392157 0.325490 0.450980
0.466667 0.376471 0.490196
0.552941 0.439216 0.549020
0.172549 0.180392 0.333333
0.188235 0.180392 0.337255
0.207843 0.200000 0.345098
0.239216 0.223529 0.360784
0.282353 0.254902 0.388235
0.341176 0.286275 0.415686
0.400000 0.337255 0.450980
0.478431 0.380392 0.498039
0.552941 0.439216 0.549020
0.207843 0.215686 0.364706
0.215686 0.223529 0.372549
0.239216 0.239216 0.380392
0.270588 0.254902 0.392157
0.309804 0.282353 0.411765
0.364706 0.321569 0.447059
0.427451 0.364706 0.478431
0.490196 0.411765 0.517647
0.572549 0.478431 0.572549
0.243137 0.266667 0.392157
0.254902 0.266667 0.388235
0.270588 0.282353 0.403922
0.298039 0.294118 0.415686
0.345098 0.325490 0.443137
0.384314 0.349020 0.462745
0.447059 0.392157 0.494118
0.513725 0.443137 0.537255
0.592157 0.498039 0.592157
0.294118 0.329412 0.443137
0.290196 0.329412 0.435294
0.313725 0.333333 0.447059
0.337255 0.352941 0.458824
0.372549 0.380392 0.478431
0.423529 0.407843 0.505882
0.486275 0.447059 0.541176
0.552941 0.494118 0.576471
0.627451 0.552941 0.631373
0.403922 0.450980 0.537255
0.403922 0.450980 0.537255
0.407843 0.450980 0.537255
0.411765 0.443137 0.533333
0.415686 0.439216 0.533333
0.466667 0.466667 0.560784
0.533333 0.513725 0.600000
0.611765 0.560784 0.639216
0.674510 0.619608 0.686275
0.533333 0.588235 0.639216
0.537255 0.592157 0.643137
0.537255 0.592157 0.643137
0.537255 0.584314 0.631373
0.549020 0.588235 0.635294
0.545098 0.568627 0.631373
0.600000 0.596078 0.658824
0.674510 0.650980 0.698039
0.745098 0.698039 0.745098
0.674510 0.741176 0.768627
0.674510 0.745098 0.760784
0.678431 0.749020 0.764706
0.686275 0.745098 0.764706
0.694118 0.745098 0.768627
0.705882 0.749020 0.772549
0.717647 0.745098 0.776471
0.756863 0.760784 0.780392
0.839216 0.811765 0.839216
0.819608 0.882353 0.882353
0.823529 0.886275 0.886275
0.827451 0.882353 0.886275
0.839216 0.894118 0.894118
0.843137 0.898039 0.898039
0.866667 0.913725 0.913725
0.890196 0.925490 0.921569
0.921569 0.956863 0.952941
1.000000 1.000000 1.000000
