resources/LUTs/Black and White/8.cube
TITLE "B&W Preset #8"
#LUT size
LUT_3D_SIZE 5
#LUT data points
0.000000 0.000000 0.000000
0.054902 0.054902 0.054902
0.188235 0.188235 0.188235
0.360784 0.360784 0.360784
0.607843 0.607843 0.607843
0.160784 0.160784 0.160784
0.180392 0.180392 0.180392
0.313725 0.313725 0.313725
0.458824 0.458824 0.458824
0.678431 0.678431 0.678431
0.439216 0.439216 0.439216
0.466667 0.466667 0.466667
0.501961 0.501961 0.501961
0.643137 0.643137 0.643137
0.803922 0.803922 0.803922
0.749020 0.749020 0.749020
0.772549 0.772549 0.772549
0.780392 0.780392 0.780392
0.796078 0.796078 0.796078
0.898039 0.898039 0.898039
0.956863 0.956863 0.956863
0.960784 0.960784 0.960784
0.964706 0.964706 0.964706
0.972549 0.972549 0.972549
0.984314 0.984314 0.984314
0.019608 0.019608 0.019608
0.066667 0.066667 0.066667
0.200000 0.200000 0.200000
0.376471 0.376471 0.376471
0.611765 0.611765 0.611765
0.149020 0.149020 0.149020
0.196078 0.196078 0.196078
0.325490 0.325490 0.325490
0.450980 0.450980 0.450980
0.678431 0.678431 0.678431
0.431373 0.431373 0.431373
0.454902 0.454902 0.454902
0.490196 0.490196 0.490196
0.631373 0.631373 0.631373
0.792157 0.792157 0.792157
0.741176 0.741176 0.741176
0.752941 0.752941 0.752941
0.764706 0.764706 0.764706
0.788235 0.788235 0.788235
0.890196 0.890196 0.890196
0.952941 0.952941 0.952941
0.952941 0.952941 0.952941
0.960784 0.960784 0.960784
0.968627 0.968627 0.968627
0.984314 0.984314 0.984314
0.101961 0.101961 0.101961
0.129412 0.129412 0.129412
0.203922 0.203922 0.203922
0.345098 0.345098 0.345098
0.592157 0.592157 0.592157
0.211765 0.211765 0.211765
0.235294 0.235294 0.235294
0.294118 0.294118 0.294118
0.427451 0.427451 0.427451
0.643137 0.643137 0.643137
0.407843 0.407843 0.407843
0.450980 0.450980 0.450980
0.525490 0.525490 0.525490
0.627451 0.627451 0.627451
0.772549 0.772549 0.772549
0.749020 0.749020 0.749020
0.764706 0.764706 0.764706
0.780392 0.780392 0.780392
0.800000 0.800000 0.800000
0.901961 0.901961 0.901961
0.949020 0.949020 0.949020
0.952941 0.952941 0.952941
0.960784 0.960784 0.960784
0.968627 0.968627 0.968627
0.988235 0.988235 0.988235
0.200000 0.200000 0.200000
0.215686 0.215686 0.215686
0.262745 0.262745 0.262745
0.360784 0.360784 0.360784
0.564706 0.564706 0.564706
0.286275 0.286275 0.286275
0.301961 0.301961 0.301961
0.345098 0.345098 0.345098
0.431373 0.431373 0.431373
0.611765 0.611765 0.611765
0.435294 0.435294 0.435294
0.454902 0.454902 0.454902
0.521569 0.521569 0.521569
0.600000 0.600000 0.600000
0.745098 0.745098 0.745098
0.701961 0.701961 0.701961
0.717647 0.717647 0.717647
0.749020 0.749020 0.749020
0.803922 0.803922 0.803922
0.878431 0.878431 0.878431
0.945098 0.945098 0.945098
0.949020 0.949020 0.949020
0.960784 0.960784 0.960784
0.972549 0.972549 0.972549
0.996078 0.996078 0.996078
0.474510 0.474510 0.474510
0.494118 0.494118 0.494118
0.525490 0.525490 0.525490
0.580392 0.580392 0.580392
0.682353 0.682353 0.682353
0.537255 0.537255 0.537255
0.564706 0.564706 0.564706
0.588235 0.588235 0.588235
0.627451 0.627451 0.627451
0.721569 0.721569 0.721569
0.678431 0.678431 0.678431
0.698039 0.698039 0.698039
0.705882 0.705882 0.705882
0.737255 0.737255 0.737255
0.800000 0.800000 0.800000
0.858824 0.858824 0.858824
0.858824 0.858824 0.858824
0.847059 0.847059 0.847059
0.866667 0.866667 0.866667
0.898039 0.898039 0.898039
0.956863 0.956863 0.956863
0.960784 0.960784 0.960784
0.964706 0.964706 0.964706
0.976471 0.976471 0.976471
1.000000 1.000000 1.000000
