resources/LUTs/Black and White/8.cube
TITLE "B&W Preset #8"
#LUT size
LUT_3D_SIZE 9
#LUT data points
0.000000 0.000000 0.000000
0.011765 0.011765 0.011765
0.054902 0.054902 0.054902
0.117647 0.117647 0.117647
0.188235 0.188235 0.188235
0.262745 0.262745 0.262745
0.360784 0.360784 0.360784
0.462745 0.462745 0.462745
0.607843 0.607843 0.607843
0.050980 0.050980 0.050980
0.062745 0.062745 0.062745
0.113725 0.113725 0.113725
0.164706 0.164706 0.164706
0.223529 0.223529 0.223529
0.290196 0.290196 0.290196
0.376471 0.376471 0.376471
0.466667 0.466667 0.466667
0.603922 0.603922 0.603922
0.160784 0.160784 0.160784
0.160784 0.160784 0.160784
0.180392 0.180392 0.180392
0.247059 0.247059 0.247059
0.313725 0.313725 0.313725
0.380392 0.380392 0.380392
0.458824 0.458824 0.458824
0.552941 0.552941 0.552941
0.678431 0.678431 0.678431
0.274510 0.274510 0.274510
0.286275 0.286275 0.286275
0.301961 0.301961 0.301961
0.325490 0.325490 0.325490
0.388235 0.388235 0.388235
0.458824 0.458824 0.458824
0.529412 0.529412 0.529412
0.611765 0.611765 0.611765
0.709804 0.709804 0.709804
0.439216 0.439216 0.439216
0.454902 0.454902 0.454902
0.466667 0.466667 0.466667
0.482353 0.482353 0.482353
0.501961 0.501961 0.501961
0.560784 0.560784 0.560784
0.643137 0.643137 0.643137
0.721569 0.721569 0.721569
0.803922 0.803922 0.803922
0.650980 0.650980 0.650980
0.650980 0.650980 0.650980
0.654902 0.654902 0.654902
0.658824 0.658824 0.658824
0.674510 0.674510 0.674510
0.682353 0.682353 0.682353
0.729412 0.729412 0.729412
0.796078 0.796078 0.796078
0.862745 0.862745 0.862745
0.749020 0.749020 0.749020
0.764706 0.764706 0.764706
0.772549 0.772549 0.772549
0.776471 0.776471 0.776471
0.780392 0.780392 0.780392
0.792157 0.792157 0.792157
0.796078 0.796078 0.796078
0.831373 0.831373 0.831373
0.898039 0.898039 0.898039
0.874510 0.874510 0.874510
0.886275 0.886275 0.886275
0.886275 0.886275 0.886275
0.890196 0.890196 0.890196
0.894118 0.894118 0.894118
0.901961 0.901961 0.901961
0.905882 0.905882 0.905882
0.917647 0.917647 0.917647
0.941176 0.941176 0.941176
0.956863 0.956863 0.956863
0.960784 0.960784 0.960784
0.960784 0.960784 0.960784
0.960784 0.960784 0.960784
0.964706 0.964706 0.964706
0.968627 0.968627 0.968627
0.972549 0.972549 0.972549
0.980392 0.980392 0.980392
0.984314 0.984314 0.984314
0.007843 0.007843 0.007843
0.015686 0.015686 0.015686
0.062745 0.062745 0.062745
0.141176 0.141176 0.141176
0.211765 0.211765 0.211765
0.278431 0.278431 0.278431
0.372549 0.372549 0.372549
0.462745 0.462745 0.462745
0.600000 0.600000 0.600000
0.050980 0.050980 0.050980
0.070588 0.070588 0.070588
0.125490 0.125490 0.125490
0.176471 0.176471 0.176471
0.231373 0.231373 0.231373
0.298039 0.298039 0.298039
0.372549 0.372549 0.372549
0.458824 0.458824 0.458824
0.588235 0.588235 0.588235
0.160784 0.160784 0.160784
0.168627 0.168627 0.168627
0.184314 0.184314 0.184314
0.254902 0.254902 0.254902
0.313725 0.313725 0.313725
0.372549 0.372549 0.372549
0.447059 0.447059 0.447059
0.541176 0.541176 0.541176
0.662745 0.662745 0.662745
0.266667 0.266667 0.266667
0.278431 0.278431 0.278431
0.290196 0.290196 0.290196
0.309804 0.309804 0.309804
0.372549 0.372549 0.372549
0.443137 0.443137 0.443137
0.509804 0.509804 0.509804
0.588235 0.588235 0.588235
0.686275 0.686275 0.686275
0.427451 0.427451 0.427451
0.439216 0.439216 0.439216
0.450980 0.450980 0.450980
0.466667 0.466667 0.466667
0.486275 0.486275 0.486275
0.545098 0.545098 0.545098
0.631373 0.631373 0.631373
0.705882 0.705882 0.705882
0.792157 0.792157 0.792157
0.627451 0.627451 0.627451
0.623529 0.623529 0.623529
0.631373 0.631373 0.631373
0.635294 0.635294 0.635294
0.654902 0.654902 0.654902
0.670588 0.670588 0.670588
0.721569 0.721569 0.721569
0.784314 0.784314 0.784314
0.854902 0.854902 0.854902
0.737255 0.737255 0.737255
0.745098 0.745098 0.745098
0.752941 0.752941 0.752941
0.756863 0.756863 0.756863
0.768627 0.768627 0.768627
0.776471 0.776471 0.776471
0.788235 0.788235 0.788235
0.819608 0.819608 0.819608
0.890196 0.890196 0.890196
0.870588 0.870588 0.870588
0.882353 0.882353 0.882353
0.878431 0.878431 0.878431
0.886275 0.886275 0.886275
0.890196 0.890196 0.890196
0.894118 0.894118 0.894118
0.898039 0.898039 0.898039
0.909804 0.909804 0.909804
0.937255 0.937255 0.937255
0.945098 0.945098 0.945098
0.952941 0.952941 0.952941
0.956863 0.956863 0.956863
0.964706 0.964706 0.964706
0.956863 0.956863 0.956863
0.964706 0.964706 0.964706
0.968627 0.968627 0.968627
0.976471 0.976471 0.976471
0.992157 0.992157 0.992157
0.019608 0.019608 0.019608
0.035294 0.035294 0.035294
0.066667 0.066667 0.066667
0.125490 0.125490 0.125490
0.200000 0.200000 0.200000
0.286275 0.286275 0.286275
0.376471 0.376471 0.376471
0.470588 0.470588 0.470588
0.611765 0.611765 0.611765
0.074510 0.074510 0.074510
0.090196 0.090196 0.090196
0.109804 0.109804 0.109804
0.156863 0.156863 0.156863
0.231373 0.231373 0.231373
0.305882 0.305882 0.305882
0.380392 0.380392 0.380392
0.470588 0.470588 0.470588
0.603922 0.603922 0.603922
0.149020 0.149020 0.149020
0.160784 0.160784 0.160784
0.196078 0.196078 0.196078
0.235294 0.235294 0.235294
0.325490 0.325490 0.325490
0.380392 0.380392 0.380392
0.450980 0.450980 0.450980
0.545098 0.545098 0.545098
0.678431 0.678431 0.678431
0.274510 0.274510 0.274510
0.286275 0.286275 0.286275
0.301961 0.301961 0.301961
0.321569 0.321569 0.321569
0.396078 0.396078 0.396078
0.450980 0.450980 0.450980
0.517647 0.517647 0.517647
0.592157 0.592157 0.592157
0.698039 0.698039 0.698039
0.431373 0.431373 0.431373
0.439216 0.439216 0.439216
0.454902 0.454902 0.454902
0.470588 0.470588 0.470588
0.490196 0.490196 0.490196
0.552941 0.552941 0.552941
0.631373 0.631373 0.631373
0.705882 0.705882 0.705882
0.792157 0.792157 0.792157
0.623529 0.623529 0.623529
0.623529 0.623529 0.623529
0.627451 0.627451 0.627451
0.639216 0.639216 0.639216
0.654902 0.654902 0.654902
0.666667 0.666667 0.666667
0.717647 0.717647 0.717647
0.788235 0.788235 0.788235
0.850980 0.850980 0.850980
0.741176 0.741176 0.741176
0.745098 0.745098 0.745098
0.752941 0.752941 0.752941
0.756863 0.756863 0.756863
0.764706 0.764706 0.764706
0.776471 0.776471 0.776471
0.788235 0.788235 0.788235
0.827451 0.827451 0.827451
0.890196 0.890196 0.890196
0.866667 0.866667 0.866667
0.870588 0.870588 0.870588
0.874510 0.874510 0.874510
0.878431 0.878431 0.878431
0.886275 0.886275 0.886275
0.890196 0.890196 0.890196
0.898039 0.898039 0.898039
0.905882 0.905882 0.905882
0.933333 0.933333 0.933333
0.952941 0.952941 0.952941
0.952941 0.952941 0.952941
0.952941 0.952941 0.952941
0.956863 0.956863 0.956863
0.960784 0.960784 0.960784
0.964706 0.964706 0.964706
0.968627 0.968627 0.968627
0.976471 0.976471 0.976471
0.984314 0.984314 0.984314
0.054902 0.054902 0.054902
0.066667 0.066667 0.066667
0.098039 0.098039 0.098039
0.133333 0.133333 0.133333
0.196078 0.196078 0.196078
0.262745 0.262745 0.262745
0.364706 0.364706 0.364706
0.470588 0.470588 0.470588
0.600000 0.600000 0.600000
0.113725 0.113725 0.113725
0.121569 0.121569 0.121569
0.133333 0.133333 0.133333
0.160784 0.160784 0.160784
0.215686 0.215686 0.215686
0.282353 0.282353 0.282353
0.380392 0.380392 0.380392
0.470588 0.470588 0.470588
0.600000 0.600000 0.600000
0.168627 0.168627 0.168627
0.180392 0.180392 0.180392
0.219608 0.219608 0.219608
0.239216 0.239216 0.239216
0.294118 0.294118 0.294118
0.368627 0.368627 0.368627
0.454902 0.454902 0.454902
0.541176 0.541176 0.541176
0.654902 0.654902 0.654902
0.266667 0.266667 0.266667
0.278431 0.278431 0.278431
0.305882 0.305882 0.305882
0.337255 0.337255 0.337255
0.380392 0.380392 0.380392
0.454902 0.454902 0.454902
0.525490 0.525490 0.525490
0.600000 0.600000 0.600000
0.690196 0.690196 0.690196
0.435294 0.435294 0.435294
0.447059 0.447059 0.447059
0.466667 0.466667 0.466667
0.486275 0.486275 0.486275
0.505882 0.505882 0.505882
0.580392 0.580392 0.580392
0.643137 0.643137 0.643137
0.705882 0.705882 0.705882
0.788235 0.788235 0.788235
0.631373 0.631373 0.631373
0.635294 0.635294 0.635294
0.639216 0.639216 0.639216
0.647059 0.647059 0.647059
0.662745 0.662745 0.662745
0.678431 0.678431 0.678431
0.725490 0.725490 0.725490
0.792157 0.792157 0.792157
0.854902 0.854902 0.854902
0.745098 0.745098 0.745098
0.756863 0.756863 0.756863
0.756863 0.756863 0.756863
0.764706 0.764706 0.764706
0.772549 0.772549 0.772549
0.780392 0.780392 0.780392
0.792157 0.792157 0.792157
0.839216 0.839216 0.839216
0.894118 0.894118 0.894118
0.870588 0.870588 0.870588
0.870588 0.870588 0.870588
0.878431 0.878431 0.878431
0.886275 0.886275 0.886275
0.886275 0.886275 0.886275
0.894118 0.894118 0.894118
0.901961 0.901961 0.901961
0.913725 0.913725 0.913725
0.937255 0.937255 0.937255
0.952941 0.952941 0.952941
0.952941 0.952941 0.952941
0.956863 0.956863 0.956863
0.956863 0.956863 0.956863
0.960784 0.960784 0.960784
0.964706 0.964706 0.964706
0.968627 0.968627 0.968627
0.980392 0.980392 0.980392
0.992157 0.992157 0.992157
0.101961 0.101961 0.101961
0.105882 0.105882 0.105882
0.129412 0.129412 0.129412
0.160784 0.160784 0.160784
0.203922 0.203922 0.203922
0.258824 0.258824 0.258824
0.345098 0.345098 0.345098
0.454902 0.454902 0.454902
0.592157 0.592157 0.592157
0.149020 0.149020 0.149020
0.152941 0.152941 0.152941
0.164706 0.164706 0.164706
0.188235 0.188235 0.188235
0.223529 0.223529 0.223529
0.274510 0.274510 0.274510
0.356863 0.356863 0.356863
0.450980 0.450980 0.450980
0.588235 0.588235 0.588235
0.211765 0.211765 0.211765
0.227451 0.227451 0.227451
0.235294 0.235294 0.235294
0.258824 0.258824 0.258824
0.294118 0.294118 0.294118
0.349020 0.349020 0.349020
0.427451 0.427451 0.427451
0.529412 0.529412 0.529412
0.643137 0.643137 0.643137
0.282353 0.282353 0.282353
0.294118 0.294118 0.294118
0.309804 0.309804 0.309804
0.345098 0.345098 0.345098
0.376471 0.376471 0.376471
0.431373 0.431373 0.431373
0.501961 0.501961 0.501961
0.580392 0.580392 0.580392
0.666667 0.666667 0.666667
0.407843 0.407843 0.407843
0.427451 0.427451 0.427451
0.450980 0.450980 0.450980
0.478431 0.478431 0.478431
0.525490 0.525490 0.525490
0.564706 0.564706 0.564706
0.627451 0.627451 0.627451
0.698039 0.698039 0.698039
0.772549 0.772549 0.772549
0.627451 0.627451 0.627451
0.631373 0.631373 0.631373
0.639216 0.639216 0.639216
0.654902 0.654902 0.654902
0.670588 0.670588 0.670588
0.686275 0.686275 0.686275
0.741176 0.741176 0.741176
0.792157 0.792157 0.792157
0.854902 0.854902 0.854902
0.749020 0.749020 0.749020
0.752941 0.752941 0.752941
0.764706 0.764706 0.764706
0.772549 0.772549 0.772549
0.780392 0.780392 0.780392
0.788235 0.788235 0.788235
0.800000 0.800000 0.800000
0.843137 0.843137 0.843137
0.901961 0.901961 0.901961
0.870588 0.870588 0.870588
0.874510 0.874510 0.874510
0.878431 0.878431 0.878431
0.886275 0.886275 0.886275
0.886275 0.886275 0.886275
0.898039 0.898039 0.898039
0.901961 0.901961 0.901961
0.913725 0.913725 0.913725
0.945098 0.945098 0.945098
0.949020 0.949020 0.949020
0.952941 0.952941 0.952941
0.952941 0.952941 0.952941
0.956863 0.956863 0.956863
0.960784 0.960784 0.960784
0.964706 0.964706 0.964706
0.968627 0.968627 0.968627
0.980392 0.980392 0.980392
0.988235 0.988235 0.988235
0.141176 0.141176 0.141176
0.145098 0.145098 0.145098
0.164706 0.164706 0.164706
0.188235 0.188235 0.188235
0.223529 0.223529 0.223529
0.270588 0.270588 0.270588
0.333333 0.333333 0.333333
0.435294 0.435294 0.435294
0.572549 0.572549 0.572549
0.172549 0.172549 0.172549
0.180392 0.180392 0.180392
0.192157 0.192157 0.192157
0.207843 0.207843 0.207843
0.235294 0.235294 0.235294
0.282353 0.282353 0.282353
0.345098 0.345098 0.345098
0.431373 0.431373 0.431373
0.564706 0.564706 0.564706
0.243137 0.243137 0.243137
0.243137 0.243137 0.243137
0.254902 0.254902 0.254902
0.274510 0.274510 0.274510
0.298039 0.298039 0.298039
0.352941 0.352941 0.352941
0.411765 0.411765 0.411765
0.505882 0.505882 0.505882
0.627451 0.627451 0.627451
0.282353 0.282353 0.282353
0.298039 0.298039 0.298039
0.333333 0.333333 0.333333
0.349020 0.349020 0.349020
0.380392 0.380392 0.380392
0.419608 0.419608 0.419608
0.466667 0.466667 0.466667
0.552941 0.552941 0.552941
0.647059 0.647059 0.647059
0.411765 0.411765 0.411765
0.419608 0.419608 0.419608
0.431373 0.431373 0.431373
0.450980 0.450980 0.450980
0.490196 0.490196 0.490196
0.541176 0.541176 0.541176
0.603922 0.603922 0.603922
0.670588 0.670588 0.670588
0.741176 0.741176 0.741176
0.588235 0.588235 0.588235
0.588235 0.588235 0.588235
0.603922 0.603922 0.603922
0.619608 0.619608 0.619608
0.643137 0.643137 0.643137
0.682353 0.682353 0.682353
0.717647 0.717647 0.717647
0.768627 0.768627 0.768627
0.831373 0.831373 0.831373
0.725490 0.725490 0.725490
0.737255 0.737255 0.737255
0.745098 0.745098 0.745098
0.752941 0.752941 0.752941
0.772549 0.772549 0.772549
0.788235 0.788235 0.788235
0.796078 0.796078 0.796078
0.839216 0.839216 0.839216
0.890196 0.890196 0.890196
0.866667 0.866667 0.866667
0.866667 0.866667 0.866667
0.870588 0.870588 0.870588
0.874510 0.874510 0.874510
0.882353 0.882353 0.882353
0.890196 0.890196 0.890196
0.901961 0.901961 0.901961
0.913725 0.913725 0.913725
0.949020 0.949020 0.949020
0.945098 0.945098 0.945098
0.952941 0.952941 0.952941
0.952941 0.952941 0.952941
0.956863 0.956863 0.956863
0.960784 0.960784 0.960784
0.960784 0.960784 0.960784
0.968627 0.968627 0.968627
0.980392 0.980392 0.980392
0.988235 0.988235 0.988235
0.200000 0.200000 0.200000
0.207843 0.207843 0.207843
0.215686 0.215686 0.215686
0.235294 0.235294 0.235294
0.262745 0.262745 0.262745
0.305882 0.305882 0.305882
0.360784 0.360784 0.360784
0.431373 0.431373 0.431373
0.564706 0.564706 0.564706
0.215686 0.215686 0.215686
0.223529 0.223529 0.223529
0.235294 0.235294 0.235294
0.254902 0.254902 0.254902
0.278431 0.278431 0.278431
0.321569 0.321569 0.321569
0.372549 0.372549 0.372549
0.431373 0.431373 0.431373
0.556863 0.556863 0.556863
0.286275 0.286275 0.286275
0.294118 0.294118 0.294118
0.301961 0.301961 0.301961
0.321569 0.321569 0.321569
0.345098 0.345098 0.345098
0.376471 0.376471 0.376471
0.431373 0.431373 0.431373
0.498039 0.498039 0.498039
0.611765 0.611765 0.611765
0.356863 0.356863 0.356863
0.372549 0.372549 0.372549
0.380392 0.380392 0.380392
0.392157 0.392157 0.392157
0.411765 0.411765 0.411765
0.443137 0.443137 0.443137
0.490196 0.490196 0.490196
0.549020 0.549020 0.549020
0.639216 0.639216 0.639216
0.435294 0.435294 0.435294
0.439216 0.439216 0.439216
0.454902 0.454902 0.454902
0.498039 0.498039 0.498039
0.521569 0.521569 0.521569
0.549020 0.549020 0.549020
0.600000 0.600000 0.600000
0.662745 0.662745 0.662745
0.745098 0.745098 0.745098
0.600000 0.600000 0.600000
0.600000 0.600000 0.600000
0.607843 0.607843 0.607843
0.619608 0.619608 0.619608
0.623529 0.623529 0.623529
0.662745 0.662745 0.662745
0.713725 0.713725 0.713725
0.760784 0.760784 0.760784
0.811765 0.811765 0.811765
0.701961 0.701961 0.701961
0.705882 0.705882 0.705882
0.717647 0.717647 0.717647
0.729412 0.729412 0.729412
0.749020 0.749020 0.749020
0.776471 0.776471 0.776471
0.803922 0.803922 0.803922
0.835294 0.835294 0.835294
0.878431 0.878431 0.878431
0.843137 0.843137 0.843137
0.854902 0.854902 0.854902
0.854902 0.854902 0.854902
0.866667 0.866667 0.866667
0.882353 0.882353 0.882353
0.890196 0.890196 0.890196
0.901961 0.901961 0.901961
0.917647 0.917647 0.917647
0.941176 0.941176 0.941176
0.945098 0.945098 0.945098
0.949020 0.949020 0.949020
0.949020 0.949020 0.949020
0.952941 0.952941 0.952941
0.960784 0.960784 0.960784
0.964706 0.964706 0.964706
0.972549 0.972549 0.972549
0.980392 0.980392 0.980392
0.996078 0.996078 0.996078
0.294118 0.294118 0.294118
0.301961 0.301961 0.301961
0.317647 0.317647 0.317647
0.329412 0.329412 0.329412
0.356863 0.356863 0.356863
0.388235 0.388235 0.388235
0.435294 0.435294 0.435294
0.494118 0.494118 0.494118
0.572549 0.572549 0.572549
0.305882 0.305882 0.305882
0.317647 0.317647 0.317647
0.325490 0.325490 0.325490
0.345098 0.345098 0.345098
0.368627 0.368627 0.368627
0.400000 0.400000 0.400000
0.439216 0.439216 0.439216
0.498039 0.498039 0.498039
0.572549 0.572549 0.572549
0.372549 0.372549 0.372549
0.384314 0.384314 0.384314
0.392157 0.392157 0.392157
0.407843 0.407843 0.407843
0.423529 0.423529 0.423529
0.458824 0.458824 0.458824
0.494118 0.494118 0.494118
0.552941 0.552941 0.552941
0.615686 0.615686 0.615686
0.443137 0.443137 0.443137
0.458824 0.458824 0.458824
0.466667 0.466667 0.466667
0.474510 0.474510 0.474510
0.494118 0.494118 0.494118
0.513725 0.513725 0.513725
0.545098 0.545098 0.545098
0.584314 0.584314 0.584314
0.643137 0.643137 0.643137
0.521569 0.521569 0.521569
0.545098 0.545098 0.545098
0.564706 0.564706 0.564706
0.588235 0.588235 0.588235
0.592157 0.592157 0.592157
0.611765 0.611765 0.611765
0.639216 0.639216 0.639216
0.678431 0.678431 0.678431
0.737255 0.737255 0.737255
0.666667 0.666667 0.666667
0.666667 0.666667 0.666667
0.666667 0.666667 0.666667
0.666667 0.666667 0.666667
0.694118 0.694118 0.694118
0.721569 0.721569 0.721569
0.733333 0.733333 0.733333
0.768627 0.768627 0.768627
0.807843 0.807843 0.807843
0.756863 0.756863 0.756863
0.768627 0.768627 0.768627
0.768627 0.768627 0.768627
0.772549 0.772549 0.772549
0.780392 0.780392 0.780392
0.788235 0.788235 0.788235
0.811765 0.811765 0.811765
0.835294 0.835294 0.835294
0.882353 0.882353 0.882353
0.847059 0.847059 0.847059
0.850980 0.850980 0.850980
0.850980 0.850980 0.850980
0.854902 0.854902 0.854902
0.866667 0.866667 0.866667
0.882353 0.882353 0.882353
0.898039 0.898039 0.898039
0.917647 0.917647 0.917647
0.949020 0.949020 0.949020
0.933333 0.933333 0.933333
0.937255 0.937255 0.937255
0.941176 0.941176 0.941176
0.945098 0.945098 0.945098
0.952941 0.952941 0.952941
0.960784 0.960784 0.960784
0.968627 0.968627 0.968627
0.980392 0.980392 0.980392
0.996078 0.996078 0.996078
0.474510 0.474510 0.474510
0.478431 0.478431 0.478431
0.494118 0.494118 0.494118
0.505882 0.505882 0.505882
0.525490 0.525490 0.525490
0.552941 0.552941 0.552941
0.580392 0.580392 0.580392
0.615686 0.615686 0.615686
0.682353 0.682353 0.682353
0.474510 0.474510 0.474510
0.482353 0.482353 0.482353
0.494118 0.494118 0.494118
0.509804 0.509804 0.509804
0.529412 0.529412 0.529412
0.552941 0.552941 0.552941
0.580392 0.580392 0.580392
0.619608 0.619608 0.619608
0.678431 0.678431 0.678431
0.537255 0.537255 0.537255
0.549020 0.549020 0.549020
0.564706 0.564706 0.564706
0.568627 0.568627 0.568627
0.588235 0.588235 0.588235
0.603922 0.603922 0.603922
0.627451 0.627451 0.627451
0.658824 0.658824 0.658824
0.721569 0.721569 0.721569
0.596078 0.596078 0.596078
0.603922 0.603922 0.603922
0.607843 0.607843 0.607843
0.615686 0.615686 0.615686
0.627451 0.627451 0.627451
0.639216 0.639216 0.639216
0.662745 0.662745 0.662745
0.694118 0.694118 0.694118
0.741176 0.741176 0.741176
0.678431 0.678431 0.678431
0.694118 0.694118 0.694118
0.698039 0.698039 0.698039
0.701961 0.701961 0.701961
0.705882 0.705882 0.705882
0.721569 0.721569 0.721569
0.737255 0.737255 0.737255
0.764706 0.764706 0.764706
0.800000 0.800000 0.800000
0.760784 0.760784 0.760784
0.752941 0.752941 0.752941
0.749020 0.749020 0.749020
0.764706 0.764706 0.764706
0.788235 0.788235 0.788235
0.792157 0.792157 0.792157
0.803922 0.803922 0.803922
0.827451 0.827451 0.827451
0.850980 0.850980 0.850980
0.858824 0.858824 0.858824
0.862745 0.862745 0.862745
0.858824 0.858824 0.858824
0.854902 0.854902 0.854902
0.847059 0.847059 0.847059
0.843137 0.843137 0.843137
0.866667 0.866667 0.866667
0.882353 0.882353 0.882353
0.898039 0.898039 0.898039
0.921569 0.921569 0.921569
0.925490 0.925490 0.925490
0.925490 0.925490 0.925490
0.925490 0.925490 0.925490
0.929412 0.929412 0.929412
0.929412 0.929412 0.929412
0.925490 0.925490 0.925490
0.937255 0.937255 0.937255
0.952941 0.952941 0.952941
0.956863 0.956863 0.956863
0.956863 0.956863 0.956863
0.960784 0.960784 0.960784
0.964706 0.964706 0.964706
0.964706 0.964706 0.964706
0.968627 0.968627 0.968627
0.976471 0.976471 0.976471
0.984314 0.984314 0.984314
1.000000 1.000000 1.000000
