resources/LUTs/Black and White/9.cube
TITLE "B&W Preset #9"
#LUT size
LUT_3D_SIZE 9
#LUT data points
0.000000 0.000000 0.000000
0.058824 0.050980 0.101961
0.105882 0.090196 0.149020
0.152941 0.137255 0.203922
0.211765 0.196078 0.254902
0.270588 0.254902 0.313725
0.333333 0.317647 0.384314
0.403922 0.388235 0.447059
0.498039 0.482353 0.541176
0.113725 0.098039 0.156863
0.133333 0.117647 0.176471
0.156863 0.141176 0.207843
0.192157 0.176471 0.235294
0.239216 0.223529 0.282353
0.290196 0.274510 0.333333
0.349020 0.333333 0.392157
0.415686 0.400000 0.458824
0.509804 0.494118 0.552941
0.207843 0.192157 0.247059
0.215686 0.200000 0.258824
0.239216 0.223529 0.282353
0.266667 0.250980 0.309804
0.298039 0.282353 0.341176
0.341176 0.325490 0.384314
0.392157 0.376471 0.435294
0.458824 0.443137 0.498039
0.549020 0.533333 0.588235
0.305882 0.290196 0.349020
0.313725 0.298039 0.356863
0.325490 0.309804 0.368627
0.349020 0.333333 0.392157
0.376471 0.360784 0.419608
0.407843 0.392157 0.450980
0.450980 0.435294 0.494118
0.517647 0.501961 0.556863
0.592157 0.576471 0.631373
0.407843 0.392157 0.450980
0.415686 0.407843 0.462745
0.423529 0.407843 0.466667
0.443137 0.427451 0.486275
0.470588 0.454902 0.513725
0.501961 0.486275 0.541176
0.537255 0.521569 0.576471
0.592157 0.576471 0.631373
0.662745 0.647059 0.701961
0.529412 0.513725 0.568627
0.533333 0.517647 0.572549
0.537255 0.521569 0.580392
0.552941 0.537255 0.592157
0.572549 0.556863 0.611765
0.596078 0.580392 0.635294
0.627451 0.619608 0.670588
0.674510 0.666667 0.709804
0.745098 0.733333 0.776471
0.639216 0.631373 0.674510
0.639216 0.631373 0.674510
0.650980 0.635294 0.690196
0.662745 0.654902 0.698039
0.670588 0.662745 0.705882
0.694118 0.686275 0.729412
0.717647 0.709804 0.752941
0.752941 0.749020 0.780392
0.803922 0.800000 0.831373
0.772549 0.760784 0.788235
0.780392 0.768627 0.803922
0.784314 0.772549 0.807843
0.792157 0.780392 0.807843
0.803922 0.792157 0.819608
0.815686 0.811765 0.835294
0.831373 0.827451 0.850980
0.854902 0.850980 0.874510
0.890196 0.878431 0.905882
0.901961 0.898039 0.921569
0.905882 0.901961 0.925490
0.909804 0.905882 0.925490
0.913725 0.909804 0.929412
0.921569 0.917647 0.937255
0.933333 0.929412 0.949020
0.945098 0.941176 0.960784
0.960784 0.956863 0.976471
0.980392 0.976471 0.996078
0.015686 0.011765 0.031373
0.070588 0.054902 0.121569
0.117647 0.101961 0.160784
0.172549 0.156863 0.215686
0.227451 0.211765 0.270588
0.286275 0.270588 0.329412
0.337255 0.329412 0.384314
0.407843 0.400000 0.454902
0.501961 0.486275 0.541176
0.117647 0.101961 0.160784
0.137255 0.121569 0.180392
0.164706 0.149020 0.215686
0.203922 0.188235 0.247059
0.250980 0.235294 0.294118
0.298039 0.290196 0.345098
0.349020 0.341176 0.396078
0.415686 0.407843 0.462745
0.505882 0.498039 0.549020
0.211765 0.196078 0.254902
0.223529 0.207843 0.266667
0.239216 0.223529 0.282353
0.266667 0.250980 0.309804
0.301961 0.286275 0.345098
0.345098 0.329412 0.388235
0.392157 0.376471 0.435294
0.458824 0.443137 0.501961
0.549020 0.533333 0.592157
0.301961 0.286275 0.345098
0.309804 0.294118 0.352941
0.325490 0.309804 0.368627
0.349020 0.333333 0.392157
0.376471 0.360784 0.419608
0.407843 0.392157 0.450980
0.454902 0.439216 0.498039
0.513725 0.498039 0.556863
0.592157 0.576471 0.631373
0.400000 0.392157 0.443137
0.411765 0.396078 0.454902
0.419608 0.403922 0.462745
0.443137 0.427451 0.486275
0.470588 0.454902 0.513725
0.490196 0.482353 0.533333
0.533333 0.525490 0.576471
0.588235 0.580392 0.631373
0.658824 0.650980 0.694118
0.525490 0.513725 0.556863
0.525490 0.509804 0.564706
0.533333 0.517647 0.576471
0.549020 0.533333 0.588235
0.568627 0.552941 0.607843
0.592157 0.576471 0.631373
0.623529 0.607843 0.662745
0.674510 0.662745 0.705882
0.737255 0.729412 0.772549
0.635294 0.627451 0.670588
0.643137 0.635294 0.678431
0.643137 0.635294 0.686275
0.654902 0.647059 0.698039
0.670588 0.662745 0.713725
0.686275 0.678431 0.721569
0.717647 0.709804 0.752941
0.749020 0.741176 0.784314
0.811765 0.807843 0.839216
0.772549 0.760784 0.796078
0.780392 0.768627 0.803922
0.784314 0.772549 0.807843
0.788235 0.776471 0.811765
0.800000 0.788235 0.823529
0.815686 0.803922 0.839216
0.835294 0.823529 0.858824
0.854902 0.843137 0.870588
0.886275 0.882353 0.905882
0.905882 0.898039 0.917647
0.905882 0.898039 0.917647
0.913725 0.905882 0.925490
0.917647 0.909804 0.929412
0.921569 0.917647 0.937255
0.933333 0.929412 0.949020
0.945098 0.941176 0.960784
0.960784 0.956863 0.976471
0.980392 0.980392 0.988235
0.050980 0.035294 0.094118
0.078431 0.062745 0.129412
0.125490 0.109804 0.176471
0.180392 0.164706 0.231373
0.239216 0.223529 0.290196
0.294118 0.278431 0.345098
0.349020 0.341176 0.396078
0.419608 0.411765 0.466667
0.509804 0.494118 0.552941
0.133333 0.117647 0.176471
0.141176 0.125490 0.184314
0.168627 0.156863 0.223529
0.211765 0.200000 0.266667
0.258824 0.250980 0.305882
0.309804 0.301961 0.356863
0.360784 0.352941 0.407843
0.427451 0.419608 0.474510
0.513725 0.505882 0.560784
0.215686 0.200000 0.258824
0.227451 0.211765 0.270588
0.247059 0.231373 0.290196
0.274510 0.258824 0.317647
0.313725 0.298039 0.356863
0.352941 0.345098 0.400000
0.396078 0.388235 0.443137
0.462745 0.454902 0.505882
0.552941 0.537255 0.596078
0.305882 0.290196 0.349020
0.317647 0.301961 0.360784
0.333333 0.317647 0.376471
0.352941 0.337255 0.396078
0.380392 0.364706 0.423529
0.411765 0.396078 0.454902
0.462745 0.447059 0.501961
0.521569 0.505882 0.560784
0.600000 0.584314 0.639216
0.411765 0.396078 0.454902
0.415686 0.400000 0.458824
0.419608 0.411765 0.466667
0.439216 0.431373 0.486275
0.462745 0.454902 0.505882
0.498039 0.482353 0.541176
0.545098 0.529412 0.584314
0.592157 0.576471 0.631373
0.662745 0.654902 0.705882
0.529412 0.513725 0.568627
0.529412 0.513725 0.568627
0.537255 0.521569 0.576471
0.549020 0.533333 0.588235
0.572549 0.556863 0.611765
0.592157 0.576471 0.631373
0.619608 0.611765 0.654902
0.674510 0.666667 0.709804
0.741176 0.729412 0.772549
0.639216 0.631373 0.674510
0.635294 0.627451 0.670588
0.647059 0.639216 0.682353
0.658824 0.650980 0.694118
0.670588 0.662745 0.705882
0.690196 0.682353 0.725490
0.717647 0.713725 0.745098
0.756863 0.752941 0.784314
0.811765 0.807843 0.839216
0.776471 0.764706 0.800000
0.772549 0.760784 0.796078
0.780392 0.768627 0.803922
0.784314 0.780392 0.811765
0.800000 0.796078 0.827451
0.807843 0.803922 0.835294
0.827451 0.823529 0.847059
0.850980 0.847059 0.870588
0.886275 0.882353 0.905882
0.901961 0.898039 0.921569
0.909804 0.898039 0.925490
0.905882 0.901961 0.925490
0.909804 0.905882 0.925490
0.921569 0.917647 0.941176
0.933333 0.929412 0.952941
0.941176 0.937255 0.956863
0.960784 0.956863 0.976471
0.976471 0.972549 0.992157
0.078431 0.062745 0.129412
0.098039 0.082353 0.149020
0.137255 0.121569 0.188235
0.188235 0.172549 0.231373
0.247059 0.231373 0.290196
0.301961 0.286275 0.345098
0.356863 0.341176 0.400000
0.431373 0.415686 0.474510
0.517647 0.501961 0.556863
0.141176 0.129412 0.196078
0.156863 0.141176 0.207843
0.184314 0.168627 0.235294
0.223529 0.207843 0.274510
0.270588 0.254902 0.313725
0.313725 0.305882 0.360784
0.372549 0.364706 0.419608
0.443137 0.427451 0.486275
0.525490 0.517647 0.568627
0.227451 0.211765 0.270588
0.231373 0.215686 0.274510
0.254902 0.239216 0.298039
0.282353 0.266667 0.325490
0.317647 0.301961 0.360784
0.360784 0.345098 0.403922
0.415686 0.400000 0.458824
0.478431 0.462745 0.517647
0.560784 0.545098 0.603922
0.313725 0.298039 0.352941
0.325490 0.309804 0.368627
0.341176 0.325490 0.384314
0.356863 0.341176 0.400000
0.388235 0.372549 0.431373
0.419608 0.403922 0.462745
0.466667 0.450980 0.509804
0.529412 0.513725 0.572549
0.603922 0.588235 0.643137
0.419608 0.403922 0.458824
0.423529 0.407843 0.466667
0.435294 0.419608 0.478431
0.450980 0.435294 0.494118
0.474510 0.458824 0.513725
0.505882 0.490196 0.545098
0.549020 0.533333 0.588235
0.600000 0.584314 0.639216
0.666667 0.650980 0.705882
0.533333 0.517647 0.572549
0.537255 0.521569 0.576471
0.541176 0.525490 0.580392
0.556863 0.541176 0.596078
0.576471 0.560784 0.615686
0.596078 0.580392 0.635294
0.627451 0.619608 0.670588
0.678431 0.670588 0.713725
0.741176 0.733333 0.776471
0.643137 0.635294 0.678431
0.643137 0.635294 0.686275
0.647059 0.639216 0.682353
0.658824 0.650980 0.694118
0.674510 0.666667 0.709804
0.694118 0.686275 0.729412
0.717647 0.709804 0.752941
0.756863 0.749020 0.792157
0.815686 0.811765 0.843137
0.772549 0.760784 0.796078
0.768627 0.756863 0.792157
0.780392 0.768627 0.803922
0.792157 0.780392 0.815686
0.800000 0.788235 0.823529
0.815686 0.811765 0.843137
0.831373 0.827451 0.858824
0.854902 0.850980 0.874510
0.886275 0.882353 0.905882
0.901961 0.898039 0.917647
0.905882 0.901961 0.925490
0.909804 0.905882 0.929412
0.913725 0.909804 0.933333
0.925490 0.917647 0.937255
0.933333 0.929412 0.949020
0.949020 0.941176 0.960784
0.964706 0.956863 0.968627
0.984314 0.976471 0.988235
0.109804 0.094118 0.152941
0.125490 0.109804 0.168627
0.156863 0.141176 0.200000
0.203922 0.188235 0.254902
0.254902 0.239216 0.298039
0.309804 0.294118 0.352941
0.368627 0.352941 0.411765
0.439216 0.423529 0.482353
0.525490 0.509804 0.564706
0.160784 0.152941 0.207843
0.176471 0.160784 0.219608
0.200000 0.184314 0.250980
0.235294 0.219608 0.286275
0.278431 0.262745 0.321569
0.321569 0.313725 0.368627
0.380392 0.372549 0.427451
0.447059 0.431373 0.490196
0.533333 0.517647 0.576471
0.243137 0.227451 0.286275
0.250980 0.235294 0.294118
0.266667 0.250980 0.309804
0.294118 0.278431 0.337255
0.325490 0.309804 0.368627
0.368627 0.352941 0.411765
0.419608 0.403922 0.462745
0.486275 0.470588 0.525490
0.564706 0.549020 0.603922
0.325490 0.309804 0.368627
0.333333 0.317647 0.376471
0.345098 0.329412 0.388235
0.364706 0.349020 0.407843
0.392157 0.376471 0.435294
0.431373 0.415686 0.474510
0.478431 0.462745 0.521569
0.529412 0.513725 0.572549
0.600000 0.584314 0.639216
0.423529 0.407843 0.462745
0.427451 0.411765 0.470588
0.439216 0.423529 0.482353
0.454902 0.439216 0.498039
0.486275 0.470588 0.529412
0.513725 0.498039 0.556863
0.549020 0.541176 0.592157
0.596078 0.588235 0.639216
0.666667 0.658824 0.709804
0.537255 0.529412 0.580392
0.537255 0.529412 0.580392
0.545098 0.537255 0.588235
0.556863 0.549020 0.600000
0.572549 0.564706 0.615686
0.596078 0.588235 0.639216
0.635294 0.623529 0.666667
0.686275 0.674510 0.717647
0.745098 0.733333 0.776471
0.643137 0.635294 0.678431
0.650980 0.639216 0.682353
0.654902 0.647059 0.698039
0.662745 0.654902 0.698039
0.678431 0.670588 0.713725
0.701961 0.690196 0.733333
0.729412 0.717647 0.752941
0.760784 0.756863 0.788235
0.819608 0.815686 0.847059
0.768627 0.764706 0.796078
0.772549 0.768627 0.800000
0.780392 0.776471 0.807843
0.788235 0.784314 0.815686
0.800000 0.796078 0.827451
0.819608 0.807843 0.843137
0.831373 0.827451 0.850980
0.854902 0.850980 0.874510
0.894118 0.890196 0.913725
0.901961 0.898039 0.917647
0.905882 0.901961 0.925490
0.905882 0.901961 0.921569
0.917647 0.913725 0.933333
0.921569 0.917647 0.937255
0.933333 0.929412 0.949020
0.945098 0.941176 0.960784
0.960784 0.956863 0.976471
0.980392 0.980392 0.988235
0.145098 0.129412 0.188235
0.156863 0.141176 0.200000
0.184314 0.168627 0.227451
0.219608 0.203922 0.262745
0.266667 0.250980 0.309804
0.321569 0.305882 0.364706
0.372549 0.364706 0.419608
0.443137 0.435294 0.486275
0.533333 0.517647 0.572549
0.188235 0.172549 0.231373
0.196078 0.180392 0.239216
0.219608 0.203922 0.270588
0.247059 0.231373 0.290196
0.286275 0.270588 0.329412
0.337255 0.321569 0.380392
0.388235 0.372549 0.431373
0.454902 0.447059 0.501961
0.537255 0.529412 0.580392
0.258824 0.243137 0.301961
0.266667 0.250980 0.309804
0.278431 0.262745 0.321569
0.301961 0.286275 0.345098
0.337255 0.321569 0.380392
0.376471 0.360784 0.419608
0.431373 0.415686 0.470588
0.494118 0.478431 0.533333
0.568627 0.552941 0.607843
0.337255 0.321569 0.380392
0.345098 0.329412 0.388235
0.356863 0.341176 0.400000
0.376471 0.360784 0.415686
0.407843 0.392157 0.450980
0.439216 0.423529 0.482353
0.482353 0.466667 0.521569
0.541176 0.525490 0.580392
0.607843 0.592157 0.647059
0.431373 0.415686 0.470588
0.435294 0.419608 0.478431
0.450980 0.435294 0.490196
0.462745 0.447059 0.501961
0.490196 0.474510 0.529412
0.517647 0.501961 0.556863
0.556863 0.541176 0.596078
0.607843 0.592157 0.647059
0.662745 0.647059 0.701961
0.545098 0.529412 0.584314
0.545098 0.529412 0.584314
0.556863 0.541176 0.596078
0.564706 0.556863 0.607843
0.580392 0.572549 0.623529
0.603922 0.596078 0.647059
0.639216 0.627451 0.670588
0.682353 0.670588 0.713725
0.741176 0.729412 0.772549
0.647059 0.639216 0.682353
0.647059 0.639216 0.682353
0.654902 0.647059 0.698039
0.662745 0.654902 0.705882
0.682353 0.674510 0.725490
0.705882 0.698039 0.741176
0.725490 0.721569 0.752941
0.768627 0.756863 0.792157
0.819608 0.807843 0.843137
0.776471 0.772549 0.803922
0.780392 0.776471 0.807843
0.776471 0.772549 0.803922
0.788235 0.784314 0.815686
0.796078 0.792157 0.823529
0.811765 0.807843 0.831373
0.831373 0.827451 0.850980
0.854902 0.850980 0.870588
0.894118 0.890196 0.913725
0.898039 0.894118 0.913725
0.905882 0.901961 0.921569
0.905882 0.901961 0.921569
0.913725 0.909804 0.929412
0.921569 0.917647 0.937255
0.933333 0.929412 0.949020
0.949020 0.945098 0.964706
0.960784 0.956863 0.976471
0.980392 0.980392 0.988235
0.180392 0.164706 0.223529
0.192157 0.176471 0.235294
0.211765 0.196078 0.254902
0.247059 0.231373 0.290196
0.290196 0.274510 0.333333
0.337255 0.321569 0.380392
0.396078 0.380392 0.439216
0.462745 0.447059 0.501961
0.552941 0.537255 0.592157
0.211765 0.196078 0.254902
0.223529 0.207843 0.266667
0.239216 0.231373 0.286275
0.266667 0.258824 0.313725
0.305882 0.298039 0.352941
0.352941 0.345098 0.400000
0.403922 0.396078 0.450980
0.474510 0.458824 0.517647
0.556863 0.541176 0.596078
0.278431 0.262745 0.321569
0.286275 0.270588 0.329412
0.298039 0.282353 0.341176
0.321569 0.305882 0.364706
0.352941 0.337255 0.396078
0.396078 0.380392 0.439216
0.447059 0.431373 0.490196
0.505882 0.490196 0.549020
0.588235 0.572549 0.627451
0.352941 0.337255 0.396078
0.356863 0.341176 0.400000
0.368627 0.352941 0.411765
0.392157 0.376471 0.435294
0.419608 0.403922 0.462745
0.454902 0.439216 0.498039
0.501961 0.486275 0.545098
0.556863 0.541176 0.600000
0.623529 0.607843 0.662745
0.450980 0.435294 0.490196
0.454902 0.439216 0.494118
0.454902 0.447059 0.498039
0.478431 0.470588 0.521569
0.498039 0.490196 0.541176
0.533333 0.517647 0.572549
0.568627 0.552941 0.607843
0.611765 0.596078 0.650980
0.674510 0.666667 0.709804
0.560784 0.545098 0.600000
0.564706 0.549020 0.603922
0.572549 0.556863 0.611765
0.580392 0.564706 0.619608
0.592157 0.576471 0.631373
0.611765 0.596078 0.650980
0.647059 0.631373 0.686275
0.686275 0.674510 0.717647
0.741176 0.729412 0.772549
0.658824 0.650980 0.694118
0.658824 0.650980 0.694118
0.662745 0.654902 0.705882
0.674510 0.666667 0.709804
0.690196 0.682353 0.725490
0.709804 0.701961 0.745098
0.729412 0.725490 0.756863
0.764706 0.760784 0.792157
0.815686 0.811765 0.843137
0.776471 0.764706 0.800000
0.780392 0.768627 0.803922
0.784314 0.772549 0.807843
0.784314 0.780392 0.811765
0.803922 0.800000 0.831373
0.819608 0.807843 0.843137
0.839216 0.827451 0.854902
0.866667 0.854902 0.882353
0.909804 0.901961 0.921569
0.905882 0.901961 0.921569
0.905882 0.901961 0.921569
0.909804 0.905882 0.925490
0.913725 0.909804 0.929412
0.921569 0.917647 0.937255
0.929412 0.925490 0.945098
0.945098 0.941176 0.960784
0.964706 0.960784 0.980392
0.984314 0.980392 1.000000
0.223529 0.207843 0.274510
0.231373 0.215686 0.282353
0.250980 0.235294 0.301961
0.282353 0.266667 0.325490
0.325490 0.309804 0.368627
0.376471 0.360784 0.419608
0.435294 0.419608 0.478431
0.501961 0.486275 0.541176
0.572549 0.556863 0.611765
0.247059 0.231373 0.290196
0.254902 0.239216 0.298039
0.274510 0.258824 0.317647
0.301961 0.286275 0.345098
0.341176 0.325490 0.384314
0.392157 0.376471 0.435294
0.447059 0.431373 0.486275
0.509804 0.501961 0.552941
0.572549 0.564706 0.615686
0.301961 0.286275 0.345098
0.313725 0.298039 0.356863
0.325490 0.309804 0.368627
0.352941 0.337255 0.396078
0.384314 0.368627 0.427451
0.431373 0.415686 0.474510
0.482353 0.466667 0.525490
0.545098 0.529412 0.584314
0.600000 0.584314 0.643137
0.368627 0.352941 0.411765
0.380392 0.364706 0.423529
0.392157 0.376471 0.435294
0.415686 0.400000 0.458824
0.443137 0.427451 0.482353
0.482353 0.466667 0.521569
0.533333 0.517647 0.572549
0.580392 0.564706 0.619608
0.635294 0.623529 0.666667
0.470588 0.454902 0.509804
0.474510 0.458824 0.513725
0.478431 0.462745 0.521569
0.486275 0.470588 0.525490
0.517647 0.501961 0.556863
0.552941 0.537255 0.596078
0.592157 0.576471 0.631373
0.635294 0.619608 0.674510
0.690196 0.678431 0.721569
0.584314 0.568627 0.623529
0.588235 0.572549 0.627451
0.588235 0.572549 0.627451
0.596078 0.580392 0.639216
0.603922 0.592157 0.635294
0.627451 0.611765 0.666667
0.658824 0.650980 0.701961
0.698039 0.690196 0.733333
0.752941 0.741176 0.776471
0.690196 0.682353 0.725490
0.698039 0.690196 0.733333
0.694118 0.686275 0.729412
0.701961 0.694118 0.737255
0.709804 0.701961 0.745098
0.721569 0.717647 0.749020
0.745098 0.741176 0.772549
0.780392 0.776471 0.800000
0.823529 0.819608 0.843137
0.792157 0.788235 0.819608
0.792157 0.788235 0.819608
0.796078 0.792157 0.823529
0.803922 0.800000 0.831373
0.811765 0.807843 0.831373
0.827451 0.823529 0.847059
0.847059 0.843137 0.866667
0.866667 0.862745 0.882353
0.905882 0.901961 0.921569
0.913725 0.909804 0.933333
0.909804 0.905882 0.929412
0.913725 0.909804 0.929412
0.917647 0.913725 0.933333
0.929412 0.925490 0.945098
0.937255 0.933333 0.952941
0.945098 0.941176 0.960784
0.960784 0.956863 0.976471
0.988235 0.984314 1.000000
0.282353 0.266667 0.325490
0.290196 0.274510 0.333333
0.305882 0.290196 0.349020
0.341176 0.325490 0.384314
0.384314 0.368627 0.427451
0.443137 0.435294 0.490196
0.509804 0.494118 0.549020
0.576471 0.560784 0.615686
0.643137 0.635294 0.686275
0.301961 0.286275 0.345098
0.305882 0.290196 0.349020
0.329412 0.313725 0.372549
0.356863 0.341176 0.400000
0.396078 0.388235 0.443137
0.450980 0.443137 0.494118
0.517647 0.501961 0.556863
0.584314 0.568627 0.623529
0.650980 0.639216 0.682353
0.341176 0.333333 0.388235
0.352941 0.337255 0.396078
0.372549 0.356863 0.415686
0.392157 0.384314 0.439216
0.435294 0.427451 0.482353
0.490196 0.474510 0.533333
0.549020 0.533333 0.588235
0.607843 0.592157 0.647059
0.674510 0.658824 0.713725
0.403922 0.388235 0.447059
0.411765 0.396078 0.454902
0.419608 0.411765 0.466667
0.450980 0.435294 0.494118
0.490196 0.474510 0.533333
0.533333 0.517647 0.576471
0.584314 0.568627 0.623529
0.639216 0.627451 0.670588
0.701961 0.690196 0.733333
0.474510 0.466667 0.517647
0.482353 0.474510 0.525490
0.494118 0.478431 0.537255
0.517647 0.501961 0.556863
0.549020 0.533333 0.588235
0.592157 0.576471 0.631373
0.627451 0.619608 0.670588
0.686275 0.674510 0.717647
0.741176 0.729412 0.772549
0.619608 0.607843 0.650980
0.615686 0.603922 0.647059
0.615686 0.603922 0.647059
0.611765 0.596078 0.650980
0.611765 0.603922 0.654902
0.650980 0.635294 0.690196
0.690196 0.682353 0.725490
0.745098 0.733333 0.768627
0.792157 0.788235 0.819608
0.745098 0.741176 0.772549
0.741176 0.737255 0.768627
0.741176 0.737255 0.768627
0.745098 0.733333 0.768627
0.745098 0.733333 0.768627
0.737255 0.733333 0.764706
0.764706 0.752941 0.788235
0.807843 0.803922 0.827451
0.854902 0.850980 0.874510
0.858824 0.854902 0.878431
0.862745 0.850980 0.878431
0.854902 0.850980 0.882353
0.858824 0.854902 0.878431
0.862745 0.858824 0.882353
0.862745 0.858824 0.890196
0.866667 0.862745 0.886275
0.878431 0.874510 0.898039
0.917647 0.913725 0.937255
0.945098 0.941176 0.960784
0.941176 0.937255 0.956863
0.941176 0.937255 0.956863
0.949020 0.945098 0.964706
0.949020 0.945098 0.964706
0.956863 0.952941 0.972549
0.960784 0.956863 0.976471
0.976471 0.972549 0.992157
0.992157 0.988235 1.000000
