resources/LUTs/Black and White/9.cube
TITLE "B&W Preset #9"
#LUT size
LUT_3D_SIZE 5
#LUT data points
0.000000 0.000000 0.000000
0.105882 0.090196 0.149020
0.211765 0.196078 0.254902
0.333333 0.317647 0.384314
0.498039 0.482353 0.541176
0.207843 0.192157 0.247059
0.239216 0.223529 0.282353
0.298039 0.282353 0.341176
0.392157 0.376471 0.435294
0.549020 0.533333 0.588235
0.407843 0.392157 0.450980
0.423529 0.407843 0.466667
0.470588 0.454902 0.513725
0.537255 0.521569 0.576471
0.662745 0.647059 0.701961
0.639216 0.631373 0.674510
0.650980 0.635294 0.690196
0.670588 0.662745 0.705882
0.717647 0.709804 0.752941
0.803922 0.800000 0.831373
0.901961 0.898039 0.921569
0.909804 0.905882 0.925490
0.921569 0.917647 0.937255
0.945098 0.941176 0.960784
0.980392 0.976471 0.996078
0.050980 0.035294 0.094118
0.125490 0.109804 0.176471
0.239216 0.223529 0.290196
0.349020 0.341176 0.396078
0.509804 0.494118 0.552941
0.215686 0.200000 0.258824
0.247059 0.231373 0.290196
0.313725 0.298039 0.356863
0.396078 0.388235 0.443137
0.552941 0.537255 0.596078
0.411765 0.396078 0.454902
0.419608 0.411765 0.466667
0.462745 0.454902 0.505882
0.545098 0.529412 0.584314
0.662745 0.654902 0.705882
0.639216 0.631373 0.674510
0.647059 0.639216 0.682353
0.670588 0.662745 0.705882
0.717647 0.713725 0.745098
0.811765 0.807843 0.839216
0.901961 0.898039 0.921569
0.905882 0.901961 0.925490
0.921569 0.917647 0.941176
0.941176 0.937255 0.956863
0.976471 0.972549 0.992157
0.109804 0.094118 0.152941
0.156863 0.141176 0.200000
0.254902 0.239216 0.298039
0.368627 0.352941 0.411765
0.525490 0.509804 0.564706
0.243137 0.227451 0.286275
0.266667 0.250980 0.309804
0.325490 0.309804 0.368627
0.419608 0.403922 0.462745
0.564706 0.549020 0.603922
0.423529 0.407843 0.462745
0.439216 0.423529 0.482353
0.486275 0.470588 0.529412
0.549020 0.541176 0.592157
0.666667 0.658824 0.709804
0.643137 0.635294 0.678431
0.654902 0.647059 0.698039
0.678431 0.670588 0.713725
0.729412 0.717647 0.752941
0.819608 0.815686 0.847059
0.901961 0.898039 0.917647
0.905882 0.901961 0.921569
0.921569 0.917647 0.937255
0.945098 0.941176 0.960784
0.980392 0.980392 0.988235
0.180392 0.164706 0.223529
0.211765 0.196078 0.254902
0.290196 0.274510 0.333333
0.396078 0.380392 0.439216
0.552941 0.537255 0.592157
0.278431 0.262745 0.321569
0.298039 0.282353 0.341176
0.352941 0.337255 0.396078
0.447059 0.431373 0.490196
0.588235 0.572549 0.627451
0.450980 0.435294 0.490196
0.454902 0.447059 0.498039
0.498039 0.490196 0.541176
0.568627 0.552941 0.607843
0.674510 0.666667 0.709804
0.658824 0.650980 0.694118
0.662745 0.654902 0.705882
0.690196 0.682353 0.725490
0.729412 0.725490 0.756863
0.815686 0.811765 0.843137
0.905882 0.901961 0.921569
0.909804 0.905882 0.925490
0.921569 0.917647 0.937255
0.945098 0.941176 0.960784
0.984314 0.980392 1.000000
0.282353 0.266667 0.325490
0.305882 0.290196 0.349020
0.384314 0.368627 0.427451
0.509804 0.494118 0.549020
0.643137 0.635294 0.686275
0.341176 0.333333 0.388235
0.372549 0.356863 0.415686
0.435294 0.427451 0.482353
0.549020 0.533333 0.588235
0.674510 0.658824 0.713725
0.474510 0.466667 0.517647
0.494118 0.478431 0.537255
0.549020 0.533333 0.588235
0.627451 0.619608 0.670588
0.741176 0.729412 0.772549
0.745098 0.741176 0.772549
0.741176 0.737255 0.768627
0.745098 0.733333 0.768627
0.764706 0.752941 0.788235
0.854902 0.850980 0.874510
0.945098 0.941176 0.960784
0.941176 0.937255 0.956863
0.949020 0.945098 0.964706
0.960784 0.956863 0.976471
0.992157 0.988235 1.000000
