resources/LUTs/Black and White/9.cube
TITLE "B&W Preset #9"
#LUT size
LUT_3D_SIZE 25
#LUT data points
0.000000 0.000000 0.000000
0.007843 0.007843 0.015686
0.035294 0.031373 0.062745
0.058824 0.050980 0.101961
0.078431 0.062745 0.121569
0.094118 0.078431 0.137255
0.105882 0.090196 0.149020
0.117647 0.101961 0.160784
0.137255 0.121569 0.188235
0.152941 0.137255 0.203922
0.176471 0.160784 0.227451
0.192157 0.176471 0.243137
0.211765 0.196078 0.254902
0.235294 0.219608 0.278431
0.254902 0.239216 0.298039
0.270588 0.254902 0.313725
0.290196 0.274510 0.333333
0.309804 0.294118 0.360784
0.333333 0.317647 0.384314
0.352941 0.337255 0.403922
0.376471 0.360784 0.419608
0.403922 0.388235 0.447059
0.431373 0.415686 0.474510
0.466667 0.450980 0.509804
0.498039 0.482353 0.541176
0.047059 0.031373 0.090196
0.062745 0.047059 0.113725
0.070588 0.054902 0.121569
0.086275 0.070588 0.137255
0.094118 0.078431 0.145098
0.105882 0.090196 0.156863
0.117647 0.101961 0.168627
0.129412 0.113725 0.180392
0.149020 0.133333 0.200000
0.164706 0.149020 0.215686
0.184314 0.168627 0.235294
0.200000 0.184314 0.250980
0.219608 0.203922 0.270588
0.239216 0.223529 0.290196
0.254902 0.239216 0.305882
0.274510 0.258824 0.317647
0.294118 0.278431 0.337255
0.317647 0.301961 0.360784
0.333333 0.317647 0.376471
0.360784 0.345098 0.403922
0.384314 0.368627 0.427451
0.407843 0.392157 0.450980
0.435294 0.419608 0.478431
0.466667 0.450980 0.505882
0.505882 0.490196 0.549020
0.082353 0.066667 0.125490
0.090196 0.074510 0.141176
0.098039 0.082353 0.149020
0.101961 0.086275 0.152941
0.113725 0.098039 0.164706
0.121569 0.105882 0.172549
0.133333 0.117647 0.184314
0.145098 0.129412 0.196078
0.160784 0.145098 0.211765
0.176471 0.160784 0.227451
0.192157 0.176471 0.235294
0.207843 0.192157 0.250980
0.227451 0.211765 0.270588
0.243137 0.227451 0.286275
0.266667 0.250980 0.309804
0.282353 0.266667 0.325490
0.298039 0.282353 0.341176
0.317647 0.301961 0.360784
0.341176 0.325490 0.384314
0.364706 0.349020 0.407843
0.384314 0.368627 0.427451
0.407843 0.392157 0.450980
0.439216 0.423529 0.482353
0.474510 0.458824 0.513725
0.505882 0.490196 0.545098
0.113725 0.098039 0.156863
0.117647 0.101961 0.168627
0.117647 0.101961 0.160784
0.133333 0.117647 0.176471
0.137255 0.121569 0.188235
0.145098 0.129412 0.196078
0.156863 0.141176 0.207843
0.168627 0.152941 0.219608
0.180392 0.164706 0.223529
0.192157 0.176471 0.235294
0.207843 0.192157 0.250980
0.223529 0.207843 0.266667
0.239216 0.223529 0.282353
0.254902 0.239216 0.298039
0.274510 0.258824 0.317647
0.290196 0.274510 0.333333
0.305882 0.290196 0.349020
0.325490 0.309804 0.368627
0.349020 0.333333 0.392157
0.368627 0.352941 0.411765
0.392157 0.376471 0.435294
0.415686 0.400000 0.458824
0.443137 0.427451 0.486275
0.478431 0.462745 0.517647
0.509804 0.494118 0.552941
0.145098 0.129412 0.188235
0.149020 0.133333 0.200000
0.152941 0.137255 0.203922
0.156863 0.141176 0.207843
0.164706 0.149020 0.207843
0.176471 0.160784 0.219608
0.180392 0.164706 0.223529
0.188235 0.172549 0.231373
0.200000 0.184314 0.243137
0.215686 0.200000 0.258824
0.223529 0.207843 0.266667
0.239216 0.223529 0.282353
0.254902 0.239216 0.298039
0.270588 0.254902 0.313725
0.286275 0.270588 0.329412
0.305882 0.290196 0.349020
0.321569 0.305882 0.364706
0.337255 0.321569 0.380392
0.356863 0.341176 0.400000
0.380392 0.364706 0.423529
0.400000 0.384314 0.443137
0.427451 0.411765 0.470588
0.450980 0.435294 0.494118
0.482353 0.466667 0.521569
0.513725 0.498039 0.552941
0.172549 0.164706 0.219608
0.176471 0.160784 0.227451
0.184314 0.168627 0.235294
0.188235 0.172549 0.239216
0.192157 0.176471 0.235294
0.203922 0.188235 0.247059
0.211765 0.196078 0.254902
0.227451 0.211765 0.278431
0.227451 0.211765 0.270588
0.239216 0.223529 0.282353
0.250980 0.235294 0.294118
0.262745 0.247059 0.305882
0.278431 0.262745 0.321569
0.294118 0.278431 0.337255
0.309804 0.294118 0.352941
0.321569 0.305882 0.364706
0.341176 0.325490 0.384314
0.356863 0.341176 0.400000
0.376471 0.360784 0.419608
0.396078 0.380392 0.439216
0.419608 0.403922 0.462745
0.443137 0.427451 0.482353
0.470588 0.454902 0.509804
0.501961 0.486275 0.541176
0.537255 0.521569 0.576471
0.207843 0.192157 0.247059
0.207843 0.192157 0.250980
0.215686 0.200000 0.258824
0.215686 0.200000 0.258824
0.223529 0.207843 0.266667
0.231373 0.215686 0.274510
0.239216 0.223529 0.282353
0.247059 0.231373 0.290196
0.258824 0.243137 0.301961
0.266667 0.250980 0.309804
0.274510 0.258824 0.317647
0.286275 0.270588 0.329412
0.298039 0.282353 0.341176
0.313725 0.298039 0.356863
0.325490 0.309804 0.368627
0.341176 0.325490 0.384314
0.356863 0.341176 0.400000
0.372549 0.356863 0.415686
0.392157 0.376471 0.435294
0.411765 0.396078 0.454902
0.435294 0.419608 0.478431
0.458824 0.443137 0.498039
0.486275 0.470588 0.525490
0.517647 0.501961 0.556863
0.549020 0.533333 0.588235
0.239216 0.223529 0.282353
0.239216 0.223529 0.282353
0.247059 0.231373 0.290196
0.247059 0.231373 0.290196
0.250980 0.235294 0.294118
0.254902 0.239216 0.298039
0.266667 0.250980 0.309804
0.278431 0.262745 0.321569
0.286275 0.270588 0.329412
0.294118 0.278431 0.337255
0.301961 0.286275 0.345098
0.309804 0.294118 0.352941
0.321569 0.305882 0.364706
0.333333 0.317647 0.376471
0.349020 0.333333 0.392157
0.360784 0.345098 0.403922
0.376471 0.360784 0.419608
0.392157 0.376471 0.435294
0.407843 0.392157 0.450980
0.427451 0.411765 0.470588
0.450980 0.435294 0.494118
0.474510 0.458824 0.517647
0.501961 0.486275 0.541176
0.533333 0.517647 0.572549
0.564706 0.549020 0.603922
0.274510 0.258824 0.317647
0.270588 0.254902 0.313725
0.278431 0.262745 0.321569
0.278431 0.262745 0.321569
0.286275 0.270588 0.329412
0.290196 0.274510 0.341176
0.298039 0.282353 0.349020
0.305882 0.290196 0.356863
0.313725 0.298039 0.356863
0.321569 0.305882 0.364706
0.329412 0.313725 0.372549
0.337255 0.321569 0.380392
0.349020 0.333333 0.392157
0.360784 0.345098 0.403922
0.372549 0.356863 0.415686
0.380392 0.364706 0.423529
0.396078 0.380392 0.439216
0.411765 0.396078 0.454902
0.427451 0.411765 0.470588
0.447059 0.431373 0.490196
0.470588 0.454902 0.513725
0.490196 0.474510 0.529412
0.521569 0.505882 0.560784
0.545098 0.529412 0.584314
0.572549 0.556863 0.611765
0.305882 0.290196 0.349020
0.305882 0.290196 0.349020
0.301961 0.286275 0.345098
0.313725 0.298039 0.356863
0.313725 0.298039 0.356863
0.321569 0.305882 0.364706
0.325490 0.309804 0.368627
0.333333 0.317647 0.376471
0.341176 0.325490 0.384314
0.349020 0.333333 0.392157
0.360784 0.345098 0.403922
0.368627 0.352941 0.411765
0.376471 0.360784 0.419608
0.384314 0.368627 0.427451
0.396078 0.380392 0.439216
0.407843 0.392157 0.450980
0.419608 0.403922 0.462745
0.431373 0.415686 0.474510
0.450980 0.435294 0.494118
0.470588 0.454902 0.513725
0.494118 0.478431 0.537255
0.517647 0.501961 0.556863
0.537255 0.521569 0.576471
0.564706 0.549020 0.603922
0.592157 0.576471 0.631373
0.345098 0.329412 0.388235
0.341176 0.325490 0.384314
0.345098 0.329412 0.396078
0.349020 0.333333 0.400000
0.349020 0.333333 0.392157
0.356863 0.341176 0.400000
0.360784 0.345098 0.400000
0.364706 0.349020 0.403922
0.380392 0.364706 0.423529
0.384314 0.368627 0.427451
0.392157 0.376471 0.435294
0.400000 0.384314 0.443137
0.411765 0.396078 0.454902
0.419608 0.403922 0.462745
0.427451 0.411765 0.470588
0.439216 0.423529 0.482353
0.454902 0.439216 0.494118
0.466667 0.450980 0.509804
0.482353 0.466667 0.525490
0.501961 0.486275 0.545098
0.521569 0.505882 0.560784
0.545098 0.529412 0.584314
0.568627 0.552941 0.607843
0.592157 0.576471 0.631373
0.619608 0.603922 0.658824
0.372549 0.356863 0.411765
0.372549 0.356863 0.415686
0.376471 0.360784 0.419608
0.380392 0.364706 0.423529
0.384314 0.368627 0.427451
0.384314 0.368627 0.427451
0.396078 0.380392 0.439216
0.396078 0.380392 0.439216
0.403922 0.388235 0.447059
0.407843 0.392157 0.450980
0.423529 0.407843 0.466667
0.431373 0.415686 0.474510
0.443137 0.427451 0.486275
0.450980 0.435294 0.494118
0.458824 0.443137 0.501961
0.470588 0.454902 0.513725
0.478431 0.462745 0.521569
0.494118 0.478431 0.537255
0.509804 0.494118 0.552941
0.529412 0.513725 0.572549
0.549020 0.533333 0.588235
0.568627 0.552941 0.607843
0.588235 0.572549 0.627451
0.611765 0.603922 0.654902
0.643137 0.627451 0.682353
0.407843 0.392157 0.450980
0.403922 0.388235 0.447059
0.403922 0.396078 0.450980
0.415686 0.407843 0.462745
0.411765 0.396078 0.454902
0.423529 0.407843 0.466667
0.423529 0.407843 0.466667
0.431373 0.415686 0.474510
0.435294 0.419608 0.478431
0.443137 0.427451 0.486275
0.447059 0.431373 0.490196
0.458824 0.443137 0.501961
0.470588 0.454902 0.513725
0.478431 0.462745 0.521569
0.494118 0.478431 0.533333
0.501961 0.486275 0.541176
0.513725 0.498039 0.552941
0.525490 0.509804 0.564706
0.537255 0.521569 0.576471
0.552941 0.537255 0.592157
0.576471 0.560784 0.615686
0.592157 0.576471 0.631373
0.615686 0.600000 0.654902
0.643137 0.627451 0.682353
0.662745 0.647059 0.701961
0.443137 0.427451 0.486275
0.447059 0.431373 0.490196
0.443137 0.427451 0.486275
0.447059 0.431373 0.490196
0.450980 0.435294 0.494118
0.454902 0.439216 0.498039
0.458824 0.443137 0.501961
0.462745 0.447059 0.501961
0.466667 0.450980 0.505882
0.474510 0.458824 0.513725
0.482353 0.466667 0.521569
0.486275 0.478431 0.529412
0.494118 0.486275 0.537255
0.513725 0.498039 0.556863
0.517647 0.501961 0.560784
0.529412 0.513725 0.572549
0.541176 0.525490 0.584314
0.552941 0.537255 0.592157
0.564706 0.549020 0.603922
0.580392 0.564706 0.619608
0.596078 0.580392 0.635294
0.611765 0.603922 0.654902
0.631373 0.623529 0.674510
0.658824 0.650980 0.694118
0.686275 0.678431 0.729412
0.470588 0.462745 0.513725
0.474510 0.466667 0.517647
0.478431 0.470588 0.521569
0.478431 0.470588 0.521569
0.490196 0.474510 0.529412
0.490196 0.474510 0.529412
0.494118 0.478431 0.533333
0.501961 0.486275 0.541176
0.501961 0.486275 0.541176
0.509804 0.494118 0.549020
0.517647 0.501961 0.556863
0.525490 0.509804 0.564706
0.533333 0.517647 0.572549
0.541176 0.525490 0.580392
0.549020 0.533333 0.588235
0.560784 0.545098 0.600000
0.572549 0.556863 0.611765
0.580392 0.564706 0.619608
0.592157 0.576471 0.631373
0.600000 0.588235 0.631373
0.619608 0.611765 0.662745
0.639216 0.631373 0.682353
0.658824 0.650980 0.694118
0.682353 0.674510 0.717647
0.705882 0.698039 0.741176
0.529412 0.513725 0.568627
0.529412 0.513725 0.568627
0.533333 0.517647 0.572549
0.533333 0.517647 0.572549
0.529412 0.513725 0.568627
0.533333 0.517647 0.572549
0.537255 0.521569 0.580392
0.545098 0.529412 0.588235
0.549020 0.533333 0.588235
0.552941 0.537255 0.592157
0.556863 0.541176 0.596078
0.564706 0.549020 0.603922
0.572549 0.556863 0.611765
0.580392 0.564706 0.619608
0.584314 0.568627 0.623529
0.596078 0.580392 0.635294
0.603922 0.596078 0.647059
0.611765 0.603922 0.654902
0.627451 0.619608 0.670588
0.639216 0.631373 0.682353
0.654902 0.647059 0.690196
0.674510 0.666667 0.709804
0.694118 0.686275 0.729412
0.713725 0.705882 0.749020
0.745098 0.733333 0.776471
0.560784 0.549020 0.592157
0.564706 0.549020 0.603922
0.568627 0.552941 0.607843
0.564706 0.549020 0.603922
0.568627 0.552941 0.607843
0.572549 0.556863 0.611765
0.576471 0.560784 0.615686
0.580392 0.564706 0.619608
0.580392 0.564706 0.619608
0.588235 0.572549 0.627451
0.588235 0.572549 0.627451
0.600000 0.584314 0.639216
0.603922 0.588235 0.643137
0.615686 0.600000 0.654902
0.615686 0.600000 0.654902
0.623529 0.615686 0.658824
0.631373 0.623529 0.666667
0.643137 0.635294 0.678431
0.654902 0.647059 0.690196
0.666667 0.658824 0.701961
0.682353 0.674510 0.717647
0.701961 0.694118 0.737255
0.721569 0.713725 0.756863
0.737255 0.733333 0.764706
0.768627 0.756863 0.800000
0.596078 0.584314 0.627451
0.607843 0.592157 0.647059
0.600000 0.592157 0.643137
0.600000 0.592157 0.643137
0.603922 0.596078 0.647059
0.607843 0.592157 0.647059
0.607843 0.600000 0.650980
0.611765 0.603922 0.654902
0.611765 0.603922 0.654902
0.615686 0.607843 0.650980
0.623529 0.615686 0.658824
0.631373 0.623529 0.666667
0.635294 0.627451 0.670588
0.639216 0.631373 0.674510
0.650980 0.639216 0.682353
0.658824 0.647059 0.690196
0.670588 0.658824 0.701961
0.682353 0.670588 0.713725
0.686275 0.674510 0.717647
0.698039 0.686275 0.729412
0.713725 0.701961 0.745098
0.729412 0.717647 0.760784
0.745098 0.741176 0.772549
0.764706 0.760784 0.792157
0.788235 0.784314 0.815686
0.639216 0.631373 0.674510
0.639216 0.631373 0.674510
0.643137 0.635294 0.678431
0.639216 0.631373 0.674510
0.643137 0.635294 0.678431
0.650980 0.635294 0.690196
0.650980 0.635294 0.690196
0.654902 0.639216 0.694118
0.658824 0.643137 0.698039
0.662745 0.654902 0.698039
0.666667 0.658824 0.701961
0.666667 0.658824 0.701961
0.670588 0.662745 0.705882
0.682353 0.674510 0.717647
0.686275 0.678431 0.721569
0.694118 0.686275 0.729412
0.701961 0.694118 0.737255
0.709804 0.701961 0.745098
0.717647 0.709804 0.752941
0.729412 0.721569 0.764706
0.737255 0.729412 0.772549
0.752941 0.749020 0.780392
0.768627 0.764706 0.796078
0.788235 0.784314 0.815686
0.803922 0.800000 0.831373
0.678431 0.674510 0.705882
0.678431 0.670588 0.713725
0.678431 0.670588 0.713725
0.682353 0.678431 0.709804
0.682353 0.674510 0.717647
0.686275 0.678431 0.721569
0.690196 0.682353 0.725490
0.694118 0.686275 0.729412
0.694118 0.686275 0.729412
0.698039 0.690196 0.733333
0.701961 0.694118 0.737255
0.705882 0.698039 0.741176
0.713725 0.705882 0.749020
0.717647 0.709804 0.752941
0.721569 0.713725 0.756863
0.729412 0.721569 0.764706
0.733333 0.725490 0.768627
0.741176 0.733333 0.776471
0.752941 0.745098 0.788235
0.764706 0.756863 0.800000
0.768627 0.764706 0.796078
0.780392 0.776471 0.807843
0.796078 0.792157 0.815686
0.811765 0.807843 0.831373
0.831373 0.827451 0.850980
0.733333 0.725490 0.768627
0.733333 0.725490 0.768627
0.729412 0.721569 0.772549
0.733333 0.725490 0.776471
0.741176 0.729412 0.772549
0.745098 0.733333 0.776471
0.745098 0.733333 0.768627
0.745098 0.733333 0.768627
0.749020 0.737255 0.772549
0.752941 0.741176 0.776471
0.752941 0.741176 0.776471
0.756863 0.745098 0.780392
0.764706 0.752941 0.788235
0.768627 0.756863 0.792157
0.772549 0.760784 0.796078
0.776471 0.764706 0.800000
0.780392 0.776471 0.807843
0.788235 0.784314 0.815686
0.796078 0.792157 0.823529
0.803922 0.800000 0.831373
0.807843 0.803922 0.835294
0.815686 0.811765 0.835294
0.827451 0.823529 0.847059
0.843137 0.839216 0.862745
0.866667 0.854902 0.882353
0.772549 0.760784 0.788235
0.768627 0.756863 0.792157
0.776471 0.764706 0.800000
0.780392 0.768627 0.803922
0.784314 0.772549 0.807843
0.780392 0.768627 0.803922
0.784314 0.772549 0.807843
0.788235 0.776471 0.803922
0.792157 0.780392 0.807843
0.792157 0.780392 0.807843
0.800000 0.788235 0.815686
0.796078 0.784314 0.811765
0.803922 0.792157 0.819608
0.807843 0.796078 0.823529
0.815686 0.803922 0.831373
0.815686 0.811765 0.835294
0.819608 0.815686 0.839216
0.823529 0.819608 0.843137
0.831373 0.827451 0.850980
0.843137 0.839216 0.862745
0.847059 0.843137 0.866667
0.854902 0.850980 0.874510
0.862745 0.858824 0.882353
0.870588 0.866667 0.886275
0.890196 0.878431 0.905882
0.819608 0.807843 0.835294
0.815686 0.803922 0.839216
0.815686 0.811765 0.843137
0.815686 0.811765 0.843137
0.819608 0.815686 0.847059
0.827451 0.815686 0.850980
0.823529 0.819608 0.850980
0.827451 0.823529 0.854902
0.827451 0.823529 0.854902
0.831373 0.827451 0.850980
0.831373 0.827451 0.850980
0.835294 0.831373 0.854902
0.839216 0.835294 0.858824
0.847059 0.843137 0.866667
0.854902 0.843137 0.870588
0.854902 0.843137 0.870588
0.858824 0.847059 0.874510
0.866667 0.854902 0.882353
0.874510 0.866667 0.886275
0.882353 0.874510 0.894118
0.886275 0.878431 0.898039
0.894118 0.886275 0.905882
0.890196 0.886275 0.905882
0.905882 0.901961 0.921569
0.913725 0.909804 0.929412
0.858824 0.854902 0.878431
0.854902 0.850980 0.874510
0.866667 0.862745 0.886275
0.862745 0.858824 0.882353
0.862745 0.858824 0.882353
0.866667 0.854902 0.882353
0.870588 0.858824 0.886275
0.870588 0.858824 0.886275
0.874510 0.866667 0.886275
0.874510 0.870588 0.890196
0.874510 0.870588 0.890196
0.878431 0.874510 0.894118
0.882353 0.878431 0.898039
0.882353 0.878431 0.901961
0.886275 0.882353 0.905882
0.894118 0.890196 0.913725
0.898039 0.894118 0.917647
0.901961 0.898039 0.921569
0.905882 0.901961 0.925490
0.913725 0.909804 0.933333
0.917647 0.913725 0.937255
0.921569 0.917647 0.941176
0.929412 0.925490 0.945098
0.933333 0.929412 0.949020
0.945098 0.941176 0.960784
0.901961 0.898039 0.921569
0.905882 0.901961 0.925490
0.905882 0.901961 0.925490
0.905882 0.901961 0.925490
0.905882 0.901961 0.921569
0.905882 0.901961 0.921569
0.909804 0.905882 0.925490
0.909804 0.905882 0.925490
0.909804 0.905882 0.925490
0.913725 0.909804 0.929412
0.917647 0.913725 0.933333
0.921569 0.917647 0.937255
0.921569 0.917647 0.937255
0.925490 0.921569 0.941176
0.925490 0.921569 0.941176
0.933333 0.929412 0.949020
0.941176 0.937255 0.956863
0.945098 0.941176 0.960784
0.945098 0.941176 0.960784
0.949020 0.945098 0.964706
0.952941 0.949020 0.968627
0.960784 0.956863 0.976471
0.964706 0.960784 0.980392
0.968627 0.964706 0.984314
0.980392 0.976471 0.996078
0.003922 0.003922 0.011765
0.015686 0.011765 0.031373
0.035294 0.031373 0.062745
0.058824 0.050980 0.101961
0.074510 0.066667 0.121569
0.094118 0.078431 0.137255
0.113725 0.098039 0.156863
0.129412 0.113725 0.168627
0.145098 0.129412 0.196078
0.164706 0.149020 0.215686
0.184314 0.168627 0.235294
0.200000 0.184314 0.250980
0.215686 0.200000 0.258824
0.231373 0.215686 0.274510
0.254902 0.239216 0.298039
0.274510 0.258824 0.317647
0.298039 0.282353 0.341176
0.309804 0.294118 0.352941
0.333333 0.317647 0.376471
0.356863 0.341176 0.400000
0.380392 0.364706 0.423529
0.403922 0.388235 0.447059
0.431373 0.415686 0.474510
0.466667 0.450980 0.509804
0.501961 0.486275 0.541176
0.054902 0.039216 0.098039
0.066667 0.050980 0.117647
0.074510 0.058824 0.125490
0.078431 0.062745 0.129412
0.094118 0.078431 0.137255
0.109804 0.094118 0.152941
0.125490 0.109804 0.176471
0.141176 0.125490 0.192157
0.149020 0.133333 0.200000
0.172549 0.156863 0.223529
0.188235 0.172549 0.239216
0.207843 0.192157 0.258824
0.223529 0.207843 0.274510
0.247059 0.231373 0.298039
0.262745 0.247059 0.313725
0.282353 0.266667 0.325490
0.298039 0.282353 0.341176
0.321569 0.305882 0.364706
0.341176 0.325490 0.384314
0.360784 0.345098 0.403922
0.384314 0.368627 0.427451
0.411765 0.396078 0.454902
0.439216 0.423529 0.482353
0.462745 0.454902 0.505882
0.501961 0.486275 0.545098
0.082353 0.066667 0.125490
0.094118 0.078431 0.145098
0.094118 0.082353 0.149020
0.105882 0.094118 0.160784
0.113725 0.098039 0.164706
0.125490 0.109804 0.176471
0.141176 0.125490 0.192157
0.152941 0.137255 0.203922
0.164706 0.149020 0.215686
0.184314 0.168627 0.235294
0.200000 0.184314 0.243137
0.215686 0.200000 0.258824
0.235294 0.219608 0.278431
0.250980 0.235294 0.294118
0.266667 0.250980 0.317647
0.286275 0.270588 0.337255
0.301961 0.286275 0.352941
0.321569 0.305882 0.372549
0.341176 0.325490 0.392157
0.364706 0.349020 0.415686
0.388235 0.372549 0.431373
0.411765 0.396078 0.454902
0.443137 0.427451 0.486275
0.470588 0.454902 0.509804
0.501961 0.486275 0.541176
0.113725 0.098039 0.156863
0.121569 0.105882 0.172549
0.121569 0.105882 0.164706
0.133333 0.117647 0.176471
0.141176 0.125490 0.184314
0.149020 0.133333 0.200000
0.156863 0.141176 0.207843
0.168627 0.152941 0.219608
0.180392 0.164706 0.231373
0.196078 0.180392 0.239216
0.211765 0.196078 0.254902
0.223529 0.215686 0.270588
0.239216 0.231373 0.286275
0.258824 0.243137 0.301961
0.274510 0.258824 0.317647
0.294118 0.278431 0.337255
0.313725 0.298039 0.356863
0.329412 0.313725 0.372549
0.349020 0.333333 0.392157
0.372549 0.356863 0.415686
0.388235 0.372549 0.431373
0.415686 0.407843 0.462745
0.439216 0.431373 0.482353
0.474510 0.466667 0.517647
0.505882 0.498039 0.549020
0.141176 0.133333 0.188235
0.145098 0.137255 0.192157
0.149020 0.141176 0.196078
0.156863 0.149020 0.203922
0.168627 0.152941 0.211765
0.176471 0.160784 0.219608
0.180392 0.164706 0.223529
0.192157 0.176471 0.235294
0.203922 0.188235 0.247059
0.219608 0.203922 0.262745
0.231373 0.215686 0.274510
0.243137 0.227451 0.286275
0.262745 0.247059 0.313725
0.274510 0.258824 0.325490
0.290196 0.274510 0.333333
0.305882 0.290196 0.349020
0.321569 0.305882 0.364706
0.341176 0.325490 0.384314
0.360784 0.345098 0.403922
0.380392 0.364706 0.423529
0.396078 0.388235 0.443137
0.419608 0.411765 0.466667
0.447059 0.439216 0.494118
0.478431 0.470588 0.525490
0.509804 0.501961 0.556863
0.172549 0.164706 0.219608
0.176471 0.168627 0.223529
0.180392 0.172549 0.227451
0.192157 0.176471 0.235294
0.196078 0.180392 0.239216
0.203922 0.188235 0.247059
0.211765 0.196078 0.262745
0.223529 0.207843 0.274510
0.231373 0.215686 0.274510
0.239216 0.223529 0.282353
0.250980 0.235294 0.294118
0.262745 0.247059 0.305882
0.278431 0.262745 0.321569
0.298039 0.282353 0.341176
0.309804 0.294118 0.352941
0.321569 0.305882 0.364706
0.337255 0.321569 0.380392
0.356863 0.341176 0.400000
0.376471 0.360784 0.419608
0.396078 0.380392 0.439216
0.415686 0.400000 0.458824
0.439216 0.423529 0.482353
0.470588 0.454902 0.509804
0.501961 0.486275 0.541176
0.537255 0.521569 0.576471
0.207843 0.192157 0.250980
0.207843 0.192157 0.250980
0.219608 0.203922 0.262745
0.223529 0.207843 0.266667
0.219608 0.203922 0.262745
0.235294 0.219608 0.278431
0.243137 0.227451 0.286275
0.250980 0.235294 0.294118
0.258824 0.243137 0.301961
0.266667 0.250980 0.309804
0.274510 0.258824 0.317647
0.286275 0.270588 0.329412
0.298039 0.282353 0.341176
0.313725 0.298039 0.356863
0.329412 0.313725 0.372549
0.341176 0.325490 0.384314
0.356863 0.341176 0.400000
0.376471 0.360784 0.419608
0.392157 0.376471 0.435294
0.411765 0.396078 0.454902
0.431373 0.415686 0.474510
0.454902 0.439216 0.498039
0.486275 0.470588 0.529412
0.517647 0.501961 0.556863
0.549020 0.533333 0.592157
0.243137 0.227451 0.286275
0.239216 0.223529 0.290196
0.243137 0.227451 0.294118
0.243137 0.227451 0.286275
0.254902 0.239216 0.298039
0.258824 0.243137 0.309804
0.266667 0.250980 0.309804
0.278431 0.262745 0.321569
0.286275 0.270588 0.329412
0.294118 0.278431 0.337255
0.301961 0.286275 0.345098
0.309804 0.294118 0.352941
0.321569 0.305882 0.364706
0.333333 0.317647 0.376471
0.349020 0.333333 0.392157
0.360784 0.345098 0.403922
0.376471 0.360784 0.419608
0.388235 0.372549 0.431373
0.407843 0.392157 0.450980
0.423529 0.407843 0.462745
0.450980 0.435294 0.490196
0.474510 0.458824 0.513725
0.498039 0.482353 0.541176
0.529412 0.513725 0.568627
0.564706 0.549020 0.603922
0.270588 0.254902 0.313725
0.278431 0.262745 0.321569
0.270588 0.254902 0.313725
0.282353 0.266667 0.325490
0.286275 0.270588 0.329412
0.290196 0.274510 0.333333
0.298039 0.282353 0.341176
0.305882 0.290196 0.349020
0.313725 0.298039 0.356863
0.321569 0.305882 0.364706
0.329412 0.313725 0.372549
0.337255 0.321569 0.380392
0.349020 0.333333 0.392157
0.360784 0.345098 0.403922
0.368627 0.352941 0.411765
0.384314 0.368627 0.427451
0.396078 0.380392 0.439216
0.411765 0.396078 0.454902
0.427451 0.411765 0.470588
0.447059 0.431373 0.490196
0.466667 0.450980 0.509804
0.490196 0.474510 0.533333
0.513725 0.498039 0.552941
0.549020 0.533333 0.588235
0.576471 0.560784 0.615686
0.305882 0.290196 0.349020
0.305882 0.290196 0.349020
0.305882 0.290196 0.349020
0.309804 0.294118 0.352941
0.317647 0.301961 0.360784
0.321569 0.305882 0.364706
0.325490 0.309804 0.368627
0.333333 0.317647 0.376471
0.341176 0.325490 0.384314
0.349020 0.333333 0.392157
0.356863 0.341176 0.400000
0.368627 0.352941 0.411765
0.376471 0.360784 0.419608
0.384314 0.368627 0.427451
0.396078 0.380392 0.439216
0.407843 0.392157 0.450980
0.419608 0.403922 0.462745
0.431373 0.415686 0.470588
0.450980 0.435294 0.490196
0.470588 0.454902 0.509804
0.490196 0.474510 0.533333
0.513725 0.498039 0.556863
0.537255 0.521569 0.580392
0.564706 0.549020 0.603922
0.592157 0.576471 0.631373
0.345098 0.329412 0.388235
0.341176 0.325490 0.392157
0.345098 0.329412 0.396078
0.349020 0.333333 0.392157
0.352941 0.337255 0.396078
0.352941 0.337255 0.396078
0.360784 0.345098 0.403922
0.368627 0.352941 0.411765
0.368627 0.352941 0.411765
0.380392 0.364706 0.423529
0.392157 0.376471 0.435294
